;FLAVOR:Marlin
;TIME:4110
;Filament used: 3.25943m
;Layer height: 0.2
;MINX:104.879
;MINY:84.701
;MINZ:0.2
;MAXX:146.401
;MAXY:125.937
;MAXZ:36
;Generated with Cura_SteamEngine 5.2.1
M82 ;absolute extrusion mode
G21 ; set units to millimeters
G90 ; use absolute positioning
M82 ; absolute extrusion mode
M104 S200 ; set extruder temp
M140 S60 ; set bed temp
M190 S60 ; wait for bed temp
M109 S200 ; wait for extruder temp
G28 W ; home all without mesh bed level
G80 ; mesh bed leveling
G92 E0.0 ; reset extruder distance position
G1 Y-3.0 F1000.0 ; go outside print area
G1 X60.0 E9.0 F1000.0 ; intro line
G1 X100.0 E21.5 F1000.0 ; intro line
G92 E0.0 ; reset extruder distance position
G92 E0
G92 E0
G1 F2100 E-0.8
;LAYER_COUNT:180
;LAYER:0
M107
G0 F3600 X106.529 Y93.467 Z0.2
;TYPE:SKIRT
G1 F2100 E0
G1 F1800 X107.04 Y93.007 E0.02287
G1 X107.885 Y92.372 E0.05802
G1 X108.458 Y92.023 E0.08034
G1 X108.978 Y91.8 E0.09916
G1 X109.759 Y91.613 E0.12587
G1 X110.432 Y91.522 E0.14846
G1 X113.16 Y91.114 E0.2402
G1 X115.828 Y90.637 E0.33034
G1 X118.514 Y90.08 E0.42158
G1 X121.118 Y89.462 E0.5106
G1 X122.503 Y89.091 E0.55829
G1 X123.113 Y88.937 E0.57921
G1 X123.763 Y88.82 E0.60118
G1 X125.066 Y88.8 E0.64452
G1 X125.736 Y88.857 E0.66688
G1 X126.287 Y88.983 E0.68568
G1 X126.971 Y89.264 E0.71028
G1 X129.479 Y90.574 E0.80439
G1 X131.902 Y91.754 E0.89403
G1 X134.404 Y92.885 E0.98535
G1 X135.991 Y93.56 E1.04271
G1 X136.807 Y94.011 E1.07372
G1 X137.677 Y94.663 E1.10988
G1 X138.104 Y95.035 E1.12872
G1 X138.532 Y95.531 E1.15051
G1 X139.152 Y96.521 E1.18936
G1 X140.652 Y98.84 E1.28122
G1 X142.168 Y101.047 E1.37027
G1 X143.774 Y103.248 E1.46089
G1 X145.213 Y105.107 E1.53908
G1 X145.564 Y105.65 E1.56059
G1 X145.841 Y106.276 E1.58336
G1 X146.049 Y106.881 E1.60464
G1 X146.221 Y107.429 E1.62374
G1 X146.351 Y107.98 E1.64257
G1 X146.401 Y108.543 E1.66137
G1 X146.372 Y109.107 E1.68015
G1 X146.209 Y109.873 E1.7062
G1 X145.549 Y111.852 E1.77558
G1 X145.338 Y112.454 E1.7968
G1 X145.114 Y112.973 E1.8156
G1 X144.757 Y113.539 E1.83786
G1 X143.999 Y114.543 E1.8797
G1 X143.447 Y115.243 E1.90935
G1 X142.983 Y115.752 E1.93226
G1 X140.458 Y117.709 E2.03851
G1 X139.204 Y118.714 E2.09196
G1 X138.624 Y119.15 E2.1161
G1 X138.024 Y119.572 E2.14049
G1 X136.705 Y120.419 E2.19263
G1 X133.977 Y122.118 E2.29952
G1 X133.356 Y122.447 E2.3229
G1 X130.794 Y123.242 E2.41212
G1 X130.017 Y123.401 E2.4385
G1 X127.333 Y123.667 E2.5282
G1 X123.739 Y123.721 E2.64775
G1 X122.842 Y123.665 E2.67765
G1 X120.598 Y123.477 E2.75254
G1 X119.497 Y123.304 E2.78961
G1 X118.692 Y123.166 E2.81678
G1 X117.802 Y123.025 E2.84675
G1 X117.251 Y122.897 E2.86556
G1 X116.724 Y122.693 E2.88436
G1 X116.255 Y122.433 E2.90219
G1 X113.78 Y120.832 E3.00023
G1 X112.981 Y120.27 E3.03272
G1 X112.562 Y119.957 E3.05012
G1 X112.131 Y119.584 E3.06908
G1 X111.685 Y119.139 E3.09003
G1 X109.734 Y117.245 E3.18047
G1 X107.583 Y115.275 E3.27748
G1 X107.194 Y114.865 E3.29628
G1 X106.866 Y114.404 E3.3151
G1 X106.57 Y113.828 E3.33664
G1 X106.127 Y112.525 E3.38241
G1 X105.968 Y111.836 E3.40593
G1 X105.919 Y111.26 E3.42516
G1 X105.9 Y109.665 E3.47821
G1 X105.819 Y106.968 E3.56795
G1 X105.654 Y104.153 E3.66174
G1 X105.607 Y103.514 E3.68305
G1 X105.364 Y100.734 E3.77587
G1 X105.27 Y99.918 E3.80319
G1 X105.157 Y98.786 E3.84103
G1 X105.132 Y97.258 E3.89185
G1 X105.162 Y96.693 E3.91067
G1 X105.305 Y96.027 E3.93333
G1 X105.482 Y95.446 E3.95353
G1 X105.662 Y94.911 E3.9723
G1 X105.881 Y94.39 E3.9911
G1 X106.172 Y93.906 E4.00989
G1 X106.529 Y93.467 E4.0287
G0 F3600 X106.878 Y93.68
G1 F1800 X107.281 Y93.326 E4.04655
G1 X108.103 Y92.706 E4.08079
G1 X108.667 Y92.366 E4.10269
G1 X109.162 Y92.16 E4.12053
G1 X109.813 Y92.009 E4.14275
G1 X110.532 Y91.912 E4.16688
G1 X113.213 Y91.511 E4.25705
G1 X115.908 Y91.03 E4.3481
G1 X118.582 Y90.474 E4.43894
G1 X121.217 Y89.849 E4.52901
G1 X122.601 Y89.479 E4.57666
G1 X123.211 Y89.325 E4.59759
G1 X123.81 Y89.219 E4.61782
G1 X125.062 Y89.2 E4.65946
G1 X125.701 Y89.256 E4.6808
G1 X126.223 Y89.382 E4.69866
G1 X126.786 Y89.618 E4.71896
G1 X129.297 Y90.93 E4.81319
G1 X131.769 Y92.134 E4.90465
G1 X134.224 Y93.243 E4.99424
G1 X135.834 Y93.928 E5.05244
G1 X136.481 Y94.286 E5.07703
G1 X136.952 Y94.616 E5.09616
G1 X137.437 Y94.982 E5.11637
G1 X137.839 Y95.336 E5.13418
G1 X138.318 Y95.943 E5.1599
G1 X138.821 Y96.745 E5.19139
G1 X140.303 Y99.036 E5.28214
G1 X141.859 Y101.303 E5.37359
G1 X143.447 Y103.479 E5.46319
G1 X144.895 Y105.35 E5.54188
G1 X145.226 Y105.866 E5.56227
G1 X145.462 Y106.406 E5.58187
G1 X145.811 Y107.427 E5.61776
G1 X145.96 Y108.071 E5.63974
G1 X146.002 Y108.605 E5.65756
G1 X145.964 Y109.14 E5.6754
G1 X145.827 Y109.752 E5.69626
G1 X145.171 Y111.72 E5.76525
G1 X144.96 Y112.322 E5.78647
G1 X144.746 Y112.813 E5.80429
G1 X144.437 Y113.298 E5.82341
G1 X143.685 Y114.295 E5.86495
G1 X143.133 Y114.995 E5.8946
G1 X142.705 Y115.46 E5.91562
G1 X140.262 Y117.354 E6.01843
G1 X138.963 Y118.395 E6.0738
G1 X138.383 Y118.831 E6.09793
G1 X137.808 Y119.235 E6.1213
G1 X136.493 Y120.08 E6.17329
G1 X133.765 Y121.779 E6.28019
G1 X133.192 Y122.079 E6.3017
G1 X130.676 Y122.86 E6.38932
G1 X129.976 Y123.003 E6.41308
G1 X127.3 Y123.268 E6.50252
G1 X123.74 Y123.321 E6.62094
G1 X122.876 Y123.266 E6.64974
G1 X120.638 Y123.078 E6.72443
G1 X119.559 Y122.909 E6.76076
G1 X118.755 Y122.771 E6.78789
G1 X117.865 Y122.63 E6.81786
G1 X117.343 Y122.507 E6.8357
G1 X116.72 Y122.257 E6.85803
G1 X113.998 Y120.496 E6.96585
G1 X113.299 Y120.006 E6.99425
G1 X112.802 Y119.636 E7.01485
G1 X112.413 Y119.3 E7.03195
G1 X112.002 Y118.89 E7.05126
G1 X110 Y116.946 E7.14407
G1 X107.853 Y114.98 E7.2409
G1 X107.485 Y114.589 E7.25876
G1 X107.18 Y114.148 E7.27659
G1 X106.878 Y113.492 E7.30061
G1 X106.654 Y112.838 E7.3236
G1 X106.478 Y112.269 E7.34341
G1 X106.359 Y111.746 E7.36125
G1 X106.319 Y111.255 E7.37764
G1 X106.3 Y109.66 E7.43069
G1 X106.219 Y106.966 E7.52034
G1 X106.053 Y104.129 E7.61486
G1 X106.002 Y103.428 E7.63823
G1 X105.766 Y100.725 E7.72848
G1 X105.668 Y99.878 E7.75684
G1 X105.555 Y98.751 E7.79451
G1 X105.531 Y97.251 E7.8444
G1 X105.563 Y96.716 E7.86223
G1 X105.687 Y96.144 E7.8817
G1 X105.991 Y95.153 E7.91617
G1 X106.251 Y94.547 E7.93811
G1 X106.532 Y94.09 E7.95595
G1 X106.878 Y93.68 E7.97379
G0 F3600 X107.302 Y93.811
G1 F1800 X108.353 Y93.02 E8.01754
G1 X108.873 Y92.71 E8.03768
G1 X109.343 Y92.522 E8.05452
G1 X109.866 Y92.406 E8.07233
G1 X110.539 Y92.315 E8.09492
G1 X113.311 Y91.9 E8.18815
G1 X115.988 Y91.422 E8.27859
G1 X118.651 Y90.869 E8.36905
G1 X121.308 Y90.239 E8.45988
G1 X122.699 Y89.866 E8.50777
G1 X123.309 Y89.712 E8.5287
G1 X124.038 Y89.615 E8.55316
G1 X125.045 Y89.598 E8.58666
G1 X125.665 Y89.656 E8.60737
G1 X126.155 Y89.781 E8.62419
G1 X126.601 Y89.973 E8.64034
G1 X129.116 Y91.287 E8.73472
G1 X131.579 Y92.486 E8.82583
G1 X134.081 Y93.617 E8.91715
G1 X135.677 Y94.296 E8.97484
G1 X136.252 Y94.614 E8.99669
G1 X136.711 Y94.936 E9.01534
G1 X137.196 Y95.302 E9.03555
G1 X137.574 Y95.637 E9.05235
G1 X137.979 Y96.156 E9.07425
G1 X138.463 Y96.928 E9.10455
G1 X139.981 Y99.275 E9.19752
G1 X141.522 Y101.52 E9.28809
G1 X143.127 Y103.719 E9.37863
G1 X144.578 Y105.593 E9.45746
G1 X144.888 Y106.082 E9.47672
G1 X145.084 Y106.536 E9.49317
G1 X145.431 Y107.551 E9.52884
G1 X145.569 Y108.16 E9.54961
G1 X145.602 Y108.665 E9.56645
G1 X145.554 Y109.168 E9.58325
G1 X145.434 Y109.672 E9.60048
G1 X144.794 Y111.587 E9.66764
G1 X144.583 Y112.189 E9.68886
G1 X144.378 Y112.652 E9.7057
G1 X144.118 Y113.058 E9.72173
G1 X143.371 Y114.047 E9.76296
G1 X142.819 Y114.747 E9.79261
G1 X142.426 Y115.171 E9.81183
G1 X140.012 Y117.042 E9.91342
G1 X138.723 Y118.075 E9.96836
G1 X138.143 Y118.511 E9.99249
G1 X137.591 Y118.899 E10.01493
G1 X136.282 Y119.74 E10.06668
G1 X133.554 Y121.439 E10.17357
G1 X133.031 Y121.71 E10.19316
G1 X130.557 Y122.478 E10.27932
G1 X129.935 Y122.605 E10.30044
G1 X127.28 Y122.868 E10.38918
G1 X123.744 Y122.921 E10.5068
G1 X122.909 Y122.868 E10.53463
G1 X120.706 Y122.683 E10.60816
G1 X119.576 Y122.506 E10.6462
G1 X118.817 Y122.376 E10.67181
G1 X117.927 Y122.235 E10.70178
G1 X117.436 Y122.116 E10.71858
G1 X116.885 Y121.887 E10.73843
G1 X114.215 Y120.16 E10.84419
G1 X113.46 Y119.629 E10.87489
G1 X112.861 Y119.181 E10.89977
G1 X112.281 Y118.603 E10.92701
G1 X110.283 Y116.663 E11.01963
G1 X108.123 Y114.685 E11.11704
G1 X107.778 Y114.315 E11.13387
G1 X107.496 Y113.896 E11.15067
G1 X107.257 Y113.362 E11.17013
G1 X106.889 Y112.283 E11.20804
G1 X106.722 Y111.534 E11.23357
G1 X106.701 Y109.713 E11.29414
G1 X106.617 Y106.932 E11.38668
G1 X106.453 Y104.106 E11.48083
G1 X106.404 Y103.444 E11.50291
G1 X106.163 Y100.68 E11.59519
G1 X106.066 Y99.838 E11.62338
G1 X105.955 Y98.729 E11.66045
G1 X105.931 Y97.245 E11.70981
G1 X105.963 Y96.74 E11.72664
G1 X106.07 Y96.26 E11.743
G1 X106.247 Y95.679 E11.7632
G1 X106.419 Y95.169 E11.7811
G1 X106.619 Y94.705 E11.79791
G1 X106.89 Y94.278 E11.81473
G1 X107.302 Y93.811 E11.83544
G1 F2100 E11.03544
G0 F3600 X120.946 Y100.661
G1 F2100 E11.83544
G1 F1800 X121.017 Y100.641 E11.83789
G1 X121.603 Y100.839 E11.85847
G1 X121.304 Y101.349 E11.87813
G1 X121.134 Y100.955 E11.8924
G1 X120.946 Y100.661 E11.90401
G0 F3600 X120.719 Y101.033
G1 F1800 X120.453 Y100.663 E11.91916
G1 X120.194 Y100.411 E11.93118
G1 X120.626 Y100.343 E11.94573
G1 X121.025 Y100.214 E11.95968
G1 X121.837 Y100.49 E11.9882
G1 X122.079 Y100.517 E11.9963
G1 X122.085 Y100.889 E12.00867
G1 X121.92 Y101.076 E12.01697
G1 X121.682 Y101.464 E12.03211
G1 X121.516 Y101.889 E12.04728
G1 X121.427 Y102.335 E12.06241
G1 X121.431 Y102.865 E12.08004
G1 X121.014 Y102.916 E12.09401
G1 X121.085 Y102.335 E12.11348
G1 X121.04 Y101.882 E12.12862
G1 X120.917 Y101.443 E12.14378
G1 X120.719 Y101.033 E12.15893
G0 F3600 X120.303 Y101.124
G1 F1800 X120.036 Y100.801 E12.17287
G1 X119.656 Y100.504 E12.18891
G1 X119.683 Y99.988 E12.20609
G1 X120.249 Y100.006 E12.22493
G1 X120.742 Y99.89 E12.24177
G1 X121.03 Y99.787 E12.25195
G1 X121.546 Y99.989 E12.27038
G1 X121.949 Y100.104 E12.28431
G1 X122.541 Y100.123 E12.30402
G1 X122.477 Y100.451 E12.31513
G1 X122.507 Y101.021 E12.33411
G1 X122.203 Y101.368 E12.34946
G1 X121.998 Y101.734 E12.36341
G1 X121.866 Y102.132 E12.37736
G1 X121.812 Y102.547 E12.39128
G1 X121.838 Y102.965 E12.40521
G1 X121.897 Y103.211 E12.41362
G1 X120.421 Y103.391 E12.46308
G1 X120.52 Y103.202 E12.47017
G1 X120.655 Y102.724 E12.48669
G1 X120.684 Y102.306 E12.50063
G1 X120.634 Y101.89 E12.51456
G1 X120.505 Y101.491 E12.52851
G1 X120.303 Y101.124 E12.54245
G0 F3600 X119.886 Y101.232
G1 F1800 X119.483 Y100.864 E12.5606
G1 X119.195 Y100.712 E12.57143
G1 X119.295 Y100.203 E12.58868
G1 X119.268 Y99.825 E12.60129
G1 X119.128 Y99.398 E12.61623
G1 X119.558 Y99.565 E12.63157
G1 X119.933 Y99.619 E12.64418
G1 X120.311 Y99.593 E12.65678
G1 X121.036 Y99.36 E12.68211
G1 X121.692 Y99.617 E12.70554
G1 X122.057 Y99.717 E12.71813
G1 X122.435 Y99.739 E12.73072
G1 X122.81 Y99.681 E12.74334
G1 X123.164 Y99.546 E12.75594
G1 X123.411 Y99.386 E12.76573
G1 X123.212 Y99.606 E12.7756
G1 X123.022 Y99.934 E12.7882
G1 X122.905 Y100.294 E12.80079
G1 X122.866 Y100.671 E12.8134
G1 X122.94 Y101.13 E12.82886
G1 X122.913 Y101.207 E12.83158
G1 X122.727 Y101.36 E12.83959
G1 X122.491 Y101.656 E12.85218
G1 X122.323 Y101.996 E12.86479
G1 X122.23 Y102.363 E12.87739
G1 X122.215 Y102.742 E12.89
G1 X122.299 Y103.176 E12.9047
G1 X122.42 Y103.55 E12.91778
G1 X120.34 Y103.804 E12.98747
G1 X119.971 Y103.89 E13.00007
G1 X119.627 Y104.05 E13.01269
G1 X119.325 Y104.279 E13.0253
G1 X119.078 Y104.566 E13.03789
G1 X118.972 Y104.76 E13.04525
G1 X118.829 Y104.89 E13.05167
G1 X118.249 Y104.551 E13.07402
G1 X117.755 Y104.363 E13.0916
G1 X118.134 Y104.125 E13.10648
G1 X118.389 Y104.166 E13.11507
G1 X118.768 Y104.145 E13.1277
G1 X119.134 Y104.047 E13.1403
G1 X119.471 Y103.873 E13.15291
G1 X119.764 Y103.634 E13.16549
G1 X120.001 Y103.337 E13.17813
G1 X120.17 Y102.998 E13.19073
G1 X120.261 Y102.658 E13.20243
G1 X120.283 Y102.28 E13.21503
G1 X120.226 Y101.905 E13.22764
G1 X120.092 Y101.551 E13.24023
G1 X119.886 Y101.232 E13.25286
G0 F3600 X119.469 Y101.366
G1 F1800 X119.256 Y101.193 E13.26199
G1 X118.957 Y101.042 E13.27313
G1 X118.761 Y100.996 E13.27983
G1 X118.708 Y100.854 E13.28487
G1 X118.864 Y100.444 E13.29946
G1 X118.896 Y100.111 E13.31058
G1 X118.848 Y99.78 E13.32171
G1 X118.723 Y99.47 E13.33283
G1 X118.529 Y99.199 E13.34391
G1 X118.284 Y98.987 E13.35469
G1 X117.703 Y98.591 E13.37807
G1 X117.329 Y97.762 E13.40832
G1 X117.451 Y97.635 E13.41418
G1 X118.144 Y98.369 E13.44775
G1 X118.543 Y98.664 E13.46426
G1 X119.379 Y99.076 E13.49526
G1 X119.694 Y99.187 E13.50636
G1 X120.027 Y99.22 E13.51749
G1 X120.471 Y99.138 E13.53251
G1 X121.043 Y98.932 E13.55273
G1 X121.838 Y99.244 E13.58114
G1 X122.161 Y99.328 E13.59224
G1 X122.495 Y99.333 E13.60335
G1 X122.821 Y99.259 E13.61447
G1 X123.12 Y99.11 E13.62558
G1 X123.375 Y98.894 E13.63669
G1 X123.571 Y98.624 E13.64779
G1 X123.701 Y98.29 E13.65971
G1 X125.059 Y98.013 E13.70581
G1 X125.208 Y98.052 E13.71093
G1 X125.279 Y98.292 E13.71926
G1 X125.461 Y98.663 E13.733
G1 X125.12 Y98.796 E13.74517
G1 X123.972 Y99.451 E13.78913
G1 X123.704 Y99.65 E13.80024
G1 X123.49 Y99.907 E13.81136
G1 X123.344 Y100.207 E13.82246
G1 X123.272 Y100.533 E13.83356
G1 X123.28 Y100.867 E13.84467
G1 X123.354 Y101.16 E13.85472
G1 X123.252 Y101.445 E13.86479
G1 X122.985 Y101.669 E13.87638
G1 X122.789 Y101.939 E13.88748
G1 X122.662 Y102.248 E13.89859
G1 X122.612 Y102.578 E13.90969
G1 X122.679 Y103.053 E13.92565
G1 X122.972 Y103.956 E13.95722
G1 X122.693 Y103.92 E13.96658
G1 X120.388 Y104.201 E14.04381
G1 X120.064 Y104.281 E14.05491
G1 X119.768 Y104.435 E14.06601
G1 X119.516 Y104.656 E14.07716
G1 X119.293 Y105.008 E14.09102
G1 X119.04 Y105.242 E14.10248
G1 X118.888 Y105.473 E14.11168
G1 X118.697 Y105.276 E14.1208
G1 X118.047 Y104.896 E14.14585
G1 X117.741 Y104.763 E14.15694
G1 X117.411 Y104.707 E14.16808
G1 X117.078 Y104.73 E14.17918
G1 X116.76 Y104.831 E14.19028
G1 X116.459 Y105.018 E14.20206
G1 X116.112 Y104.939 E14.2139
G1 X115.828 Y104.733 E14.22557
G1 X115.772 Y104.56 E14.23161
G1 X115.828 Y104.387 E14.23766
G1 X116.032 Y104.239 E14.24605
G1 X117.114 Y104.139 E14.28219
G1 X117.441 Y104.069 E14.29331
G1 X117.742 Y103.924 E14.30442
G1 X118.021 Y103.682 E14.3167
G1 X118.274 Y103.752 E14.32544
G1 X118.608 Y103.762 E14.33655
G1 X118.935 Y103.693 E14.34767
G1 X119.236 Y103.549 E14.35876
G1 X119.494 Y103.337 E14.36987
G1 X119.695 Y103.07 E14.38099
G1 X119.827 Y102.763 E14.3921
G1 X119.881 Y102.258 E14.40899
G1 X119.817 Y101.931 E14.42007
G1 X119.677 Y101.627 E14.43121
G1 X119.469 Y101.366 E14.44231
G0 F3600 X119.26 Y101.73
G1 F1800 X119.04 Y101.53 E14.4522
G1 X118.779 Y101.404 E14.46184
G1 X118.471 Y101.362 E14.47217
G1 X118.273 Y100.831 E14.49102
G1 X118.481 Y100.315 E14.50953
G1 X118.49 Y100.033 E14.51891
G1 X118.419 Y99.76 E14.52829
G1 X118.275 Y99.517 E14.53769
G1 X118.059 Y99.318 E14.54746
G1 X117.386 Y98.859 E14.57455
G1 X116.902 Y97.785 E14.61373
G1 X117.005 Y97.464 E14.62494
G1 X117.327 Y97.23 E14.63818
G1 X117.619 Y97.23 E14.6479
G1 X118.435 Y98.094 E14.68742
G1 X118.72 Y98.305 E14.69922
G1 X119.556 Y98.717 E14.73022
G1 X119.824 Y98.805 E14.7396
G1 X120.182 Y98.816 E14.75151
G1 X121.048 Y98.505 E14.78211
G1 X121.984 Y98.872 E14.81555
G1 X122.258 Y98.937 E14.82492
G1 X122.54 Y98.923 E14.83431
G1 X122.807 Y98.83 E14.84371
G1 X123.037 Y98.667 E14.85309
G1 X123.212 Y98.446 E14.86247
G1 X123.319 Y98.185 E14.87185
G1 X123.34 Y97.955 E14.87953
G1 X124.966 Y97.626 E14.93471
G1 X125.057 Y97.594 E14.93792
G1 X125.528 Y97.722 E14.95415
G1 X125.78 Y98.434 E14.97927
G1 X125.965 Y98.647 E14.98865
G1 X126.202 Y98.8 E14.99804
G1 X126.435 Y98.87 E15.00613
G1 X126.285 Y99.141 E15.01643
G1 X126.17 Y99.077 E15.02081
G1 X125.894 Y99.015 E15.03022
G1 X125.613 Y99.032 E15.03958
G1 X125.318 Y99.143 E15.05006
G1 X124.17 Y99.798 E15.09402
G1 X123.948 Y99.971 E15.10338
G1 X123.782 Y100.2 E15.11279
G1 X123.687 Y100.465 E15.12215
G1 X123.669 Y100.747 E15.13155
G1 X123.777 Y101.166 E15.14594
G1 X123.583 Y101.705 E15.165
G1 X123.249 Y101.973 E15.17924
G1 X123.098 Y102.212 E15.18864
G1 X123.021 Y102.483 E15.19801
G1 X123.021 Y102.809 E15.20886
