;FLAVOR:Marlin
;TIME:6875
;Filament used: 4.49148m
;Layer height: 0.15
;MINX:85.7
;MINY:68.956
;MINZ:0.2
;MAXX:164.297
;MAXY:141.048
;MAXZ:20
;Generated with Cura_SteamEngine 5.2.1
M82 ;absolute extrusion mode
G21 ; set units to millimeters
G90 ; use absolute positioning
M82 ; absolute extrusion mode
M104 S200 ; set extruder temp
M140 S60 ; set bed temp
M190 S60 ; wait for bed temp
M109 S200 ; wait for extruder temp
G28 W ; home all without mesh bed level
G80 ; mesh bed leveling
G92 E0.0 ; reset extruder distance position
G1 Y-3.0 F1000.0 ; go outside print area
G1 X60.0 E9.0 F1000.0 ; intro line
G1 X100.0 E21.5 F1000.0 ; intro line
G92 E0.0 ; reset extruder distance position
G92 E0
G92 E0
G1 F2100 E-0.8
;LAYER_COUNT:133
;LAYER:0
M107
G0 F3600 X93.693 Y77.175 Z0.2
;TYPE:SKIRT
G1 F2100 E0
G1 F1800 X94.218 Y76.586 E0.02624
G1 X94.801 Y76.053 E0.05252
G1 X95.434 Y75.581 E0.07878
G1 X96.112 Y75.176 E0.10505
G1 X96.828 Y74.842 E0.13132
G1 X97.48 Y74.614 E0.1543
G1 X97.757 Y74.079 E0.17433
G1 X98.19 Y73.418 E0.20062
G1 X98.687 Y72.804 E0.22689
G1 X99.243 Y72.244 E0.25314
G1 X99.854 Y71.743 E0.27942
G1 X100.512 Y71.306 E0.30569
G1 X101.285 Y70.905 E0.33465
G1 X102.141 Y70.519 E0.36588
G1 X102.876 Y70.231 E0.39214
G1 X103.637 Y70.019 E0.41841
G1 X104.415 Y69.885 E0.44467
G1 X105.203 Y69.83 E0.47094
G1 X105.992 Y69.856 E0.4972
G1 X106.775 Y69.961 E0.52348
G1 X107.433 Y70.118 E0.54598
G1 X108.037 Y69.776 E0.56906
G1 X108.76 Y69.459 E0.59532
G1 X109.512 Y69.216 E0.6216
G1 X110.284 Y69.05 E0.64787
G1 X111.068 Y68.963 E0.6741
G1 X111.858 Y68.956 E0.70038
G1 X112.638 Y69.028 E0.72643
G1 X113.567 Y69.161 E0.75765
G1 X114.342 Y69.312 E0.78391
G1 X115.098 Y69.541 E0.81018
G1 X115.827 Y69.845 E0.83645
G1 X116.521 Y70.221 E0.8627
G1 X117.174 Y70.666 E0.88899
G1 X117.778 Y71.174 E0.91524
G1 X118.244 Y71.655 E0.93751
G1 X118.97 Y71.695 E0.9617
G1 X119.75 Y71.817 E0.98795
G1 X120.514 Y72.019 E1.01424
G1 X121.253 Y72.296 E1.04049
G1 X121.96 Y72.647 E1.06674
G1 X122.629 Y73.067 E1.09301
G1 X123.221 Y73.527 E1.11795
G1 X123.932 Y74.136 E1.14909
G1 X124.505 Y74.679 E1.17534
G1 X125.02 Y75.278 E1.20162
G1 X125.472 Y75.926 E1.22789
G1 X125.856 Y76.616 E1.25416
G1 X126.169 Y77.341 E1.28042
G1 X126.406 Y78.094 E1.30668
G1 X126.546 Y78.768 E1.32957
G1 X127.076 Y79.146 E1.35123
G1 X127.67 Y79.667 E1.3775
G1 X128.208 Y80.245 E1.40377
G1 X128.685 Y80.875 E1.43005
G1 X129.095 Y81.549 E1.45629
G1 X129.436 Y82.262 E1.48258
G1 X129.716 Y83.052 E1.51045
G1 X129.98 Y83.945 E1.54143
G1 X130.165 Y84.712 E1.56767
G1 X130.272 Y85.495 E1.59395
G1 X130.296 Y86.198 E1.61735
G1 X135.48 Y85.514 E1.79126
G1 X136.267 Y85.45 E1.81753
G1 X137.184 Y85.47 E1.84803
G1 X142.698 Y86.197 E2.03302
G1 X143.475 Y86.34 E2.05929
G1 X144.351 Y86.594 E2.08963
G1 X149.485 Y88.722 E2.27447
G1 X150.199 Y89.061 E2.30076
G1 X150.975 Y89.531 E2.33094
G1 X155.389 Y92.917 E2.51597
G1 X155.991 Y93.429 E2.54225
G1 X156.63 Y94.096 E2.57297
G1 X160.01 Y98.502 E2.75767
G1 X160.458 Y99.153 E2.78396
G1 X160.902 Y99.961 E2.81462
G1 X163.024 Y105.087 E2.99914
G1 X163.289 Y105.831 E3.02541
G1 X163.506 Y106.715 E3.05569
G1 X164.233 Y112.229 E3.24067
G1 X164.297 Y113.016 E3.26693
G1 X164.277 Y113.933 E3.29744
G1 X163.55 Y119.449 E3.48249
G1 X163.407 Y120.225 E3.50873
G1 X163.154 Y121.097 E3.53893
G1 X161.027 Y126.233 E3.72383
G1 X160.689 Y126.946 E3.75007
G1 X160.214 Y127.73 E3.78056
G1 X156.832 Y132.14 E3.9654
G1 X156.32 Y132.742 E3.99169
G1 X155.655 Y133.379 E4.02232
G1 X151.246 Y136.761 E4.20713
G1 X150.596 Y137.209 E4.23339
G1 X149.79 Y137.652 E4.26398
G1 X144.664 Y139.776 E4.44853
G1 X143.92 Y140.041 E4.4748
G1 X143.034 Y140.258 E4.50514
G1 X137.515 Y140.984 E4.69028
G1 X136.728 Y141.048 E4.71654
G1 X135.819 Y141.028 E4.74678
G1 X130.303 Y140.303 E4.93182
G1 X129.526 Y140.161 E4.95809
G1 X128.653 Y139.908 E4.98832
G1 X123.514 Y137.777 E5.17336
G1 X122.8 Y137.438 E5.19965
G1 X122.021 Y136.966 E5.22994
G1 X117.61 Y133.584 E5.41481
G1 X117.009 Y133.072 E5.44107
G1 X116.375 Y132.412 E5.47151
G1 X113.948 Y129.247 E5.60417
G1 X113.49 Y129.598 E5.62336
G1 X112.839 Y130.047 E5.64966
G1 X112.04 Y130.486 E5.67999
G1 X109.319 Y131.613 E5.77794
G1 X108.575 Y131.878 E5.80421
G1 X107.685 Y132.096 E5.83469
G1 X104.765 Y132.482 E5.93265
G1 X103.978 Y132.545 E5.95891
G1 X103.059 Y132.526 E5.98948
G1 X100.133 Y132.14 E6.08765
G1 X99.356 Y131.997 E6.11392
G1 X98.478 Y131.741 E6.14434
G1 X95.76 Y130.615 E6.24219
G1 X95.046 Y130.276 E6.26848
G1 X94.265 Y129.803 E6.29885
G1 X91.926 Y128.009 E6.39689
G1 X91.325 Y127.498 E6.42313
G1 X90.691 Y126.838 E6.45357
G1 X88.971 Y124.594 E6.54761
G1 X88.422 Y124.169 E6.5707
G1 X87.849 Y123.626 E6.59696
G1 X87.334 Y123.027 E6.62323
G1 X86.883 Y122.379 E6.64949
G1 X86.499 Y121.688 E6.67578
G1 X86.187 Y120.963 E6.70203
G1 X85.95 Y120.21 E6.72829
G1 X85.791 Y119.436 E6.75457
G1 X85.7 Y118.554 E6.78406
G1 X85.7 Y111.249 E7.02703
G1 X85.74 Y110.46 E7.0533
G1 X85.859 Y109.68 E7.07955
G1 X86.057 Y108.915 E7.10583
G1 X86.331 Y108.175 E7.13208
G1 X86.679 Y107.466 E7.15834
G1 X87.097 Y106.795 E7.18464
G1 X87.58 Y106.171 E7.21088
G1 X88.123 Y105.598 E7.23714
G1 X88.722 Y105.083 E7.26341
G1 X88.961 Y104.917 E7.27309
G1 X90.484 Y102.931 E7.35633
G1 X90.996 Y102.329 E7.38262
G1 X91.655 Y101.697 E7.41299
G1 X93.146 Y100.554 E7.47547
G1 X92.72 Y99.899 E7.50146
G1 X92.324 Y99.216 E7.52772
G1 X91.999 Y98.497 E7.55396
G1 X91.748 Y97.748 E7.58024
G1 X91.574 Y96.977 E7.60652
G1 X91.479 Y96.194 E7.63276
G1 X91.464 Y95.404 E7.65904
G1 X91.52 Y94.711 E7.68216
G1 X91.143 Y94.234 E7.70239
G1 X90.719 Y93.568 E7.72864
G1 X90.364 Y92.863 E7.7549
G1 X90.082 Y92.125 E7.78117
G1 X89.876 Y91.363 E7.80743
G1 X89.749 Y90.584 E7.83368
G1 X89.7 Y89.714 E7.86266
G1 X89.7 Y88.783 E7.89363
G1 X89.74 Y87.994 E7.9199
G1 X89.859 Y87.214 E7.94615
G1 X90.057 Y86.449 E7.97243
G1 X90.331 Y85.709 E7.99867
G1 X90.679 Y85 E8.02494
G1 X91.097 Y84.329 E8.05124
G1 X91.524 Y83.777 E8.07445
G1 X91.469 Y83.216 E8.0932
G1 X91.471 Y82.427 E8.11944
G1 X91.554 Y81.641 E8.14573
G1 X91.716 Y80.868 E8.172
G1 X91.955 Y80.116 E8.19824
G1 X92.268 Y79.391 E8.22451
G1 X92.72 Y78.598 E8.25486
G1 X93.229 Y77.815 E8.28593
G1 X93.693 Y77.175 E8.31222
G0 F3600 X94.017 Y77.411
G1 F1800 X94.531 Y76.839 E8.3378
G1 X95.102 Y76.323 E8.36339
G1 X95.723 Y75.87 E8.38896
G1 X96.388 Y75.483 E8.41455
G1 X97.09 Y75.168 E8.44014
G1 X97.75 Y74.95 E8.46326
G1 X98.153 Y74.195 E8.49172
G1 X98.584 Y73.557 E8.51733
G1 X99.079 Y72.968 E8.54292
G1 X99.632 Y72.434 E8.56849
G1 X100.237 Y71.96 E8.59405
G1 X100.889 Y71.551 E8.61965
G1 X101.449 Y71.269 E8.64051
G1 X102.305 Y70.883 E8.67174
G1 X103.022 Y70.604 E8.69733
G1 X103.763 Y70.4 E8.72289
G1 X104.522 Y70.275 E8.74847
G1 X105.29 Y70.229 E8.77406
G1 X106.059 Y70.263 E8.79967
G1 X106.819 Y70.377 E8.82523
G1 X107.476 Y70.547 E8.8478
G1 X108.306 Y70.09 E8.87931
G1 X109.015 Y69.791 E8.9049
G1 X109.751 Y69.567 E8.93049
G1 X110.506 Y69.421 E8.95607
G1 X111.272 Y69.354 E8.98164
G1 X112.041 Y69.366 E9.00722
G1 X112.582 Y69.424 E9.02532
G1 X113.511 Y69.557 E9.05653
G1 X114.265 Y69.705 E9.08209
G1 X115.001 Y69.931 E9.1077
G1 X115.708 Y70.232 E9.13326
G1 X116.381 Y70.605 E9.15885
G1 X117.012 Y71.046 E9.18445
G1 X117.593 Y71.55 E9.21003
G1 X118.07 Y72.059 E9.23324
G1 X118.26 Y72.052 E9.23956
G1 X119.027 Y72.104 E9.26513
G1 X119.785 Y72.235 E9.29071
G1 X120.525 Y72.444 E9.31629
G1 X121.24 Y72.728 E9.34188
G1 X121.921 Y73.086 E9.36747
G1 X122.561 Y73.512 E9.39304
G1 X122.961 Y73.831 E9.41005
G1 X123.672 Y74.44 E9.44119
G1 X124.229 Y74.97 E9.46676
G1 X124.729 Y75.555 E9.49236
G1 X125.165 Y76.189 E9.51795
G1 X125.532 Y76.864 E9.54351
G1 X125.828 Y77.574 E9.56909
G1 X126.048 Y78.311 E9.59467
G1 X126.177 Y78.99 E9.61766
G1 X126.906 Y79.523 E9.6477
G1 X127.477 Y80.038 E9.67327
G1 X127.991 Y80.611 E9.69887
G1 X128.442 Y81.233 E9.72443
G1 X128.827 Y81.899 E9.75001
G1 X129.141 Y82.601 E9.77559
G1 X129.332 Y83.165 E9.7954
G1 X129.596 Y84.058 E9.82637
G1 X129.776 Y84.806 E9.85196
G1 X129.877 Y85.569 E9.87756
G1 X129.898 Y86.337 E9.90311
G1 X129.874 Y86.656 E9.91375
G1 X135.533 Y85.91 E10.1036
G1 X136.299 Y85.85 E10.12915
G1 X137.168 Y85.871 E10.15806
G1 X142.646 Y86.594 E10.34184
G1 X143.402 Y86.734 E10.36741
G1 X144.229 Y86.977 E10.39608
G1 X149.332 Y89.092 E10.57981
G1 X150.026 Y89.423 E10.60538
G1 X150.769 Y89.876 E10.63433
G1 X155.146 Y93.234 E10.81781
G1 X155.731 Y93.734 E10.84341
G1 X156.33 Y94.364 E10.87232
G1 X159.692 Y98.746 E11.05602
G1 X160.128 Y99.38 E11.08162
G1 X160.543 Y100.141 E11.11045
G1 X162.654 Y105.24 E11.294
G1 X162.911 Y105.965 E11.31958
G1 X163.114 Y106.81 E11.34849
G1 X163.836 Y112.281 E11.53203
G1 X163.897 Y113.048 E11.55762
G1 X163.875 Y113.925 E11.5868
G1 X163.154 Y119.396 E11.77034
G1 X163.013 Y120.153 E11.79595
G1 X162.767 Y120.987 E11.82487
G1 X160.658 Y126.08 E12.00821
G1 X160.327 Y126.774 E12.03379
G1 X159.874 Y127.514 E12.06265
G1 X156.514 Y131.897 E12.24633
G1 X156.015 Y132.482 E12.27191
G1 X155.378 Y133.088 E12.30115
G1 X151.003 Y136.444 E12.48454
G1 X150.369 Y136.879 E12.51011
G1 X149.61 Y137.293 E12.53887
G1 X144.511 Y139.406 E12.72245
G1 X143.786 Y139.663 E12.74803
G1 X142.94 Y139.868 E12.77699
G1 X137.463 Y140.588 E12.96072
G1 X136.696 Y140.648 E12.98631
G1 X135.826 Y140.626 E13.01525
G1 X130.355 Y139.907 E13.19878
G1 X129.599 Y139.767 E13.22436
G1 X128.756 Y139.518 E13.25359
G1 X123.667 Y137.408 E13.43682
G1 X122.973 Y137.077 E13.4624
G1 X122.227 Y136.62 E13.4915
G1 X117.853 Y133.267 E13.6748
G1 X117.268 Y132.767 E13.7004
G1 X116.666 Y132.134 E13.72945
G1 X114.022 Y128.686 E13.87397
G1 X113.246 Y129.281 E13.90649
G1 X112.612 Y129.717 E13.93208
G1 X111.844 Y130.135 E13.96117
G1 X109.166 Y131.244 E14.05757
G1 X108.441 Y131.501 E14.08316
G1 X107.599 Y131.704 E14.11196
G1 X104.713 Y132.085 E14.20879
G1 X103.946 Y132.146 E14.23438
G1 X103.074 Y132.124 E14.26339
G1 X100.185 Y131.743 E14.36031
G1 X99.429 Y131.603 E14.38588
G1 X98.591 Y131.356 E14.41494
G1 X95.913 Y130.246 E14.51136
G1 X95.218 Y129.915 E14.53696
G1 X94.475 Y129.46 E14.56594
G1 X92.17 Y127.692 E14.66256
G1 X91.585 Y127.193 E14.68813
G1 X90.987 Y126.566 E14.71695
G1 X89.253 Y124.304 E14.81175
G1 X89.177 Y124.255 E14.81476
G1 X88.577 Y123.774 E14.84033
G1 X88.03 Y123.233 E14.86592
G1 X87.542 Y122.638 E14.89152
G1 X87.119 Y121.996 E14.91709
G1 X86.764 Y121.313 E14.94269
G1 X86.483 Y120.598 E14.96824
G1 X86.277 Y119.856 E14.99385
G1 X86.149 Y119.098 E15.01942
G1 X86.1 Y118.249 E15.04771
G1 X86.1 Y111.249 E15.28053
G1 X86.14 Y110.481 E15.3061
G1 X86.259 Y109.721 E15.33169
G1 X86.457 Y108.978 E15.35727
G1 X86.731 Y108.259 E15.38286
G1 X87.078 Y107.573 E15.40843
G1 X87.494 Y106.926 E15.43401
G1 X87.975 Y106.326 E15.45959
G1 X88.516 Y105.779 E15.48518
G1 X89.111 Y105.291 E15.51077
G1 X89.245 Y105.203 E15.5161
G1 X90.801 Y103.174 E15.60115
G1 X91.3 Y102.589 E15.62672
G1 X91.933 Y101.987 E15.65577
G1 X93.683 Y100.646 E15.7291
G1 X93.056 Y99.681 E15.76738
G1 X92.671 Y99.015 E15.79297
G1 X92.357 Y98.313 E15.81854
G1 X92.117 Y97.582 E15.84413
G1 X91.955 Y96.83 E15.86972
G1 X91.872 Y96.066 E15.89528
G1 X91.868 Y95.297 E15.92086
G1 X91.938 Y94.602 E15.94409
G1 X91.412 Y93.921 E15.97271
G1 X91.008 Y93.266 E15.99831
G1 X90.675 Y92.573 E16.02388
G1 X90.415 Y91.849 E16.04946
G1 X90.231 Y91.102 E16.07505
G1 X90.127 Y90.34 E16.10063
G1 X90.1 Y89.714 E16.12147
G1 X90.1 Y88.783 E16.15244
G1 X90.14 Y88.015 E16.17802
G1 X90.259 Y87.255 E16.2036
G1 X90.457 Y86.512 E16.22918
G1 X90.731 Y85.793 E16.25477
G1 X91.078 Y85.107 E16.28034
G1 X91.494 Y84.46 E16.30592
G1 X91.938 Y83.906 E16.32953
G1 X91.864 Y83.098 E16.35652
G1 X91.878 Y82.329 E16.3821
G1 X91.972 Y81.565 E16.4077
G1 X92.145 Y80.816 E16.43327
G1 X92.394 Y80.088 E16.45886
G1 X92.718 Y79.39 E16.48446
G1 X93.056 Y78.816 E16.50661
G1 X93.565 Y78.033 E16.53767
G1 X94.017 Y77.411 E16.56325
G0 F3600 X94.341 Y77.646
G1 F1800 X94.843 Y77.092 E16.58811
G1 X95.402 Y76.595 E16.61299
G1 X96.011 Y76.16 E16.63788
G1 X96.663 Y75.793 E16.66277
G1 X97.35 Y75.497 E16.68765
G1 X98.059 Y75.279 E16.71232
G1 X98.189 Y74.969 E16.7235
G1 X98.55 Y74.314 E16.74838
G1 X98.979 Y73.701 E16.77326
G1 X99.47 Y73.137 E16.79813
G1 X100.02 Y72.629 E16.82303
G1 X100.62 Y72.183 E16.8479
G1 X101.348 Y71.754 E16.876
G1 X102.469 Y71.248 E16.91691
G1 X103.167 Y70.977 E16.94182
G1 X103.889 Y70.782 E16.96669
G1 X104.628 Y70.666 E16.99157
G1 X105.375 Y70.629 E17.01645
G1 X106.122 Y70.672 E17.04133
G1 X106.86 Y70.794 E17.06621
G1 X107.569 Y70.992 E17.09069
G1 X107.913 Y70.758 E17.10453
G1 X108.573 Y70.406 E17.12941
G1 X109.267 Y70.126 E17.1543
G1 X109.987 Y69.922 E17.17919
G1 X110.724 Y69.796 E17.20406
G1 X111.471 Y69.749 E17.22895
G1 X112.525 Y69.82 E17.26409
G1 X113.454 Y69.953 E17.2953
G1 X114.188 Y70.098 E17.32019
G1 X114.902 Y70.321 E17.34507
G1 X115.588 Y70.619 E17.36994
G1 X116.239 Y70.988 E17.39483
G1 X116.846 Y71.425 E17.41971
G1 X117.403 Y71.924 E17.44458
G1 X117.892 Y72.465 E17.46884
G1 X118.336 Y72.454 E17.48361
G1 X119.081 Y72.514 E17.50847
G1 X119.816 Y72.653 E17.53335
G1 X120.532 Y72.87 E17.55823
G1 X121.221 Y73.162 E17.58312
G1 X121.874 Y73.526 E17.60799
G1 X122.701 Y74.135 E17.64215
G1 X123.412 Y74.744 E17.67328
G1 X123.953 Y75.26 E17.69815
G1 X124.436 Y75.831 E17.72302
G1 X124.856 Y76.45 E17.7479
G1 X125.207 Y77.111 E17.77279
G1 X125.485 Y77.805 E17.79766
G1 X125.688 Y78.525 E17.82254
G1 X125.811 Y79.256 E17.8472
G1 X126.134 Y79.449 E17.85971
G1 X126.733 Y79.898 E17.88461
G1 X127.279 Y80.409 E17.90948
G1 X127.769 Y80.975 E17.93438
G1 X128.195 Y81.59 E17.95926
G1 X128.553 Y82.246 E17.98412
G1 X128.949 Y83.278 E18.02089
G1 X129.213 Y84.171 E18.05186
G1 X129.386 Y84.899 E18.07675
G1 X129.481 Y85.641 E18.10163
G1 X129.496 Y86.389 E18.12651
G1 X129.425 Y87.197 E18.15349
G1 X130.405 Y86.99 E18.1868
G1 X135.585 Y86.307 E18.36058
G1 X136.331 Y86.249 E18.38547
G1 X137.415 Y86.307 E18.42157
G1 X142.593 Y86.99 E18.59529
G1 X143.329 Y87.127 E18.62019
G1 X144.358 Y87.463 E18.65619
G1 X149.179 Y89.461 E18.82976
G1 X149.854 Y89.784 E18.85465
G1 X150.759 Y90.374 E18.89058
G1 X154.902 Y93.552 E19.06425
G1 X155.471 Y94.038 E19.08914
G1 X156.196 Y94.845 E19.12522
G1 X159.375 Y98.989 E19.29893
G1 X159.798 Y99.606 E19.32382
G1 X160.289 Y100.572 E19.35986
G1 X162.285 Y105.393 E19.5334
G1 X162.533 Y106.099 E19.55829
G1 X162.757 Y107.156 E19.59423
G1 X163.44 Y112.334 E19.76794
G1 X163.498 Y113.079 E19.7928
G1 X163.44 Y114.164 E19.82893
G1 X162.757 Y119.344 E20.00271
G1 X162.62 Y120.079 E20.02758
G1 X162.284 Y121.108 E20.06358
G1 X160.288 Y125.927 E20.23707
G1 X159.965 Y126.602 E20.26196
G1 X159.376 Y127.507 E20.29787
G1 X156.197 Y131.653 E20.47164
G1 X155.711 Y132.222 E20.49653
G1 X154.902 Y132.948 E20.53268
G1 X150.759 Y136.126 E20.70635
G1 X150.142 Y136.549 E20.73123
G1 X149.179 Y137.039 E20.76717
G1 X144.358 Y139.037 E20.94074
G1 X143.653 Y139.286 E20.96561
G1 X142.59 Y139.51 E21.00174
G1 X137.41 Y140.191 E21.17551
G1 X136.665 Y140.249 E21.20036
G1 X135.585 Y140.191 E21.23634
G1 X130.407 Y139.51 E21.41004
G1 X129.672 Y139.373 E21.43491
G1 X128.639 Y139.036 E21.47105
G1 X123.82 Y137.038 E21.64456
G1 X123.145 Y136.715 E21.66945
G1 X122.242 Y136.127 E21.70529
G1 X118.097 Y132.949 E21.87901
G1 X117.528 Y132.463 E21.9039
G1 X116.801 Y131.653 E21.9401
G1 X114.096 Y128.126 E22.08793
G1 X113.003 Y128.964 E22.13374
G1 X112.386 Y129.387 E22.15862
G1 X111.422 Y129.876 E22.19457
G1 X109.013 Y130.874 E22.2813
G1 X108.308 Y131.123 E22.30617
G1 X107.25 Y131.347 E22.34214
G1 X104.66 Y131.689 E22.42903
G1 X103.915 Y131.747 E22.45388
G1 X102.828 Y131.689 E22.49009
G1 X100.238 Y131.347 E22.57698
G1 X99.502 Y131.209 E22.60189
G1 X98.475 Y130.874 E22.63782
G1 X96.066 Y129.876 E22.72454
G1 X95.391 Y129.553 E22.74943
G1 X94.485 Y128.964 E22.78537
G1 X92.413 Y127.375 E22.87222
G1 X91.845 Y126.888 E22.89711
G1 X91.118 Y126.079 E22.93328
G1 X89.523 Y123.998 E23.02049
G1 X89.311 Y123.857 E23.02896
G1 X88.737 Y123.378 E23.05382
G1 X88.216 Y122.841 E23.07871
G1 X87.757 Y122.251 E23.10357
G1 X87.362 Y121.615 E23.12847
G1 X87.038 Y120.941 E23.15334
G1 X86.788 Y120.236 E23.17822
G1 X86.614 Y119.508 E23.20312
G1 X86.519 Y118.766 E23.228
G1 X86.5 Y118.249 E23.24521
