;FLAVOR:Marlin
;TIME:4374
;Filament used: 3.93001m
;Layer height: 0.2
;MINX:94.874
;MINY:72.252
;MINZ:0.2
;MAXX:156.889
;MAXY:137.384
;MAXZ:18.2
;Generated with Cura_SteamEngine 5.2.1
M82 ;absolute extrusion mode
G21 ; set units to millimeters
G90 ; use absolute positioning
M82 ; absolute extrusion mode
M104 S200 ; set extruder temp
M140 S60 ; set bed temp
M190 S60 ; wait for bed temp
M109 S200 ; wait for extruder temp
G28 W ; home all without mesh bed level
G80 ; mesh bed leveling
G92 E0.0 ; reset extruder distance position
G1 Y-3.0 F1000.0 ; go outside print area
G1 X60.0 E9.0 F1000.0 ; intro line
G1 X100.0 E21.5 F1000.0 ; intro line
G92 E0.0 ; reset extruder distance position
G92 E0
G92 E0
G1 F2100 E-0.8
;LAYER_COUNT:91
;LAYER:0
M107
G0 F3600 X100.142 Y84.225 Z0.2
;TYPE:SKIRT
G1 F2100 E0
G1 F1800 X100.924 Y83.496 E0.03556
G1 X101.535 Y83.001 E0.06171
G1 X102.092 Y82.447 E0.08784
G1 X102.154 Y82.35 E0.09167
G1 X102.643 Y81.729 E0.11796
G1 X103.192 Y81.162 E0.14421
G1 X103.795 Y80.652 E0.17048
G1 X104.286 Y80.308 E0.19042
G1 X104.359 Y80.209 E0.19451
G1 X104.889 Y79.624 E0.22076
G1 X105.476 Y79.096 E0.24702
G1 X106.071 Y78.658 E0.2716
G1 X109.461 Y76.402 E0.40703
G1 X110.139 Y75.999 E0.43327
G1 X110.855 Y75.666 E0.45953
G1 X111.342 Y75.479 E0.47688
G1 X112.281 Y75.016 E0.5117
G1 X113.766 Y74.404 E0.56512
G1 X114.51 Y74.141 E0.59137
G1 X115.278 Y73.954 E0.61766
G1 X116 Y73.851 E0.64192
G1 X116.389 Y73.814 E0.65491
G1 X117.029 Y73.483 E0.67888
G1 X117.763 Y73.193 E0.70513
G1 X118.523 Y72.979 E0.73139
G1 X119.301 Y72.843 E0.75766
G1 X119.773 Y72.806 E0.7734
G1 X120.315 Y72.653 E0.79214
G1 X121.093 Y72.517 E0.8184
G1 X122.159 Y72.458 E0.85391
G1 X122.952 Y72.317 E0.8807
G1 X123.846 Y72.252 E0.91052
G1 X129.043 Y72.406 E1.08345
G1 X129.83 Y72.47 E1.10971
G1 X130.489 Y72.585 E1.13196
G1 X132.147 Y72.95 E1.18842
G1 X132.909 Y73.159 E1.2147
G1 X133.645 Y73.444 E1.24095
G1 X134.349 Y73.801 E1.26721
G1 X134.89 Y74.014 E1.28655
G1 X136.436 Y74.635 E1.34196
G1 X137.153 Y74.966 E1.36822
G1 X137.922 Y75.428 E1.39806
G1 X138.251 Y75.627 E1.41085
G1 X138.96 Y75.975 E1.43712
G1 X139.846 Y76.548 E1.47221
G1 X141 Y77.41 E1.52012
G1 X142.312 Y78.282 E1.57252
G1 X143.612 Y79.13 E1.62414
G1 X144.84 Y79.847 E1.67144
G1 X145.501 Y80.28 E1.69772
G1 X146.114 Y80.777 E1.72397
G1 X146.675 Y81.333 E1.75024
G1 X147.195 Y81.971 E1.77761
G1 X147.69 Y82.401 E1.79942
G1 X148.866 Y83.471 E1.8523
G1 X149.423 Y84.031 E1.87857
G1 X149.92 Y84.645 E1.90485
G1 X150.509 Y85.587 E1.9418
G1 X150.605 Y85.768 E1.94861
G1 X150.894 Y86.034 E1.96168
G1 X151.447 Y86.598 E1.98795
G1 X151.94 Y87.215 E2.01422
G1 X152.502 Y88.118 E2.04959
G1 X153.294 Y89.611 E2.1058
G1 X153.624 Y90.317 E2.13172
G1 X154.28 Y91.923 E2.18942
G1 X154.477 Y92.461 E2.20848
G1 X155.124 Y94.452 E2.27811
G1 X155.286 Y95.052 E2.29878
G1 X155.873 Y96.799 E2.36008
G1 X156.086 Y97.559 E2.38633
G1 X156.221 Y98.337 E2.41259
G1 X156.277 Y99.125 E2.43887
G1 X156.268 Y99.409 E2.44832
G1 X156.348 Y99.677 E2.45762
G1 X156.534 Y100.445 E2.4839
G1 X156.659 Y101.472 E2.51831
G1 X156.758 Y103.272 E2.57827
G1 X156.762 Y104.061 E2.60451
G1 X156.704 Y104.653 E2.6243
G1 X156.813 Y105.39 E2.64908
G1 X156.889 Y106.176 E2.67534
G1 X156.885 Y106.966 E2.70162
G1 X156.801 Y107.751 E2.72788
G1 X156.554 Y108.816 E2.76424
G1 X155.661 Y111.729 E2.86558
G1 X155.392 Y112.471 E2.89183
G1 X155.049 Y113.183 E2.91811
G1 X154.41 Y114.189 E2.95775
G1 X154.418 Y114.55 E2.96976
G1 X154.335 Y115.478 E3.00075
G1 X154.123 Y116.884 E3.04804
G1 X153.966 Y117.658 E3.07431
G1 X153.656 Y118.609 E3.10758
G1 X152.643 Y121.151 E3.19859
G1 X152.314 Y121.868 E3.22483
G1 X151.914 Y122.549 E3.2511
G1 X151.447 Y123.186 E3.27737
G1 X151.024 Y123.655 E3.29838
G1 X150.896 Y123.967 E3.30959
G1 X150.524 Y124.664 E3.33587
G1 X150.083 Y125.319 E3.36213
G1 X149.578 Y125.926 E3.38839
G1 X149.015 Y126.479 E3.41464
G1 X148.628 Y126.8 E3.43137
G1 X145.872 Y128.943 E3.54748
G1 X145.036 Y129.52 E3.58127
G1 X144.757 Y129.874 E3.59626
G1 X144.208 Y130.442 E3.62253
G1 X143.604 Y130.951 E3.6488
G1 X142.659 Y131.567 E3.68632
G1 X140.123 Y132.97 E3.78272
G1 X139.324 Y133.355 E3.81222
G1 X138.779 Y133.58 E3.83183
G1 X138.011 Y134.075 E3.86222
G1 X137.327 Y134.469 E3.88847
G1 X136.606 Y134.791 E3.91473
G1 X135.856 Y135.039 E3.94101
G1 X135.794 Y135.053 E3.94312
G1 X134.855 Y135.607 E3.97938
G1 X134.155 Y135.973 E4.00566
G1 X133.422 Y136.267 E4.03192
G1 X132.663 Y136.485 E4.05819
G1 X132.11 Y136.594 E4.07694
G1 X128.891 Y137.104 E4.18534
G1 X127.989 Y137.193 E4.21548
G1 X126.611 Y137.249 E4.26135
G1 X126.187 Y137.324 E4.27567
G1 X125.164 Y137.384 E4.30976
G1 X120.731 Y137.35 E4.4572
G1 X119.943 Y137.304 E4.48346
G1 X119.163 Y137.178 E4.50974
G1 X118.4 Y136.975 E4.536
G1 X117.549 Y136.652 E4.56627
G1 X115.662 Y135.692 E4.63669
G1 X115.434 Y135.561 E4.64543
G1 X115.291 Y135.549 E4.65021
G1 X114.515 Y135.403 E4.67647
G1 X114.31 Y135.343 E4.68357
G1 X113.802 Y135.317 E4.70049
G1 X113.022 Y135.198 E4.72674
G1 X112.257 Y135 E4.75302
G1 X111.517 Y134.726 E4.77926
G1 X110.808 Y134.378 E4.80553
G1 X109.968 Y133.839 E4.83873
G1 X105.804 Y130.775 E5.01068
G1 X105.193 Y130.276 E5.03691
G1 X104.635 Y129.717 E5.06318
G1 X104.452 Y129.492 E5.07283
G1 X101.667 Y127.275 E5.19123
G1 X101.075 Y126.752 E5.2175
G1 X100.539 Y126.173 E5.24374
G1 X100.064 Y125.542 E5.27001
G1 X99.656 Y124.866 E5.29627
G1 X99.222 Y123.94 E5.33029
G1 X98.438 Y123.134 E5.36768
G1 X97.917 Y122.541 E5.39394
G1 X97.458 Y121.898 E5.42021
G1 X97.067 Y121.212 E5.44648
G1 X96.618 Y120.124 E5.48562
G1 X95.26 Y115.974 E5.63086
G1 X95.053 Y115.212 E5.65712
G1 X94.923 Y114.433 E5.68339
G1 X94.874 Y113.645 E5.70965
G1 X94.904 Y112.856 E5.73591
G1 X95.014 Y112.074 E5.76217
G1 X95.25 Y111.151 E5.79386
G1 X95.703 Y109.748 E5.8429
G1 X95.984 Y109.01 E5.86916
G1 X96.337 Y108.304 E5.89541
G1 X96.76 Y107.637 E5.92168
G1 X97.249 Y107.017 E5.94795
G1 X97.797 Y106.449 E5.9742
G1 X98.685 Y105.716 E6.0125
G1 X99.541 Y105.157 E6.0465
G1 X100.242 Y104.795 E6.07274
G1 X100.977 Y104.505 E6.09902
G1 X101.737 Y104.291 E6.12528
G1 X102.515 Y104.155 E6.15155
G1 X103.303 Y104.099 E6.17782
G1 X103.642 Y104.109 E6.1891
G1 X103.805 Y103.763 E6.20183
G1 X104.211 Y103.086 E6.22808
G1 X104.684 Y102.453 E6.25436
G1 X105.048 Y102.058 E6.27223
G1 X104.356 Y101.952 E6.29551
G1 X103.591 Y101.754 E6.3218
G1 X102.851 Y101.48 E6.34804
G1 X102.142 Y101.132 E6.37431
G1 X101.335 Y100.617 E6.40615
G1 X100.225 Y99.809 E6.45182
G1 X99.61 Y99.313 E6.47809
G1 X99.05 Y98.757 E6.50434
G1 X98.548 Y98.147 E6.53062
G1 X98.111 Y97.489 E6.55689
G1 X97.742 Y96.791 E6.58315
G1 X97.393 Y95.901 E6.61494
G1 X96.972 Y94.598 E6.66049
G1 X96.767 Y93.835 E6.68677
G1 X96.641 Y93.056 E6.71301
G1 X96.594 Y92.268 E6.73927
G1 X96.627 Y91.479 E6.76553
G1 X96.74 Y90.697 E6.79181
G1 X96.972 Y89.8 E6.82263
G1 X97.393 Y88.498 E6.86814
G1 X97.674 Y87.76 E6.89441
G1 X98.028 Y87.054 E6.92067
G1 X98.609 Y86.173 E6.95577
G1 X99.633 Y84.828 E7.012
G1 X100.142 Y84.225 E7.03824
G0 F3600 X100.448 Y84.483
G1 F1800 X101.176 Y83.807 E7.07129
G1 X101.802 Y83.299 E7.0981
G1 X102.411 Y82.695 E7.12663
G1 X102.516 Y82.532 E7.13308
G1 X102.997 Y81.933 E7.15863
G1 X103.538 Y81.386 E7.18422
G1 X104.133 Y80.899 E7.20979
G1 X104.565 Y80.603 E7.22721
G1 X104.693 Y80.431 E7.23434
G1 X105.214 Y79.865 E7.25993
G1 X105.791 Y79.356 E7.28552
G1 X106.292 Y78.991 E7.30613
G1 X109.682 Y76.735 E7.44157
G1 X110.344 Y76.343 E7.46716
G1 X111.043 Y76.022 E7.49274
G1 X111.56 Y75.815 E7.51127
G1 X112.433 Y75.386 E7.54362
G1 X113.918 Y74.774 E7.59704
G1 X114.644 Y74.519 E7.62263
G1 X115.392 Y74.339 E7.64822
G1 X116.037 Y74.249 E7.66988
G1 X116.511 Y74.204 E7.68572
G1 X117.231 Y73.831 E7.71269
G1 X117.948 Y73.553 E7.73827
G1 X118.69 Y73.352 E7.76383
G1 X119.45 Y73.228 E7.78945
G1 X119.841 Y73.201 E7.80248
G1 X120.482 Y73.026 E7.82458
G1 X121.242 Y72.902 E7.85019
G1 X122.083 Y72.858 E7.8782
G1 X122.341 Y72.827 E7.88685
G1 X123.1 Y72.703 E7.91243
G1 X124.131 Y72.661 E7.94675
G1 X129.031 Y72.806 E8.10979
G1 X129.797 Y72.869 E8.13535
G1 X130.403 Y72.976 E8.15582
G1 X132.061 Y73.341 E8.21229
G1 X132.803 Y73.545 E8.23788
G1 X133.519 Y73.825 E8.26345
G1 X134.249 Y74.208 E8.29087
G1 X134.741 Y74.385 E8.30826
G1 X136.287 Y75.006 E8.36368
G1 X136.985 Y75.33 E8.38927
G1 X137.697 Y75.759 E8.41692
G1 X137.993 Y75.961 E8.42884
G1 X138.167 Y76.027 E8.43503
G1 X138.853 Y76.374 E8.4606
G1 X139.606 Y76.868 E8.49055
G1 X140.773 Y77.74 E8.539
G1 X142.077 Y78.607 E8.59109
G1 X143.419 Y79.481 E8.64435
G1 X144.638 Y80.193 E8.69131
G1 X145.281 Y80.615 E8.71689
G1 X145.877 Y81.101 E8.74246
G1 X146.419 Y81.647 E8.76805
G1 X146.899 Y82.243 E8.79351
G1 X147.267 Y82.56 E8.80966
G1 X148.597 Y83.767 E8.8694
G1 X149.138 Y84.313 E8.89496
G1 X149.62 Y84.913 E8.92056
G1 X150.155 Y85.774 E8.95427
G1 X150.284 Y86.017 E8.96342
G1 X150.623 Y86.329 E8.97875
G1 X151.161 Y86.878 E9.00431
G1 X151.639 Y87.481 E9.02991
G1 X152.148 Y88.305 E9.06212
G1 X152.94 Y89.798 E9.11833
G1 X153.254 Y90.468 E9.14294
G1 X153.91 Y92.074 E9.20064
G1 X154.097 Y92.585 E9.21874
G1 X154.744 Y94.576 E9.28837
G1 X154.9 Y95.157 E9.30838
G1 X155.494 Y96.926 E9.37044
G1 X155.7 Y97.667 E9.39603
G1 X155.829 Y98.425 E9.4216
G1 X155.878 Y99.193 E9.44719
G1 X155.867 Y99.466 E9.45628
G1 X155.964 Y99.791 E9.46756
G1 X156.145 Y100.539 E9.49316
G1 X156.26 Y101.494 E9.52515
G1 X156.359 Y103.294 E9.58511
G1 X156.361 Y104.063 E9.61069
G1 X156.301 Y104.657 E9.63055
G1 X156.418 Y105.448 E9.65714
G1 X156.49 Y106.214 E9.68273
G1 X156.483 Y106.983 E9.70831
G1 X156.396 Y107.747 E9.73388
G1 X156.172 Y108.699 E9.76641
G1 X155.279 Y111.612 E9.86775
G1 X155.016 Y112.335 E9.89334
G1 X154.679 Y113.026 E9.91891
G1 X154.177 Y113.812 E9.94993
G1 X154.009 Y114.042 E9.9594
G1 X154.017 Y114.578 E9.97723
G1 X153.939 Y115.418 E10.00529
G1 X153.727 Y116.824 E10.05258
G1 X153.573 Y117.578 E10.07818
G1 X153.284 Y118.46 E10.10905
G1 X152.271 Y121.002 E10.20006
G1 X151.95 Y121.701 E10.22564
G1 X151.558 Y122.363 E10.25123
G1 X151.099 Y122.98 E10.27681
G1 X150.698 Y123.397 E10.29605
G1 X150.526 Y123.815 E10.31108
G1 X150.16 Y124.492 E10.33668
G1 X149.727 Y125.127 E10.36224
G1 X149.23 Y125.714 E10.38783
G1 X148.383 Y126.485 E10.42592
G1 X145.646 Y128.614 E10.54125
G1 X144.763 Y129.223 E10.57693
G1 X144.403 Y129.671 E10.59604
G1 X143.861 Y130.217 E10.62163
G1 X143.266 Y130.704 E10.64721
G1 X142.465 Y131.217 E10.67884
G1 X139.929 Y132.62 E10.77524
G1 X139.171 Y132.985 E10.80322
G1 X138.598 Y133.222 E10.82384
G1 X137.795 Y133.739 E10.85561
G1 X137.127 Y134.122 E10.88122
G1 X136.424 Y134.433 E10.90679
G1 X135.692 Y134.669 E10.93237
G1 X135.635 Y134.681 E10.9343
G1 X134.651 Y135.262 E10.97231
G1 X133.97 Y135.618 E10.99787
G1 X133.255 Y135.902 E11.02346
G1 X132.382 Y136.146 E11.05361
G1 X128.828 Y136.709 E11.17329
G1 X127.972 Y136.794 E11.2019
G1 X126.578 Y136.851 E11.2483
G1 X126.039 Y136.939 E11.26647
G1 X125.167 Y136.984 E11.29551
G1 X120.734 Y136.95 E11.44295
G1 X119.966 Y136.904 E11.46854
G1 X119.208 Y136.779 E11.49409
G1 X118.466 Y136.575 E11.51969
G1 X117.435 Y136.145 E11.55684
G1 X115.843 Y135.335 E11.61625
G1 X115.574 Y135.171 E11.62673
G1 X115.325 Y135.15 E11.63504
G1 X114.569 Y135.005 E11.66065
G1 X114.372 Y134.946 E11.66749
G1 X113.823 Y134.917 E11.68577
G1 X113.063 Y134.798 E11.71136
G1 X112.32 Y134.6 E11.73693
G1 X111.601 Y134.326 E11.76252
G1 X110.915 Y133.979 E11.78809
G1 X110.205 Y133.517 E11.81627
G1 X106.041 Y130.453 E11.98822
G1 X105.446 Y129.966 E12.01379
G1 X104.905 Y129.419 E12.03938
G1 X104.732 Y129.203 E12.04858
G1 X101.917 Y126.962 E12.16826
G1 X101.341 Y126.452 E12.19384
G1 X100.821 Y125.886 E12.21941
G1 X100.362 Y125.268 E12.24501
G1 X99.971 Y124.606 E12.27058
G1 X99.661 Y123.937 E12.29511
G1 X99.58 Y123.736 E12.30231
G1 X98.725 Y122.856 E12.34312
G1 X98.218 Y122.277 E12.36872
G1 X97.774 Y121.649 E12.3943
G1 X97.398 Y120.978 E12.41988
G1 X96.998 Y119.999 E12.45506
G1 X95.64 Y115.849 E12.60029
G1 X95.439 Y115.107 E12.62586
G1 X95.316 Y114.348 E12.65143
G1 X95.273 Y113.58 E12.67702
G1 X95.31 Y112.811 E12.70262
G1 X95.426 Y112.051 E12.72819
G1 X95.631 Y111.274 E12.75492
G1 X96.084 Y109.871 E12.80396
G1 X96.358 Y109.153 E12.82952
G1 X96.705 Y108.466 E12.85512
G1 X97.122 Y107.82 E12.88069
G1 X97.603 Y107.22 E12.90627
G1 X98.144 Y106.673 E12.93186
G1 X98.934 Y106.03 E12.96573
G1 X99.759 Y105.493 E12.99847
G1 X100.444 Y105.143 E13.02406
G1 X101.161 Y104.865 E13.04964
G1 X101.904 Y104.664 E13.07524
G1 X102.663 Y104.541 E13.10081
G1 X103.431 Y104.497 E13.1264
G1 X103.887 Y104.518 E13.14158
G1 X104.215 Y103.846 E13.16645
G1 X104.623 Y103.193 E13.19206
G1 X105.096 Y102.587 E13.21763
G1 X105.629 Y102.032 E13.24322
G1 X106.01 Y101.711 E13.25979
G1 X105.157 Y101.671 E13.28819
G1 X104.397 Y101.552 E13.31378
G1 X103.654 Y101.354 E13.33935
G1 X102.935 Y101.08 E13.36495
G1 X102.249 Y100.733 E13.39052
G1 X101.57 Y100.294 E13.41741
G1 X100.46 Y99.486 E13.46307
G1 X99.862 Y99.001 E13.48868
G1 X99.319 Y98.458 E13.51422
G1 X98.834 Y97.86 E13.53983
G1 X98.414 Y97.216 E13.5654
G1 X98.063 Y96.531 E13.591
G1 X97.773 Y95.778 E13.61784
G1 X97.352 Y94.475 E13.66339
G1 X97.154 Y93.732 E13.68896
G1 X97.034 Y92.972 E13.71455
G1 X96.994 Y92.204 E13.74013
G1 X97.034 Y91.436 E13.76571
G1 X97.153 Y90.676 E13.79129
G1 X97.353 Y89.923 E13.81721
G1 X97.774 Y88.621 E13.86272
G1 X98.048 Y87.903 E13.88828
G1 X98.396 Y87.217 E13.91386
G1 X98.927 Y86.415 E13.94586
G1 X99.951 Y85.07 E14.00208
G1 X100.448 Y84.483 E14.02766
G0 F3600 X100.754 Y84.743
G1 F1800 X101.428 Y84.117 E14.05826
G1 X102.075 Y83.592 E14.08597
G1 X102.725 Y82.947 E14.11643
G1 X102.876 Y82.716 E14.1256
G1 X103.351 Y82.138 E14.15049
G1 X103.884 Y81.613 E14.17537
G1 X104.671 Y81.012 E14.20831
G1 X104.846 Y80.897 E14.21527
G1 X105.028 Y80.655 E14.22534
G1 X105.538 Y80.108 E14.25022
G1 X106.104 Y79.619 E14.27509
G1 X106.514 Y79.324 E14.29189
G1 X109.904 Y77.068 E14.42733
G1 X110.548 Y76.688 E14.4522
G1 X111.229 Y76.378 E14.47709
G1 X111.636 Y76.243 E14.49135
G1 X111.778 Y76.152 E14.49696
G1 X112.586 Y75.756 E14.52689
G1 X114.071 Y75.144 E14.58031
G1 X114.777 Y74.896 E14.6052
G1 X115.505 Y74.725 E14.63007
G1 X116.075 Y74.647 E14.64921
G1 X116.648 Y74.593 E14.66835
G1 X116.764 Y74.517 E14.67296
G1 X117.432 Y74.179 E14.69786
G1 X118.131 Y73.914 E14.72272
G1 X118.855 Y73.726 E14.7476
G1 X119.595 Y73.615 E14.77249
G1 X119.906 Y73.596 E14.78285
G1 X120.647 Y73.4 E14.80835
G1 X121.387 Y73.289 E14.83323
G1 X122.081 Y73.258 E14.85634
G1 X122.284 Y73.259 E14.86309
G1 X122.506 Y73.201 E14.87072
G1 X123.246 Y73.09 E14.89561
G1 X124.119 Y73.061 E14.92466
G1 X129.019 Y73.206 E15.08771
G1 X129.765 Y73.268 E15.11261
G1 X130.317 Y73.367 E15.13126
G1 X131.975 Y73.732 E15.18773
G1 X132.696 Y73.931 E15.2126
G1 X133.391 Y74.207 E15.23747
G1 X134.1 Y74.584 E15.26418
G1 X134.592 Y74.756 E15.28152
G1 X136.138 Y75.377 E15.33693
G1 X136.816 Y75.693 E15.36181
G1 X137.472 Y76.089 E15.3873
G1 X137.812 Y76.321 E15.40099
G1 X138.08 Y76.426 E15.41056
G1 X138.743 Y76.773 E15.43545
G1 X139.367 Y77.188 E15.46037
G1 X140.558 Y78.078 E15.50983
G1 X141.817 Y78.914 E15.56009
G1 X143.211 Y79.822 E15.61542
G1 X144.436 Y80.538 E15.66262
G1 X145.061 Y80.949 E15.6875
G1 X145.638 Y81.425 E15.71237
G1 X146.162 Y81.959 E15.73726
G1 X146.596 Y82.511 E15.76061
G1 X147.152 Y82.992 E15.78507
G1 X148.328 Y84.062 E15.83795
G1 X148.854 Y84.595 E15.86285
G1 X149.319 Y85.18 E15.88771
G1 X149.802 Y85.961 E15.91825
G1 X149.963 Y86.265 E15.92969
G1 X150.352 Y86.623 E15.94728
G1 X150.875 Y87.158 E15.97216
G1 X151.337 Y87.746 E15.99703
G1 X151.795 Y88.493 E16.02618
G1 X152.587 Y89.986 E16.08239
G1 X152.883 Y90.619 E16.10563
G1 X153.539 Y92.225 E16.16333
G1 X153.716 Y92.709 E16.18047
G1 X154.363 Y94.7 E16.2501
G1 X154.517 Y95.277 E16.26996
G1 X155.114 Y97.053 E16.33228
G1 X155.314 Y97.774 E16.35717
G1 X155.436 Y98.512 E16.38205
G1 X155.479 Y99.259 E16.40693
G1 X155.466 Y99.519 E16.41559
G1 X155.581 Y99.905 E16.42899
G1 X155.755 Y100.633 E16.45388
G1 X155.86 Y101.516 E16.48346
G1 X155.959 Y103.316 E16.54342
G1 X155.961 Y104.064 E16.56829
G1 X155.897 Y104.663 E16.58833
G1 X156.022 Y105.507 E16.61671
G1 X156.091 Y106.252 E16.64159
