;FLAVOR:Marlin
;TIME:1022
;Filament used: 0.788608m
;Layer height: 0.2
;MINX:103.908
;MINY:83.776
;MINZ:0.2
;MAXX:146.091
;MAXY:126.222
;MAXZ:15
;Generated with Cura_SteamEngine 5.2.1
M82 ;absolute extrusion mode
G21 ; set units to millimeters
G90 ; use absolute positioning
M82 ; absolute extrusion mode
M104 S200 ; set extruder temp
M140 S60 ; set bed temp
M190 S60 ; wait for bed temp
M109 S200 ; wait for extruder temp
G28 W ; home all without mesh bed level
G80 ; mesh bed leveling
G92 E0.0 ; reset extruder distance position
G1 Y-3.0 F1000.0 ; go outside print area
G1 X60.0 E9.0 F1000.0 ; intro line
G1 X100.0 E21.5 F1000.0 ; intro line
G92 E0.0 ; reset extruder distance position
G92 E0
G92 E0
G1 F2100 E-0.8
;LAYER_COUNT:75
;LAYER:0
M107
G0 F3600 X108.019 Y92.427 Z0.2
;TYPE:SKIRT
G1 F2100 E0
G1 F1800 X108.541 Y91.835 E0.02625
G1 X109.121 Y91.298 E0.05254
G1 X109.752 Y90.824 E0.07879
G1 X110.428 Y90.415 E0.10507
G1 X111.141 Y90.077 E0.13131
G1 X112.007 Y89.769 E0.16188
G1 X112.409 Y88.994 E0.19092
G1 X112.842 Y88.334 E0.21718
G1 X113.339 Y87.72 E0.24345
G1 X113.895 Y87.16 E0.2697
G1 X114.506 Y86.659 E0.29598
G1 X115.164 Y86.223 E0.32223
G1 X115.906 Y85.835 E0.35008
G1 X116.816 Y85.42 E0.38334
G1 X117.55 Y85.129 E0.40961
G1 X118.309 Y84.914 E0.43584
G1 X119.087 Y84.777 E0.46212
G1 X119.875 Y84.719 E0.4884
G1 X120.664 Y84.741 E0.51465
G1 X121.447 Y84.843 E0.54091
G1 X122.339 Y85.052 E0.57139
G1 X123.093 Y84.619 E0.6003
G1 X123.814 Y84.297 E0.62657
G1 X124.564 Y84.049 E0.65284
G1 X125.335 Y83.879 E0.6791
G1 X126.119 Y83.788 E0.70535
G1 X126.909 Y83.776 E0.73163
G1 X127.753 Y83.852 E0.75982
G1 X128.742 Y83.996 E0.79306
G1 X129.517 Y84.15 E0.81934
G1 X130.272 Y84.38 E0.84559
G1 X131 Y84.686 E0.87185
G1 X131.693 Y85.064 E0.89811
G1 X132.345 Y85.51 E0.92438
G1 X132.948 Y86.02 E0.95065
G1 X133.575 Y86.67 E0.98069
G1 X134.453 Y86.714 E1.00993
G1 X135.233 Y86.834 E1.03617
G1 X135.998 Y87.032 E1.06246
G1 X136.738 Y87.306 E1.0887
G1 X137.447 Y87.654 E1.11497
G1 X138.118 Y88.071 E1.14125
G1 X138.766 Y88.575 E1.16855
G1 X139.522 Y89.229 E1.2018
G1 X140.092 Y89.775 E1.22805
G1 X140.605 Y90.376 E1.25433
G1 X141.053 Y91.026 E1.28059
G1 X141.434 Y91.718 E1.30686
G1 X141.743 Y92.445 E1.33314
G1 X141.977 Y93.199 E1.3594
G1 X142.16 Y94.109 E1.39027
G1 X142.867 Y94.616 E1.4192
G1 X143.459 Y95.138 E1.44546
G1 X143.995 Y95.718 E1.47172
G1 X144.47 Y96.348 E1.49797
G1 X144.879 Y97.024 E1.52424
G1 X145.218 Y97.737 E1.5505
G1 X145.494 Y98.521 E1.57815
G1 X145.776 Y99.481 E1.61143
G1 X145.96 Y100.249 E1.63769
G1 X146.065 Y101.031 E1.66394
G1 X146.091 Y101.82 E1.69019
G1 X146.036 Y102.608 E1.71646
G1 X145.903 Y103.387 E1.74275
G1 X145.691 Y104.147 E1.76899
G1 X145.356 Y105.006 E1.79966
G1 X145.677 Y105.812 E1.82851
G1 X145.893 Y106.572 E1.85479
G1 X146.031 Y107.349 E1.88104
G1 X146.09 Y108.137 E1.90732
G1 X146.069 Y108.926 E1.93357
G1 X145.968 Y109.709 E1.95983
G1 X145.778 Y110.514 E1.98734
G1 X145.497 Y111.474 E2.02061
G1 X145.237 Y112.22 E2.04689
G1 X144.903 Y112.935 E2.07314
G1 X144.498 Y113.614 E2.09943
G1 X144.027 Y114.247 E2.12567
G1 X143.494 Y114.83 E2.15195
G1 X142.905 Y115.356 E2.17821
G1 X142.154 Y115.901 E2.20907
G1 X141.991 Y116.745 E2.23766
G1 X141.762 Y117.501 E2.26394
G1 X141.459 Y118.23 E2.29019
G1 X141.083 Y118.925 E2.31648
G1 X140.639 Y119.578 E2.34274
G1 X140.132 Y120.183 E2.36899
G1 X139.522 Y120.771 E2.39717
G1 X138.766 Y121.425 E2.43042
G1 X138.143 Y121.911 E2.4567
G1 X137.475 Y122.331 E2.48295
G1 X136.767 Y122.682 E2.50923
G1 X136.028 Y122.959 E2.53548
G1 X135.264 Y123.16 E2.56175
G1 X134.484 Y123.283 E2.58802
G1 X133.571 Y123.333 E2.61843
G1 X132.962 Y123.967 E2.64767
G1 X132.36 Y124.478 E2.67393
G1 X131.71 Y124.926 E2.70019
G1 X131.017 Y125.305 E2.72646
G1 X130.29 Y125.613 E2.75272
G1 X129.535 Y125.846 E2.779
G1 X128.749 Y126.002 E2.80565
G1 X127.76 Y126.147 E2.8389
G1 X126.974 Y126.222 E2.86516
G1 X126.185 Y126.217 E2.8914
G1 X125.4 Y126.133 E2.91766
G1 X124.627 Y125.969 E2.94394
G1 X123.875 Y125.728 E2.97021
G1 X123.151 Y125.412 E2.99648
G1 X122.328 Y124.948 E3.02791
G1 X121.48 Y125.151 E3.05691
G1 X120.698 Y125.256 E3.08315
G1 X119.908 Y125.282 E3.10944
G1 X119.121 Y125.227 E3.13568
G1 X118.342 Y125.094 E3.16196
G1 X117.582 Y124.882 E3.18821
G1 X116.818 Y124.581 E3.21552
G1 X115.909 Y124.167 E3.24874
G1 X115.208 Y123.804 E3.275
G1 X114.547 Y123.372 E3.30126
G1 X113.933 Y122.875 E3.32753
G1 X113.373 Y122.319 E3.35378
G1 X112.872 Y121.708 E3.38006
G1 X112.435 Y121.051 E3.40631
G1 X112.001 Y120.228 E3.43725
G1 X111.181 Y119.942 E3.46614
G1 X110.466 Y119.608 E3.49238
G1 X109.788 Y119.203 E3.51865
G1 X109.154 Y118.731 E3.54494
G1 X108.572 Y118.198 E3.57119
G1 X108.046 Y117.609 E3.59745
G1 X107.557 Y116.93 E3.62528
G1 X107.016 Y116.087 E3.6586
G1 X106.623 Y115.401 E3.68489
G1 X106.302 Y114.68 E3.71114
G1 X106.056 Y113.93 E3.7374
G1 X105.886 Y113.158 E3.76369
G1 X105.796 Y112.374 E3.78994
G1 X105.785 Y111.584 E3.81621
G1 X105.866 Y110.674 E3.8466
G1 X105.327 Y109.986 E3.87567
G1 X104.906 Y109.318 E3.90193
G1 X104.555 Y108.611 E3.92819
G1 X104.277 Y107.872 E3.95445
G1 X104.076 Y107.108 E3.98072
G1 X103.952 Y106.328 E4.00699
G1 X103.908 Y105.5 E4.03457
G1 X103.908 Y104.5 E4.06783
G1 X103.948 Y103.711 E4.0941
G1 X104.067 Y102.931 E4.12035
G1 X104.265 Y102.166 E4.14663
G1 X104.539 Y101.426 E4.17288
G1 X104.887 Y100.717 E4.19914
G1 X105.305 Y100.046 E4.22544
G1 X105.867 Y99.319 E4.256
G1 X105.787 Y98.462 E4.28463
G1 X105.793 Y97.673 E4.31087
G1 X105.879 Y96.888 E4.33714
G1 X106.044 Y96.115 E4.36343
G1 X106.286 Y95.364 E4.38967
G1 X106.603 Y94.64 E4.41596
G1 X107.018 Y93.911 E4.44386
G1 X107.559 Y93.069 E4.47714
G1 X108.019 Y92.427 E4.50341
G0 F3600 X108.344 Y92.66
G1 F1800 X108.855 Y92.086 E4.52897
G1 X109.424 Y91.567 E4.55459
G1 X110.042 Y91.11 E4.58015
G1 X110.705 Y90.72 E4.60574
G1 X111.405 Y90.401 E4.63132
G1 X112.318 Y90.095 E4.66335
G1 X112.443 Y89.789 E4.67434
G1 X112.805 Y89.11 E4.69994
G1 X113.236 Y88.473 E4.72552
G1 X113.731 Y87.884 E4.75111
G1 X114.284 Y87.35 E4.77667
G1 X114.89 Y86.876 E4.80226
G1 X115.541 Y86.467 E4.82783
G1 X116.071 Y86.199 E4.84759
G1 X116.981 Y85.784 E4.88085
G1 X117.697 Y85.502 E4.90645
G1 X118.438 Y85.295 E4.93204
G1 X119.196 Y85.167 E4.95761
G1 X119.964 Y85.118 E4.9832
G1 X120.732 Y85.148 E5.00876
G1 X121.494 Y85.259 E5.03438
G1 X122.422 Y85.494 E5.06622
G1 X122.692 Y85.305 E5.07718
G1 X123.363 Y84.931 E5.10273
G1 X124.07 Y84.627 E5.12832
G1 X124.805 Y84.399 E5.15392
G1 X125.559 Y84.249 E5.17949
G1 X126.325 Y84.177 E5.20508
G1 X127.094 Y84.186 E5.23066
G1 X127.695 Y84.248 E5.25075
G1 X128.684 Y84.392 E5.28399
G1 X129.439 Y84.542 E5.3096
G1 X130.173 Y84.77 E5.33516
G1 X130.88 Y85.073 E5.36074
G1 X131.552 Y85.447 E5.38632
G1 X132.181 Y85.89 E5.41191
G1 X132.761 Y86.395 E5.43749
G1 X133.408 Y87.088 E5.46902
G1 X133.744 Y87.074 E5.48021
G1 X134.512 Y87.123 E5.5058
G1 X135.27 Y87.251 E5.53137
G1 X136.011 Y87.456 E5.55694
G1 X136.727 Y87.738 E5.58254
G1 X137.41 Y88.093 E5.60814
G1 X138.052 Y88.516 E5.63371
G1 X138.504 Y88.878 E5.65297
G1 X139.26 Y89.532 E5.68622
G1 X139.815 Y90.064 E5.71179
G1 X140.312 Y90.652 E5.7374
G1 X140.744 Y91.288 E5.76297
G1 X141.109 Y91.965 E5.78855
G1 X141.401 Y92.676 E5.81412
G1 X141.618 Y93.414 E5.8397
G1 X141.757 Y94.171 E5.8653
G1 X141.772 Y94.358 E5.87154
G1 X142.076 Y94.536 E5.88326
G1 X142.696 Y94.991 E5.90883
G1 X143.265 Y95.509 E5.93443
G1 X143.777 Y96.082 E5.95998
G1 X144.227 Y96.706 E5.98557
G1 X144.61 Y97.373 E6.01115
G1 X144.922 Y98.076 E6.03674
G1 X145.11 Y98.633 E6.05629
G1 X145.392 Y99.593 E6.08957
G1 X145.57 Y100.342 E6.11517
G1 X145.67 Y101.104 E6.14073
G1 X145.689 Y101.873 E6.16632
G1 X145.629 Y102.64 E6.19191
G1 X145.49 Y103.396 E6.21747
G1 X145.273 Y104.134 E6.24306
G1 X144.906 Y105.026 E6.27514
G1 X145.054 Y105.318 E6.28603
G1 X145.33 Y106.036 E6.31161
G1 X145.529 Y106.779 E6.3372
G1 X145.65 Y107.538 E6.36276
G1 X145.692 Y108.306 E6.38834
G1 X145.654 Y109.074 E6.41392
G1 X145.536 Y109.835 E6.43953
G1 X145.394 Y110.402 E6.45897
G1 X145.113 Y111.362 E6.49224
G1 X144.859 Y112.088 E6.51782
G1 X144.531 Y112.783 E6.54338
G1 X144.132 Y113.441 E6.56898
G1 X143.667 Y114.054 E6.59457
G1 X143.142 Y114.616 E6.62015
G1 X142.56 Y115.119 E6.64573
G1 X141.93 Y115.56 E6.67131
G1 X141.768 Y115.65 E6.67747
G1 X141.734 Y115.993 E6.68894
G1 X141.578 Y116.746 E6.71451
G1 X141.345 Y117.479 E6.7401
G1 X141.036 Y118.184 E6.7657
G1 X140.657 Y118.853 E6.79127
G1 X140.21 Y119.479 E6.81686
G1 X139.701 Y120.055 E6.84242
G1 X139.26 Y120.468 E6.86252
G1 X138.504 Y121.122 E6.89576
G1 X137.897 Y121.595 E6.92136
G1 X137.245 Y122.002 E6.94692
G1 X136.553 Y122.338 E6.97251
G1 X135.83 Y122.602 E6.99811
G1 X135.084 Y122.788 E7.02368
G1 X134.323 Y122.897 E7.04925
G1 X133.364 Y122.932 E7.08117
G1 X133.154 Y123.195 E7.09236
G1 X132.615 Y123.743 E7.11793
G1 X132.021 Y124.232 E7.14352
G1 X131.38 Y124.657 E7.1691
G1 X130.698 Y125.013 E7.19469
G1 X129.983 Y125.297 E7.22027
G1 X129.243 Y125.504 E7.24583
G1 X128.691 Y125.607 E7.26451
G1 X127.702 Y125.752 E7.29775
G1 X126.937 Y125.824 E7.32331
G1 X126.168 Y125.816 E7.34889
G1 X125.403 Y125.728 E7.3745
G1 X124.653 Y125.561 E7.40006
G1 X123.923 Y125.317 E7.42566
G1 X123.223 Y124.999 E7.45123
G1 X122.559 Y124.61 E7.47682
G1 X122.397 Y124.491 E7.48351
G1 X122.059 Y124.605 E7.49537
G1 X121.309 Y124.775 E7.52095
G1 X120.545 Y124.867 E7.54655
G1 X119.776 Y124.878 E7.57213
G1 X119.01 Y124.809 E7.59771
G1 X118.255 Y124.662 E7.62329
G1 X117.519 Y124.436 E7.6489
G1 X116.984 Y124.217 E7.66812
G1 X116.075 Y123.803 E7.70134
G1 X115.392 Y123.449 E7.72693
G1 X114.75 Y123.025 E7.75252
G1 X114.156 Y122.537 E7.77809
G1 X113.615 Y121.99 E7.80368
G1 X113.134 Y121.39 E7.82926
G1 X112.718 Y120.743 E7.85484
G1 X112.372 Y120.056 E7.88042
G1 X112.305 Y119.88 E7.88669
G1 X111.963 Y119.795 E7.89841
G1 X111.24 Y119.533 E7.92398
G1 X110.548 Y119.197 E7.94957
G1 X109.895 Y118.791 E7.97515
G1 X109.287 Y118.32 E8.00073
G1 X108.731 Y117.788 E8.02632
G1 X108.234 Y117.201 E8.0519
G1 X107.893 Y116.714 E8.07167
G1 X107.352 Y115.871 E8.10499
G1 X106.971 Y115.203 E8.13057
G1 X106.661 Y114.499 E8.15615
G1 X106.426 Y113.766 E8.18175
G1 X106.268 Y113.014 E8.20731
G1 X106.189 Y112.248 E8.23292
G1 X106.191 Y111.479 E8.2585
G1 X106.291 Y110.527 E8.29034
G1 X106.064 Y110.286 E8.30135
G1 X105.598 Y109.674 E8.32694
G1 X105.197 Y109.017 E8.35254
G1 X104.867 Y108.322 E8.37813
G1 X104.611 Y107.597 E8.4037
G1 X104.432 Y106.849 E8.42928
G1 X104.331 Y106.087 E8.45485
G1 X104.308 Y105.5 E8.47438
G1 X104.308 Y104.5 E8.50764
G1 X104.348 Y103.732 E8.53322
G1 X104.467 Y102.972 E8.55881
G1 X104.665 Y102.229 E8.58438
G1 X104.939 Y101.51 E8.60997
G1 X105.286 Y100.824 E8.63554
G1 X105.702 Y100.177 E8.66113
G1 X106.305 Y99.425 E8.69319
G1 X106.246 Y99.112 E8.70378
G1 X106.183 Y98.345 E8.72938
G1 X106.201 Y97.576 E8.75496
G1 X106.298 Y96.813 E8.78054
G1 X106.473 Y96.064 E8.80613
G1 X106.726 Y95.338 E8.8317
G1 X107.052 Y94.641 E8.85729
G1 X107.354 Y94.127 E8.87712
G1 X107.895 Y93.285 E8.91041
G1 X108.344 Y92.66 E8.936
G0 F3600 X108.669 Y92.894
G1 F1800 X109.169 Y92.338 E8.96087
G1 X109.725 Y91.837 E8.98576
G1 X110.332 Y91.399 E9.01066
G1 X110.981 Y91.029 E9.03551
G1 X111.667 Y90.729 E9.06041
G1 X112.381 Y90.505 E9.0853
G1 X112.598 Y90.461 E9.09266
G1 X112.84 Y89.885 E9.11344
G1 X113.201 Y89.229 E9.13835
G1 X113.63 Y88.617 E9.16321
G1 X114.122 Y88.053 E9.1881
G1 X114.672 Y87.545 E9.213
G1 X115.272 Y87.099 E9.23787
G1 X116.237 Y86.563 E9.27458
G1 X117.147 Y86.148 E9.30785
G1 X117.844 Y85.874 E9.33276
G1 X118.565 Y85.677 E9.35762
G1 X119.304 Y85.557 E9.38252
G1 X120.051 Y85.517 E9.4074
G1 X120.798 Y85.557 E9.43228
G1 X121.536 Y85.676 E9.45714
G1 X122.258 Y85.874 E9.48204
G1 X122.461 Y85.954 E9.4893
G1 X122.974 Y85.601 E9.51001
G1 X123.632 Y85.245 E9.53489
G1 X124.324 Y84.961 E9.55977
G1 X125.043 Y84.753 E9.58467
G1 X125.78 Y84.623 E9.60956
G1 X126.526 Y84.572 E9.63443
G1 X127.638 Y84.644 E9.67149
G1 X128.627 Y84.788 E9.70473
G1 X129.36 Y84.935 E9.7296
G1 X130.074 Y85.16 E9.7545
G1 X130.759 Y85.459 E9.77936
G1 X131.409 Y85.83 E9.80425
G1 X132.015 Y86.268 E9.82912
G1 X132.571 Y86.769 E9.85401
G1 X133.071 Y87.325 E9.87888
G1 X133.194 Y87.495 E9.88586
G1 X133.822 Y87.476 E9.90676
G1 X134.568 Y87.533 E9.93164
G1 X135.303 Y87.669 E9.9565
G1 X136.02 Y87.883 E9.98139
G1 X136.71 Y88.172 E10.00627
G1 X137.365 Y88.533 E10.03115
G1 X138.243 Y89.18 E10.06742
G1 X138.999 Y89.834 E10.10067
G1 X139.538 Y90.353 E10.12556
G1 X140.018 Y90.926 E10.15042
G1 X140.434 Y91.548 E10.1753
G1 X140.782 Y92.21 E10.20018
G1 X141.057 Y92.906 E10.22507
G1 X141.256 Y93.627 E10.24995
G1 X141.377 Y94.365 E10.27482
G1 X141.39 Y94.595 E10.28248
G1 X141.924 Y94.916 E10.30321
G1 X142.521 Y95.366 E10.32807
G1 X143.067 Y95.878 E10.35297
G1 X143.554 Y96.446 E10.37785
G1 X143.979 Y97.062 E10.40274
G1 X144.335 Y97.72 E10.42763
G1 X144.726 Y98.746 E10.46415
G1 X145.008 Y99.706 E10.49742
G1 X145.18 Y100.434 E10.5223
G1 X145.274 Y101.176 E10.54718
G1 X145.288 Y101.924 E10.57206
G1 X145.222 Y102.669 E10.59694
G1 X145.076 Y103.403 E10.62183
G1 X144.854 Y104.117 E10.6467
G1 X144.556 Y104.804 E10.67161
G1 X144.446 Y104.998 E10.67902
G1 X144.722 Y105.555 E10.6997
G1 X144.98 Y106.257 E10.72457
G1 X145.162 Y106.983 E10.74947
G1 X145.266 Y107.724 E10.77436
G1 X145.29 Y108.471 E10.79921
G1 X145.235 Y109.217 E10.82409
G1 X145.01 Y110.289 E10.86053
G1 X144.729 Y111.249 E10.89379
G1 X144.481 Y111.955 E10.91868
G1 X144.159 Y112.63 E10.94356
G1 X143.767 Y113.267 E10.96843
G1 X143.308 Y113.859 E10.99335
G1 X142.79 Y114.398 E11.01821
G1 X142.217 Y114.879 E11.0431
G1 X141.596 Y115.296 E11.06798
G1 X141.393 Y115.403 E11.07561
G1 X141.325 Y116.013 E11.09602
G1 X141.164 Y116.744 E11.12092
G1 X140.926 Y117.453 E11.14579
G1 X140.613 Y118.133 E11.17069
G1 X140.23 Y118.775 E11.19555
G1 X139.78 Y119.373 E11.22045
G1 X138.999 Y120.166 E11.25747
G1 X138.243 Y120.82 E11.29071
G1 X137.652 Y121.278 E11.31558
G1 X137.015 Y121.671 E11.34048
G1 X136.34 Y121.994 E11.36536
G1 X135.635 Y122.243 E11.39023
G1 X134.907 Y122.415 E11.41511
G1 X134.164 Y122.508 E11.44002
G1 X133.416 Y122.522 E11.4649
G1 X133.198 Y122.502 E11.47218
G1 X132.8 Y122.991 E11.49315
G1 X132.269 Y123.517 E11.51801
G1 X131.684 Y123.983 E11.54289
G1 X131.052 Y124.385 E11.5678
G1 X130.382 Y124.716 E11.59265
G1 X129.68 Y124.974 E11.61753
G1 X128.633 Y125.211 E11.65323
G1 X127.644 Y125.356 E11.68648
G1 X126.9 Y125.425 E11.71133
G1 X126.152 Y125.414 E11.73621
G1 X125.409 Y125.323 E11.76111
G1 X124.68 Y125.153 E11.78601
G1 X123.974 Y124.907 E11.81087
G1 X123.298 Y124.587 E11.83575
G1 X122.66 Y124.196 E11.86064
G1 X122.466 Y124.047 E11.86877
G1 X121.871 Y124.242 E11.8896
G1 X121.139 Y124.398 E11.91449
G1 X120.395 Y124.475 E11.93937
G1 X119.647 Y124.471 E11.96425
G1 X118.904 Y124.388 E11.98912
G1 X118.173 Y124.227 E12.01401
G1 X117.15 Y123.853 E12.05024
G1 X116.241 Y123.439 E12.08346
G1 X115.577 Y123.093 E12.10836
G1 X114.955 Y122.679 E12.13321
G1 X114.38 Y122.2 E12.15811
G1 X113.86 Y121.662 E12.18299
G1 X113.4 Y121.072 E12.20787
G1 X113.005 Y120.437 E12.23275
G1 X112.681 Y119.763 E12.25762
G1 X112.603 Y119.544 E12.26535
G1 X112.001 Y119.388 E12.28604
G1 X111.301 Y119.124 E12.31092
G1 X110.634 Y118.787 E12.33578
G1 X110.006 Y118.38 E12.36067
G1 X109.425 Y117.908 E12.38556
G1 X108.898 Y117.378 E12.41042
G1 X108.23 Y116.498 E12.44717
G1 X107.689 Y115.655 E12.48048
G1 X107.319 Y115.004 E12.50539
G1 X107.021 Y114.318 E12.53027
G1 X106.797 Y113.605 E12.55512
G1 X106.651 Y112.871 E12.58001
G1 X106.585 Y112.126 E12.60489
G1 X106.598 Y111.378 E12.62977
G1 X106.69 Y110.636 E12.65464
G1 X106.74 Y110.424 E12.66188
G1 X106.316 Y109.964 E12.68269
G1 X105.871 Y109.363 E12.70756
G1 X105.492 Y108.718 E12.73245
G1 X105.184 Y108.037 E12.75731
G1 X104.95 Y107.326 E12.7822
G1 X104.794 Y106.594 E12.80709
G1 X104.708 Y105.5 E12.84359
G1 X104.708 Y104.5 E12.87685
G1 X104.748 Y103.753 E12.90173
G1 X104.867 Y103.015 E12.9266
G1 X105.065 Y102.293 E12.9515
G1 X105.338 Y101.597 E12.97636
G1 X105.685 Y100.934 E13.00125
G1 X106.1 Y100.311 E13.02615
G1 X106.579 Y99.737 E13.05102
G1 X106.739 Y99.582 E13.05843
G1 X106.632 Y98.977 E13.07886
