;FLAVOR:Marlin
;TIME:3976
;Filament used: 3.87814m
;Layer height: 0.2
;MINX:92.101
;MINY:72.568
;MINZ:0.2
;MAXX:154.009
;MAXY:137.663
;MAXZ:20.2
;Generated with Cura_SteamEngine 5.2.1
M82 ;absolute extrusion mode
G21 ; set units to millimeters
G90 ; use absolute positioning
M82 ; absolute extrusion mode
M104 S200 ; set extruder temp
M140 S60 ; set bed temp
M190 S60 ; wait for bed temp
M109 S200 ; wait for extruder temp
G28 W ; home all without mesh bed level
G80 ; mesh bed leveling
G92 E0.0 ; reset extruder distance position
G1 Y-3.0 F1000.0 ; go outside print area
G1 X60.0 E9.0 F1000.0 ; intro line
G1 X100.0 E21.5 F1000.0 ; intro line
G92 E0.0 ; reset extruder distance position
G92 E0
G92 E0
G1 F2100 E-0.8
;LAYER_COUNT:101
;LAYER:0
M107
G0 F3600 X116.52 Y96.277 Z0.2
;TYPE:SKIRT
G1 F2100 E0
G1 F1800 X116.482 Y96.337 E0.00236
G1 X120.07 Y96.338 E0.1217
G1 X122.216 Y96.365 E0.19308
G1 X123.004 Y96.415 E0.21934
G1 X123.783 Y96.544 E0.24561
G1 X124.545 Y96.751 E0.27187
G1 X124.998 Y96.926 E0.28802
G1 X125.525 Y96.729 E0.30673
G1 X126.289 Y96.528 E0.33301
G1 X127.069 Y96.407 E0.35926
G1 X127.787 Y96.365 E0.38318
G1 X130.025 Y96.338 E0.45762
G1 X133.625 Y96.338 E0.57736
G1 X132.994 Y96.028 E0.60074
G1 X132.287 Y95.585 E0.62849
G1 X130.071 Y94.025 E0.71863
G1 X129.594 Y93.906 E0.73498
G1 X128.851 Y93.638 E0.76125
G1 X128.364 Y93.471 E0.77838
G1 X127.624 Y93.197 E0.80462
G1 X127.241 Y93.009 E0.81881
G1 X126.245 Y92.91 E0.8521
G1 X125.464 Y92.792 E0.87837
G1 X125.312 Y92.753 E0.88359
G1 X124.282 Y92.775 E0.91786
G1 X123.84 Y92.9 E0.93314
G1 X122.978 Y93.047 E0.96222
G1 X122.266 Y93.128 E0.98605
G1 X121.78 Y93.326 E1.00351
G1 X120.994 Y93.597 E1.03116
G1 X120.858 Y93.693 E1.0367
G1 X120.17 Y94.082 E1.06299
G1 X119.624 Y94.33 E1.08293
G1 X118.263 Y94.885 E1.13182
G1 X117.954 Y95.16 E1.14558
G1 X117.485 Y95.545 E1.16576
G1 X116.52 Y96.277 E1.20604
G0 F3600 X116.224 Y96
G1 F1800 X115.748 Y96.737 E1.23522
G1 X120.065 Y96.738 E1.37881
G1 X122.211 Y96.765 E1.45019
G1 X122.979 Y96.814 E1.47578
G1 X123.737 Y96.943 E1.50136
G1 X124.478 Y97.15 E1.52695
G1 X125 Y97.357 E1.54562
G1 X125.184 Y97.273 E1.55235
G1 X125.914 Y97.03 E1.57794
G1 X126.665 Y96.865 E1.60352
G1 X127.792 Y96.765 E1.64115
G1 X130.025 Y96.738 E1.71542
G1 X134.433 Y96.738 E1.86203
G1 X134.12 Y96.321 E1.87938
G1 X133.955 Y96.04 E1.89021
G1 X133.787 Y95.976 E1.89619
G1 X133.101 Y95.629 E1.92176
G1 X132.517 Y95.258 E1.94477
G1 X130.242 Y93.656 E2.03732
G1 X129.673 Y93.511 E2.05685
G1 X128.951 Y93.246 E2.08243
G1 X128.427 Y93.071 E2.1008
G1 X127.708 Y92.797 E2.1264
G1 X127.355 Y92.619 E2.13954
G1 X126.285 Y92.512 E2.17531
G1 X125.524 Y92.396 E2.20091
G1 X125.355 Y92.352 E2.20672
G1 X124.229 Y92.376 E2.24418
G1 X123.672 Y92.528 E2.26338
G1 X122.932 Y92.65 E2.28833
G1 X122.167 Y92.737 E2.31394
G1 X121.629 Y92.956 E2.33326
G1 X120.902 Y93.209 E2.35886
G1 X120.626 Y93.366 E2.36942
G1 X119.955 Y93.742 E2.395
G1 X119.473 Y93.96 E2.4126
G1 X118.047 Y94.542 E2.46382
G1 X117.688 Y94.861 E2.4798
G1 X117.244 Y95.226 E2.49892
G1 X116.224 Y96 E2.5415
G0 F3600 X115.927 Y95.724
G1 F1800 X115.507 Y96.367 E2.56705
G1 X114.874 Y97.137 E2.6002
G1 X120.06 Y97.138 E2.77269
G1 X122.206 Y97.165 E2.84407
G1 X122.952 Y97.214 E2.86893
G1 X123.689 Y97.343 E2.89382
G1 X124.408 Y97.549 E2.9187
G1 X125.001 Y97.79 E2.93999
G1 X125.58 Y97.553 E2.96079
G1 X126.299 Y97.345 E2.98569
G1 X127.035 Y97.215 E3.01055
G1 X127.797 Y97.165 E3.03595
G1 X130.025 Y97.138 E3.11005
G1 X135.313 Y97.137 E3.28593
G1 X134.863 Y96.648 E3.30804
G1 X134.418 Y96.046 E3.33294
G1 X134.225 Y95.714 E3.34571
G1 X133.874 Y95.577 E3.35824
G1 X133.211 Y95.23 E3.38313
G1 X132.747 Y94.931 E3.40149
G1 X130.415 Y93.289 E3.49635
G1 X129.752 Y93.117 E3.51913
G1 X129.052 Y92.853 E3.54401
G1 X128.491 Y92.671 E3.56363
G1 X127.795 Y92.398 E3.5885
G1 X127.471 Y92.228 E3.60067
G1 X126.324 Y92.114 E3.639
G1 X125.585 Y92 E3.66387
G1 X125.399 Y91.951 E3.67027
G1 X124.183 Y91.976 E3.71072
G1 X123.507 Y92.154 E3.73397
G1 X122.887 Y92.252 E3.75485
G1 X122.067 Y92.345 E3.7823
G1 X121.478 Y92.585 E3.80345
G1 X120.771 Y92.83 E3.82834
G1 X120.653 Y92.857 E3.83237
G1 X120.395 Y93.039 E3.84287
G1 X119.635 Y93.461 E3.87178
G1 X117.834 Y94.196 E3.93648
G1 X117.422 Y94.562 E3.95481
G1 X117.002 Y94.908 E3.97291
G1 X115.927 Y95.724 E4.0178
G0 F3600 X115.551 Y95.576
G1 F1800 X115.147 Y96.18 E4.04196
G1 X114.605 Y96.826 E4.07001
G1 X113.842 Y97.538 E4.10472
G1 X120.055 Y97.538 E4.31137
G1 X122.201 Y97.565 E4.38275
G1 X122.926 Y97.614 E4.40692
G1 X123.641 Y97.742 E4.43108
G1 X124.337 Y97.948 E4.45522
G1 X125.01 Y98.232 E4.47951
G1 X125.289 Y98.094 E4.48987
G1 X125.972 Y97.846 E4.51403
G1 X126.678 Y97.675 E4.5382
G1 X127.511 Y97.567 E4.56613
G1 X130.025 Y97.538 E4.64975
G1 X136.361 Y97.537 E4.86049
G1 X135.634 Y96.897 E4.89271
G1 X135.144 Y96.36 E4.91688
G1 X134.717 Y95.773 E4.94103
G1 X134.499 Y95.395 E4.95554
G1 X133.963 Y95.177 E4.97479
G1 X133.229 Y94.781 E5.00253
G1 X130.578 Y92.915 E5.11035
G1 X129.833 Y92.723 E5.13594
G1 X129.155 Y92.462 E5.1601
G1 X129.063 Y92.414 E5.16355
G1 X128.557 Y92.271 E5.18104
G1 X127.884 Y91.998 E5.2052
G1 X127.587 Y91.838 E5.21642
G1 X126.364 Y91.716 E5.2573
G1 X125.646 Y91.604 E5.28147
G1 X125.449 Y91.551 E5.28825
G1 X124.111 Y91.579 E5.33276
G1 X124.048 Y91.602 E5.33499
G1 X123.344 Y91.778 E5.35913
G1 X122.842 Y91.855 E5.37602
G1 X121.967 Y91.954 E5.40531
G1 X121.327 Y92.215 E5.4283
G1 X120.64 Y92.452 E5.45247
G1 X120.485 Y92.487 E5.45776
G1 X120.165 Y92.711 E5.47075
G1 X119.435 Y93.111 E5.49843
G1 X117.62 Y93.851 E5.56363
G1 X117.157 Y94.263 E5.58424
G1 X116.76 Y94.589 E5.60132
G1 X115.611 Y95.461 E5.6493
G1 X115.551 Y95.576 E5.65361
G0 F3600 X115.185 Y95.41
G1 F1800 X114.788 Y95.992 E5.67705
G1 X114.1 Y96.75 E5.71109
G1 X112.834 Y97.938 E5.76884
G1 X120.05 Y97.937 E6.00884
G1 X122.196 Y97.964 E6.08022
G1 X122.898 Y98.013 E6.10363
G1 X123.591 Y98.141 E6.12707
G1 X124.264 Y98.347 E6.15048
G1 X125.004 Y98.669 E6.17732
G1 X125.688 Y98.365 E6.20221
G1 X126.359 Y98.154 E6.22561
G1 X127.051 Y98.02 E6.24905
G1 X127.807 Y97.964 E6.27427
G1 X130.025 Y97.938 E6.34804
G1 X137.539 Y97.937 E6.59796
G1 X136.426 Y97.062 E6.64505
G1 X135.899 Y96.597 E6.66842
G1 X135.427 Y96.074 E6.69186
G1 X135.018 Y95.501 E6.71527
G1 X134.819 Y95.153 E6.7286
G1 X134.645 Y95.025 E6.73579
G1 X134.056 Y94.778 E6.75703
G1 X133.208 Y94.277 E6.78979
G1 X130.73 Y92.533 E6.89058
G1 X130.594 Y92.512 E6.89515
G1 X129.915 Y92.329 E6.91854
G1 X129.26 Y92.07 E6.94197
G1 X129.206 Y92.041 E6.94401
G1 X128.626 Y91.871 E6.96411
G1 X127.977 Y91.599 E6.98751
G1 X127.706 Y91.447 E6.99785
G1 X126.404 Y91.317 E7.04137
G1 X125.708 Y91.208 E7.0648
G1 X125.495 Y91.149 E7.07215
G1 X124.031 Y91.18 E7.12085
G1 X123.868 Y91.239 E7.12662
G1 X123.085 Y91.424 E7.15338
G1 X121.866 Y91.563 E7.19419
G1 X121.176 Y91.844 E7.21897
G1 X120.51 Y92.073 E7.24239
G1 X120.317 Y92.115 E7.24896
G1 X119.935 Y92.383 E7.26448
G1 X119.019 Y92.849 E7.29866
G1 X117.404 Y93.508 E7.35668
G1 X116.714 Y94.121 E7.38738
G1 X115.297 Y95.196 E7.44653
G1 X115.185 Y95.41 E7.45457
G0 F3600 X114.818 Y95.242
G1 F1800 X114.43 Y95.801 E7.4772
G1 X113.827 Y96.458 E7.50686
G1 X112.56 Y97.64 E7.56449
G1 X111.99 Y98.338 E7.59446
G1 X120.045 Y98.337 E7.86237
G1 X122.191 Y98.364 E7.93376
G1 X122.87 Y98.413 E7.9564
G1 X123.539 Y98.541 E7.97905
G1 X124.188 Y98.746 E8.00169
G1 X124.809 Y99.026 E8.02435
G1 X124.999 Y99.14 E8.03172
G1 X125.449 Y98.899 E8.0487
G1 X126.082 Y98.65 E8.07132
G1 X126.741 Y98.477 E8.09398
G1 X127.527 Y98.367 E8.12038
G1 X130.025 Y98.338 E8.20347
G1 X138.694 Y98.337 E8.4918
G1 X136.674 Y96.748 E8.57728
G1 X136.164 Y96.296 E8.59995
G1 X135.711 Y95.788 E8.62258
G1 X135.32 Y95.23 E8.64525
G1 X135.123 Y94.878 E8.65866
G1 X134.775 Y94.651 E8.67248
G1 X134.151 Y94.379 E8.69512
G1 X133.438 Y93.95 E8.7228
G1 X130.882 Y92.151 E8.82676
G1 X130.655 Y92.116 E8.8344
G1 X129.998 Y91.935 E8.85706
G1 X129.353 Y91.67 E8.88026
G1 X128.696 Y91.472 E8.90308
G1 X128.072 Y91.2 E8.92572
G1 X127.841 Y91.058 E8.93474
G1 X126.443 Y90.919 E8.98146
G1 X125.771 Y90.812 E9.0041
G1 X125.545 Y90.748 E9.01191
G1 X123.954 Y90.782 E9.06484
G1 X123.689 Y90.874 E9.07417
G1 X122.752 Y91.06 E9.10594
G1 X121.766 Y91.172 E9.13895
G1 X121.025 Y91.474 E9.16556
G1 X120.38 Y91.694 E9.18823
G1 X120.154 Y91.742 E9.19591
G1 X119.706 Y92.054 E9.21407
G1 X118.868 Y92.478 E9.24531
G1 X117.19 Y93.163 E9.30559
G1 X116.454 Y93.817 E9.33833
G1 X114.984 Y94.932 E9.3997
G1 X114.818 Y95.242 E9.4114
G0 F3600 X114.453 Y95.073
G1 F1800 X114.072 Y95.608 E9.43324
G1 X113.554 Y96.165 E9.45854
G1 X112.269 Y97.364 E9.517
G1 X111.147 Y98.738 E9.576
G1 X120.04 Y98.737 E9.87178
G1 X122.186 Y98.764 E9.94316
G1 X122.841 Y98.813 E9.96501
G1 X123.486 Y98.94 E9.98687
G1 X124.11 Y99.145 E10.00872
G1 X124.705 Y99.424 E10.03057
G1 X125 Y99.609 E10.04216
G1 X125.257 Y99.445 E10.0523
G1 X125.849 Y99.161 E10.07413
G1 X126.472 Y98.951 E10.096
G1 X127.115 Y98.819 E10.11783
G1 X127.817 Y98.764 E10.14125
G1 X130.025 Y98.738 E10.2147
G1 X140.518 Y98.737 E10.5637
G1 X140.058 Y98.592 E10.57974
G1 X139.46 Y98.32 E10.60159
G1 X138.649 Y97.793 E10.63376
G1 X136.921 Y96.434 E10.70687
G1 X136.43 Y95.997 E10.72874
G1 X135.996 Y95.504 E10.75058
G1 X135.625 Y94.961 E10.77246
G1 X135.431 Y94.608 E10.78585
G1 X135.015 Y94.304 E10.80299
G1 X134.848 Y94.251 E10.80882
G1 X134.25 Y93.979 E10.83067
G1 X133.668 Y93.622 E10.85338
G1 X131.037 Y91.77 E10.96039
G1 X130.716 Y91.72 E10.97119
G1 X130.083 Y91.541 E10.99307
G1 X129.471 Y91.283 E11.01516
G1 X129.396 Y91.269 E11.0177
G1 X128.769 Y91.072 E11.03956
G1 X128.171 Y90.8 E11.06141
G1 X127.96 Y90.668 E11.06969
G1 X126.483 Y90.521 E11.11906
G1 X125.834 Y90.417 E11.14092
G1 X125.592 Y90.347 E11.1493
G1 X123.883 Y90.383 E11.20615
G1 X123.513 Y90.508 E11.21914
G1 X122.707 Y90.663 E11.24644
G1 X121.666 Y90.781 E11.28129
G1 X120.874 Y91.104 E11.30973
G1 X120.252 Y91.314 E11.33157
G1 X119.993 Y91.367 E11.34036
G1 X119.477 Y91.725 E11.36125
G1 X118.717 Y92.108 E11.38956
G1 X116.974 Y92.819 E11.45217
G1 X116.197 Y93.51 E11.48675
G1 X114.673 Y94.666 E11.55037
G1 X114.453 Y95.073 E11.56576
G0 F3600 X114.088 Y94.902
G1 F1800 X113.716 Y95.413 E11.58678
G1 X113.281 Y95.873 E11.60784
G1 X111.978 Y97.088 E11.66709
G1 X110.789 Y98.545 E11.72964
G1 X110.553 Y99.138 E11.75087
G1 X120.035 Y99.137 E12.06624
G1 X122.181 Y99.164 E12.13763
G1 X122.811 Y99.212 E12.15864
G1 X123.43 Y99.339 E12.17966
G1 X124.029 Y99.543 E12.2007
G1 X124.596 Y99.822 E12.22172
G1 X124.982 Y100.075 E12.23707
G1 X125.663 Y99.683 E12.26321
G1 X126.246 Y99.439 E12.28423
G1 X126.855 Y99.271 E12.30524
G1 X127.571 Y99.167 E12.3293
G1 X130.026 Y99.138 E12.41096
G1 X140.368 Y99.137 E12.75494
G1 X140.998 Y99.177 E12.77593
G1 X141.619 Y99.296 E12.79697
G1 X142.22 Y99.493 E12.818
G1 X142.791 Y99.763 E12.83901
G1 X143.324 Y100.104 E12.86005
G1 X143.809 Y100.509 E12.88107
G1 X144.239 Y100.972 E12.90209
G1 X144.607 Y101.486 E12.92311
G1 X144.908 Y102.042 E12.94414
G1 X145.136 Y102.632 E12.96518
G1 X145.301 Y103.323 E12.98881
G1 X145.433 Y104.123 E13.01577
G1 X145.497 Y104.752 E13.0368
G1 X145.477 Y105.48 E13.06103
G1 X144.717 Y110.123 E13.21751
G1 X144.95 Y110.06 E13.22554
G1 X145.576 Y109.974 E13.24655
G1 X146.208 Y109.967 E13.26757
G1 X146.836 Y110.04 E13.2886
G1 X147.45 Y110.192 E13.30964
G1 X148.04 Y110.419 E13.33067
G1 X148.596 Y110.72 E13.35169
G1 X149.11 Y111.088 E13.37272
G1 X149.573 Y111.518 E13.39374
G1 X149.978 Y112.003 E13.41475
G1 X150.319 Y112.536 E13.4358
G1 X150.624 Y113.179 E13.45947
G1 X150.963 Y114.22 E13.49588
G1 X151.121 Y114.833 E13.51694
G1 X151.199 Y115.46 E13.53795
G1 X151.198 Y116.092 E13.55897
G1 X151.105 Y116.819 E13.58335
G1 X150.284 Y119.815 E13.68667
G1 X150.079 Y120.413 E13.7077
G1 X149.8 Y120.98 E13.72871
G1 X149.451 Y121.507 E13.74974
G1 X148.915 Y122.109 E13.77655
G1 X148.744 Y122.272 E13.7844
G1 X148.685 Y122.435 E13.79017
G1 X148.432 Y123.015 E13.81121
G1 X148.109 Y123.558 E13.83223
G1 X147.663 Y124.126 E13.85625
G1 X144.9 Y126.837 E13.98499
G1 X144.241 Y127.381 E14.01342
G1 X143.388 Y127.971 E14.04791
G1 X143.025 Y128.358 E14.06556
G1 X142.433 Y128.845 E14.09106
G1 X140.852 Y129.784 E14.15222
G1 X138.167 Y131.637 E14.26072
G1 X137.625 Y131.963 E14.28176
G1 X136.914 Y132.275 E14.30758
G1 X135.296 Y132.701 E14.36323
G1 X134.276 Y133.201 E14.40101
G1 X133.692 Y133.443 E14.42204
G1 X132.796 Y133.659 E14.45269
G1 X130.689 Y133.965 E14.52351
G1 X129.332 Y134.507 E14.57211
G1 X128.732 Y134.704 E14.59311
G1 X128.111 Y134.824 E14.61415
G1 X127.392 Y134.863 E14.6381
G1 X122.04 Y134.771 E14.81613
G1 X121.41 Y134.72 E14.83716
G1 X120.791 Y134.591 E14.85819
G1 X120.494 Y134.488 E14.86864
G1 X119.822 Y134.445 E14.89104
G1 X117.595 Y133.937 E14.96701
G1 X116.903 Y133.732 E14.99102
G1 X115.038 Y132.902 E15.05891
G1 X113.685 Y132.809 E15.10402
G1 X113.058 Y132.726 E15.12506
G1 X112.447 Y132.565 E15.14607
G1 X111.861 Y132.328 E15.1671
G1 X111.21 Y131.963 E15.19192
G1 X108.31 Y129.728 E15.31369
G1 X107.835 Y129.312 E15.3347
G1 X107.259 Y128.626 E15.36449
G1 X106.84 Y128.025 E15.38886
G1 X103.151 Y125.261 E15.54217
G1 X102.67 Y124.85 E15.56321
G1 X102.245 Y124.383 E15.58422
G1 X101.882 Y123.865 E15.60525
G1 X101.587 Y123.306 E15.62628
G1 X101.482 Y123.031 E15.63607
G1 X101.21 Y122.766 E15.6487
G1 X100.786 Y122.297 E15.66973
G1 X100.451 Y121.82 E15.68911
G1 X99.461 Y120.22 E15.75169
G1 X98.997 Y119.732 E15.77409
G1 X98.626 Y119.22 E15.79512
G1 X98.322 Y118.666 E15.81614
G1 X98.062 Y117.983 E15.84044
G1 X97.082 Y114.715 E15.95392
G1 X96.913 Y113.929 E15.98066
G1 X96.839 Y113.366 E15.99955
G1 X95.827 Y109.922 E16.11894
G1 X95.687 Y109.305 E16.13998
G1 X95.627 Y108.676 E16.161
G1 X95.646 Y108.044 E16.18203
G1 X95.679 Y107.838 E16.18897
G1 X95.435 Y106.518 E16.23361
G1 X95.36 Y105.891 E16.25462
G1 X95.364 Y105.293 E16.27451
G1 X95.02 Y103.753 E16.32699
G1 X94.922 Y103.129 E16.348
G1 X94.903 Y102.497 E16.36903
G1 X95.009 Y101.628 E16.39814
G1 X95.298 Y100.263 E16.44455
G1 X95.29 Y100.195 E16.44683
G1 X95.293 Y99.563 E16.46785
G1 X95.375 Y98.936 E16.48888
G1 X95.533 Y98.336 E16.50952
G1 X96.555 Y95.239 E16.61799
G1 X96.676 Y94.79 E16.63345
G1 X97.666 Y91.831 E16.73723
G1 X97.904 Y91.245 E16.75827
G1 X98.214 Y90.694 E16.7793
G1 X98.576 Y90.205 E16.79953
G1 X100.991 Y87.324 E16.92457
G1 X101.427 Y86.866 E16.9456
G1 X101.727 Y86.62 E16.9585
G1 X102.023 Y86.106 E16.97823
G1 X102.496 Y85.482 E17.00427
G1 X103.622 Y84.411 E17.05596
G1 X104.478 Y83.667 E17.09368
G1 X104.631 Y83.457 E17.10232
G1 X105.064 Y82.997 E17.12334
G1 X105.614 Y82.551 E17.14689
G1 X106.041 Y82.252 E17.16423
G1 X106.18 Y82.061 E17.17208
G1 X106.613 Y81.6 E17.19312
G1 X107.281 Y81.072 E17.22144
G1 X109.49 Y79.616 E17.30943
G1 X110.039 Y79.302 E17.33047
G1 X110.623 Y79.06 E17.35149
G1 X110.953 Y78.97 E17.36287
G1 X112.912 Y77.814 E17.43853
G1 X113.476 Y77.528 E17.45956
G1 X114.071 Y77.315 E17.48058
G1 X114.399 Y77.208 E17.49205
G1 X114.971 Y76.939 E17.51308
G1 X115.879 Y76.676 E17.54452
G1 X116.798 Y76.502 E17.57563
G1 X117.333 Y76.248 E17.59533
G1 X117.934 Y76.053 E17.61634
G1 X118.442 Y75.95 E17.63358
G1 X121.969 Y75.424 E17.75219
G1 X122.731 Y75.369 E17.7776
G1 X127.972 Y75.394 E17.95192
G1 X128.603 Y75.437 E17.97295
G1 X129.223 Y75.559 E17.99397
G1 X129.647 Y75.7 E18.00883
G1 X131.91 Y75.902 E18.0844
G1 X132.535 Y75.998 E18.10543
G1 X133.142 Y76.171 E18.12642
G1 X133.723 Y76.421 E18.14746
G1 X134.407 Y76.839 E18.17412
G1 X134.658 Y77.021 E18.18443
G1 X134.776 Y77.036 E18.18839
G1 X135.389 Y77.191 E18.20942
G1 X136.119 Y77.479 E18.23552
G1 X137.274 Y78.168 E18.28025
G1 X137.381 Y78.188 E18.28387
G1 X137.981 Y78.385 E18.30488
G1 X138.553 Y78.656 E18.32593
G1 X138.993 Y78.931 E18.34318
G1 X140.775 Y80.177 E18.41551
G1 X141.295 Y80.423 E18.43464
G1 X141.777 Y80.727 E18.45359
G1 X143.916 Y82.255 E18.54102
G1 X144.339 Y82.6 E18.55918
G1 X146.425 Y84.121 E18.64504
G1 X146.912 Y84.525 E18.66609
G1 X147.413 Y85.063 E18.69054
G1 X148.583 Y86.73 E18.75828
G1 X148.913 Y87.269 E18.7793
G1 X149.169 Y87.837 E18.80002
G1 X149.799 Y89.508 E18.85942
G1 X149.984 Y90.113 E18.88046
G1 X150.091 Y90.735 E18.90145
G1 X150.119 Y91.367 E18.92249
