;FLAVOR:Marlin
;TIME:4939
;Filament used: 4.63986m
;Layer height: 0.2
;MINX:104.703
;MINY:83.578
;MINZ:0.2
;MAXX:148.638
;MAXY:127.7
;MAXZ:38
;Generated with Cura_SteamEngine 5.2.1
M82 ;absolute extrusion mode
G21 ; set units to millimeters
G90 ; use absolute positioning
M82 ; absolute extrusion mode
M104 S200 ; set extruder temp
M140 S60 ; set bed temp
M190 S60 ; wait for bed temp
M109 S200 ; wait for extruder temp
G28 W ; home all without mesh bed level
G80 ; mesh bed leveling
G92 E0.0 ; reset extruder distance position
G1 Y-3.0 F1000.0 ; go outside print area
G1 X60.0 E9.0 F1000.0 ; intro line
G1 X100.0 E21.5 F1000.0 ; intro line
G92 E0.0 ; reset extruder distance position
G92 E0
G92 E0
G1 F2100 E-0.8
;LAYER_COUNT:190
;LAYER:0
M107
G0 F3600 X109.678 Y93.895 Z0.2
;TYPE:SKIRT
G1 F2100 E0
G1 F1800 X110.602 Y92.971 E0.04346
G1 X113.021 Y90.634 E0.15533
G1 X113.427 Y90.252 E0.17387
G1 X113.968 Y89.815 E0.197
G1 X114.95 Y89.314 E0.23367
G1 X118.058 Y87.782 E0.34892
G1 X118.672 Y87.491 E0.37152
G1 X119.334 Y87.253 E0.39492
G1 X120.005 Y87.085 E0.41792
G1 X121.547 Y86.72 E0.47063
G1 X124.183 Y86.016 E0.56137
G1 X126.819 Y85.232 E0.65284
G1 X129.401 Y84.384 E0.74323
G1 X130.025 Y84.16 E0.76529
G1 X131.091 Y83.792 E0.80279
G1 X131.61 Y83.655 E0.82065
G1 X132.204 Y83.596 E0.8405
G1 X133.31 Y83.578 E0.87729
G1 X133.965 Y83.637 E0.89916
G1 X134.487 Y83.763 E0.91703
G1 X134.983 Y83.966 E0.93485
G1 X135.447 Y84.241 E0.95279
G1 X136.029 Y84.649 E0.97643
G1 X137.503 Y85.752 E1.03766
G1 X139.696 Y87.35 E1.12791
G1 X142.18 Y89.084 E1.22867
G1 X142.641 Y89.428 E1.2478
G1 X143.045 Y89.781 E1.26564
G1 X143.392 Y90.19 E1.28348
G1 X143.71 Y90.705 E1.30362
G1 X144.895 Y93.474 E1.40379
G1 X146.034 Y95.945 E1.49429
G1 X147.256 Y98.407 E1.58571
G1 X147.862 Y99.584 E1.62974
G1 X148.065 Y100.061 E1.64698
G1 X148.326 Y100.823 E1.67377
G1 X148.478 Y101.315 E1.6909
G1 X148.597 Y101.838 E1.70874
G1 X148.638 Y102.373 E1.72658
G1 X148.599 Y102.908 E1.74442
G1 X148.481 Y103.43 E1.76222
G1 X148.269 Y104.124 E1.78636
G1 X148.078 Y104.688 E1.80616
G1 X147.867 Y105.181 E1.824
G1 X147.528 Y105.713 E1.84498
G1 X145.814 Y107.947 E1.93863
G1 X144.223 Y110.15 E2.02902
G1 X142.667 Y112.434 E2.12094
G1 X141.227 Y114.685 E2.20981
G1 X140.49 Y115.874 E2.25634
G1 X139.782 Y116.769 E2.2943
G1 X138.086 Y118.981 E2.38701
G1 X136.507 Y121.166 E2.47667
G1 X134.968 Y123.426 E2.56761
G1 X133.738 Y125.346 E2.64345
G1 X133.359 Y125.836 E2.66405
G1 X132.851 Y126.302 E2.68698
G1 X132.327 Y126.697 E2.70881
G1 X131.87 Y127.022 E2.72746
G1 X131.41 Y127.298 E2.7453
G1 X130.915 Y127.503 E2.76312
G1 X130.394 Y127.632 E2.78097
G1 X129.854 Y127.682 E2.79901
G1 X128.747 Y127.7 E2.83583
G1 X128.083 Y127.639 E2.85801
G1 X127.562 Y127.512 E2.87585
G1 X126.982 Y127.274 E2.8967
G1 X125.395 Y126.293 E2.95875
G1 X123.034 Y124.891 E3.05008
G1 X120.672 Y123.578 E3.13996
G1 X117.578 Y121.982 E3.25576
G1 X114.862 Y120.642 E3.35649
G1 X114.257 Y120.333 E3.37908
G1 X113.798 Y120.054 E3.39695
G1 X113.396 Y119.72 E3.41433
G1 X110.474 Y116.905 E3.54928
G1 X109.941 Y116.374 E3.5743
G1 X109.483 Y115.844 E3.5976
G1 X108.87 Y114.726 E3.64001
G1 X107.41 Y111.952 E3.74427
G1 X107.076 Y111.295 E3.76878
G1 X106.869 Y110.8 E3.78663
G1 X106.743 Y110.312 E3.80339
G1 X106.557 Y109.298 E3.83768
G1 X106.219 Y107.24 E3.90705
G1 X106.113 Y106.526 E3.93106
G1 X106.074 Y105.997 E3.9487
G1 X106.074 Y104.043 E4.01369
G1 X106.112 Y103.525 E4.03096
G1 X106.255 Y102.54 E4.06407
G1 X106.605 Y100.406 E4.13599
G1 X106.719 Y99.768 E4.15755
G1 X106.895 Y99.087 E4.18094
G1 X107.539 Y97.803 E4.22872
G1 X108.96 Y95.105 E4.33014
G1 X109.298 Y94.484 E4.35366
G1 X109.678 Y93.895 E4.37697
G0 F3600 X109.994 Y94.146
G1 F1800 X110.88 Y93.259 E4.41867
G1 X113.295 Y90.925 E4.53037
G1 X113.701 Y90.543 E4.54892
G1 X114.195 Y90.148 E4.56995
G1 X115.127 Y89.673 E4.60475
G1 X118.23 Y88.143 E4.71982
G1 X118.844 Y87.852 E4.74241
G1 X119.432 Y87.641 E4.76319
G1 X120.097 Y87.474 E4.786
G1 X121.637 Y87.11 E4.83863
G1 X124.328 Y86.391 E4.93127
G1 X126.92 Y85.62 E5.02122
G1 X129.513 Y84.768 E5.112
G1 X131.222 Y84.17 E5.17222
G1 X131.711 Y84.043 E5.18902
G1 X132.211 Y83.995 E5.20573
G1 X132.904 Y83.983 E5.22878
G1 X133.426 Y83.989 E5.24614
G1 X133.929 Y84.036 E5.26294
G1 X134.419 Y84.162 E5.27977
G1 X134.997 Y84.414 E5.30074
G1 X135.882 Y85.037 E5.33674
G1 X137.233 Y86.05 E5.3929
G1 X139.496 Y87.698 E5.48602
G1 X141.951 Y89.412 E5.5856
G1 X142.401 Y89.748 E5.60428
G1 X142.78 Y90.082 E5.62108
G1 X143.102 Y90.472 E5.6379
G1 X143.422 Y91.049 E5.65985
G1 X144.522 Y93.621 E5.75289
G1 X145.677 Y96.126 E5.84463
G1 X146.9 Y98.59 E5.93613
G1 X147.612 Y99.973 E5.98786
G1 X147.912 Y100.845 E6.01854
G1 X148.095 Y101.433 E6.03902
G1 X148.206 Y101.927 E6.05586
G1 X148.238 Y102.431 E6.07265
G1 X148.177 Y103.054 E6.09348
G1 X147.755 Y104.432 E6.14141
G1 X147.499 Y105.022 E6.1628
G1 X147.211 Y105.47 E6.18051
G1 X145.488 Y107.716 E6.27467
G1 X143.883 Y109.937 E6.36581
G1 X142.343 Y112.2 E6.45685
G1 X140.863 Y114.512 E6.54815
G1 X140.162 Y115.642 E6.59238
G1 X139.465 Y116.526 E6.62982
G1 X137.761 Y118.749 E6.72298
G1 X136.168 Y120.953 E6.81343
G1 X134.633 Y123.206 E6.9041
G1 X133.353 Y125.192 E6.98269
G1 X133.042 Y125.59 E6.99949
G1 X132.61 Y125.982 E7.01889
G1 X131.744 Y126.634 E7.05495
G1 X131.204 Y126.954 E7.07582
G1 X130.735 Y127.141 E7.09262
G1 X130.119 Y127.278 E7.11361
G1 X129.163 Y127.295 E7.14541
G1 X128.623 Y127.288 E7.16337
G1 X128.12 Y127.239 E7.18018
G1 X127.63 Y127.113 E7.19701
G1 X126.993 Y126.81 E7.22047
G1 X125.63 Y125.968 E7.27375
G1 X123.238 Y124.547 E7.36629
G1 X120.835 Y123.21 E7.45775
G1 X117.782 Y121.637 E7.57198
G1 X115.043 Y120.286 E7.67356
G1 X114.438 Y119.977 E7.69616
G1 X114.008 Y119.712 E7.71296
G1 X113.674 Y119.432 E7.72745
G1 X110.714 Y116.579 E7.86419
G1 X110.223 Y116.09 E7.88724
G1 X109.811 Y115.609 E7.9083
G1 X109.224 Y114.539 E7.94889
G1 X107.744 Y111.727 E8.05458
G1 X107.432 Y111.114 E8.07746
G1 X107.19 Y110.527 E8.09858
G1 X106.94 Y109.166 E8.1446
G1 X106.615 Y107.181 E8.2115
G1 X106.474 Y106.231 E8.24345
G1 X106.474 Y103.807 E8.32407
G1 X106.65 Y102.605 E8.36447
G1 X106.999 Y100.476 E8.43623
G1 X107.113 Y99.838 E8.45779
G1 X107.274 Y99.224 E8.4789
G1 X107.893 Y97.989 E8.52484
G1 X109.311 Y95.296 E8.62607
G1 X109.649 Y94.675 E8.64959
G1 X109.994 Y94.146 E8.67059
G1 F2100 E7.87059
G0 F3600 X113.64 Y94.131
G0 X120.549 Y101.035
G0 X124.709 Y108.501
G1 F2100 E8.67059
G1 F1800 X125.027 Y108.562 E8.68136
G1 X125.013 Y108.564 E8.68183
G1 X124.709 Y108.501 E8.69216
G0 F3600 X124.313 Y108.826
G1 F1800 X124.051 Y108.434 E8.70784
G1 X123.769 Y108.181 E8.72044
G1 X123.44 Y107.993 E8.73305
G1 X123.078 Y107.879 E8.74567
G1 X122.701 Y107.842 E8.75827
G1 X122.381 Y107.879 E8.76898
G1 X122.175 Y107.604 E8.78041
G1 X125.757 Y108.295 E8.90174
G1 X125.861 Y108.371 E8.90603
G1 X126.068 Y108.802 E8.92193
G1 X125.007 Y108.971 E8.95767
G1 X124.313 Y108.826 E8.98125
G0 F3600 X123.908 Y108.906
G1 F1800 X123.7 Y108.645 E8.99235
G1 X123.436 Y108.441 E9.00344
G1 X123.131 Y108.305 E9.01455
G1 X122.802 Y108.245 E9.02567
G1 X122.469 Y108.264 E9.03677
G1 X122.226 Y108.339 E9.04523
G1 X121.641 Y107.559 E9.07765
G1 X121.687 Y107.197 E9.08979
G1 X121.62 Y106.81 E9.10285
G1 X121.817 Y106.993 E9.1118
G1 X122.108 Y107.156 E9.12289
G1 X122.376 Y107.236 E9.13219
G1 X125.921 Y107.92 E9.25228
G1 X126.201 Y108.124 E9.2638
G1 X126.39 Y108.575 E9.28006
G1 X126.598 Y108.836 E9.29116
G1 X126.755 Y108.957 E9.29776
G1 X126.35 Y109.163 E9.31287
G1 X124.987 Y109.378 E9.35876
G1 X124.033 Y109.176 E9.3912
G1 X123.908 Y108.906 E9.40109
G0 F3600 X123.544 Y109.08
G1 F1800 X123.354 Y108.871 E9.41049
G1 X123.113 Y108.724 E9.41988
G1 X122.841 Y108.65 E9.42925
G1 X122.559 Y108.655 E9.43863
G1 X122.29 Y108.738 E9.448
G1 X122.134 Y108.841 E9.45421
G1 X122.038 Y108.793 E9.45778
G1 X121.966 Y108.659 E9.46284
G1 X121.193 Y107.628 E9.5057
G1 X121.283 Y107.31 E9.51669
G1 X121.269 Y107.029 E9.52605
G1 X121.177 Y106.762 E9.53544
G1 X120.969 Y106.469 E9.54739
G1 X120.392 Y106.092 E9.57032
G1 X120.242 Y105.144 E9.60224
G1 X120.115 Y104.807 E9.61422
G1 X120.319 Y104.006 E9.64171
G1 X120.386 Y104.169 E9.64757
G1 X120.596 Y104.43 E9.65872
G1 X121.41 Y104.959 E9.691
G1 X121.666 Y106.083 E9.72935
G1 X121.767 Y106.346 E9.73872
G1 X121.937 Y106.571 E9.7481
G1 X122.164 Y106.74 E9.75751
G1 X122.452 Y106.843 E9.76768
G1 X126.084 Y107.544 E9.89071
G1 X126.542 Y107.877 E9.90955
G1 X126.754 Y108.401 E9.92835
G1 X126.944 Y108.61 E9.93774
G1 X127.185 Y108.757 E9.94713
G1 X127.581 Y108.839 E9.96058
G1 X127.87 Y108.839 E9.97019
G1 X126.478 Y109.547 E10.02214
G1 X125.144 Y109.758 E10.06706
G1 X125.005 Y109.801 E10.0719
G1 X124.905 Y109.767 E10.07541
G1 X123.729 Y109.521 E10.11537
G1 X123.544 Y109.08 E10.13127
G0 F3600 X123.184 Y109.265
G1 F1800 X123.018 Y109.123 E10.13854
G1 X122.812 Y109.05 E10.14581
G1 X122.594 Y109.055 E10.15306
G1 X122.392 Y109.137 E10.16031
G1 X122.205 Y109.325 E10.16913
G1 X121.742 Y109.115 E10.18604
G1 X121.646 Y108.899 E10.1939
G1 X120.701 Y107.639 E10.24629
G1 X120.79 Y107.545 E10.25059
G1 X120.874 Y107.343 E10.25787
G1 X120.88 Y107.125 E10.26512
G1 X120.807 Y106.919 E10.27239
G1 X120.615 Y106.715 E10.28171
G1 X120.024 Y106.33 E10.30517
G1 X119.847 Y105.206 E10.34302
G1 X119.774 Y105.001 E10.35025
G1 X119.68 Y104.89 E10.35509
G1 X120.053 Y103.427 E10.40531
G1 X120.702 Y102.15 E10.45295
G1 X120.926 Y102.711 E10.47304
G1 X120.677 Y103.474 E10.49974
G1 X120.648 Y103.69 E10.50699
G1 X120.698 Y103.903 E10.51426
G1 X120.84 Y104.111 E10.52264
G1 X121.764 Y104.711 E10.55928
G1 X122.056 Y105.994 E10.60305
G1 X122.142 Y106.195 E10.61032
G1 X122.294 Y106.351 E10.61756
G1 X122.527 Y106.45 E10.62598
G1 X126.247 Y107.168 E10.75199
G1 X126.882 Y107.63 E10.77811
G1 X127.01 Y108.024 E10.79189
G1 X127.114 Y108.216 E10.79915
G1 X127.28 Y108.358 E10.80642
G1 X127.581 Y108.439 E10.81679
G1 X128.035 Y108.439 E10.83189
G1 X128.25 Y108.399 E10.83916
G1 X128.443 Y108.279 E10.84672
G1 X129.649 Y107.158 E10.90148
G1 X128.864 Y108.701 E10.95906
G1 X128.823 Y108.838 E10.96382
G1 X128.702 Y108.864 E10.96794
G1 X126.601 Y109.933 E11.04634
G1 X125.206 Y110.153 E11.09331
G1 X124.997 Y110.23 E11.10072
G1 X124.823 Y110.159 E11.10697
G1 X123.421 Y109.865 E11.15462
G1 X123.288 Y109.457 E11.16889
G1 X123.184 Y109.265 E11.17615
G0 F3600 X122.833 Y109.479
G1 F1800 X122.714 Y109.442 E11.1803
G1 X122.556 Y109.523 E11.1862
G1 X122.325 Y109.835 E11.19911
G1 X121.68 Y109.507 E11.22318
G1 X121.556 Y109.488 E11.22735
G1 X121.448 Y109.544 E11.2314
G1 X119.182 Y111.81 E11.33798
G1 X118.959 Y111.748 E11.34568
G1 X121.307 Y109.4 E11.45613
G1 X121.364 Y109.289 E11.46028
G1 X121.326 Y109.139 E11.46542
G1 X120.147 Y107.568 E11.53075
G1 X120.405 Y107.38 E11.54137
G1 X120.478 Y107.278 E11.54554
G1 X120.476 Y107.153 E11.5497
G1 X120.396 Y107.05 E11.55404
G1 X119.657 Y106.568 E11.58338
G1 X119.452 Y105.269 E11.62712
G1 X119.395 Y105.158 E11.63127
G1 X119.214 Y105.1 E11.63759
G1 X119.678 Y103.282 E11.7
G1 X120.779 Y101.117 E11.78078
G1 X120.798 Y100.993 E11.78496
G1 X120.742 Y100.885 E11.789
G1 X118.395 Y98.538 E11.8994
G1 X118.465 Y98.323 E11.90692
G1 X119.843 Y99.701 E11.97174
G1 X119.954 Y99.758 E11.97589
G1 X120.075 Y99.738 E11.97996
G1 X120.415 Y99.566 E11.99264
G1 X120.981 Y100.132 E12.01926
G1 X121.092 Y100.189 E12.02341
G1 X121.213 Y100.169 E12.02749
G1 X121.537 Y100.004 E12.03958
G1 X121.323 Y101.04 E12.07477
G1 X120.958 Y101.306 E12.08979
G1 X120.885 Y101.408 E12.09396
G1 X120.89 Y101.542 E12.09842
G1 X121.35 Y102.698 E12.1398
G1 X121.057 Y103.598 E12.17128
G1 X121.057 Y103.723 E12.17544
G1 X121.138 Y103.828 E12.17985
G1 X122.118 Y104.465 E12.21873
G1 X122.446 Y105.905 E12.26785
G1 X122.51 Y106.012 E12.272
G1 X122.603 Y106.057 E12.27543
G1 X126.409 Y106.791 E12.40435
G1 X127.223 Y107.384 E12.43785
G1 X127.391 Y107.901 E12.45593
G1 X127.465 Y108.002 E12.46009
G1 X127.581 Y108.039 E12.46414
G1 X128.035 Y108.039 E12.47924
G1 X128.171 Y107.986 E12.4841
G1 X130.301 Y106.007 E12.5808
G1 X130.519 Y105.453 E12.6006
G1 X130.318 Y106.727 E12.6435
G1 X129.221 Y108.882 E12.72393
G1 X129.202 Y109.006 E12.7281
G1 X129.258 Y109.114 E12.73215
G1 X131.757 Y111.613 E12.84969
G1 X131.546 Y111.689 E12.85715
G1 X129.115 Y109.258 E12.9715
G1 X129.004 Y109.201 E12.97565
G1 X128.883 Y109.221 E12.97973
G1 X126.727 Y110.318 E13.06018
G1 X125.269 Y110.548 E13.10928
G1 X125.158 Y110.605 E13.11343
G1 X125.1 Y110.746 E13.1185
G1 X125.1 Y113.857 E13.22197
G1 X124.9 Y113.713 E13.23017
G1 X124.9 Y110.746 E13.32885
G1 X124.861 Y110.627 E13.33302
G1 X124.741 Y110.55 E13.33776
G1 X123.111 Y110.209 E13.39314
G1 X122.907 Y109.58 E13.41514
G1 X122.833 Y109.479 E13.4193
G1 F2100 E12.6193
G0 F3600 X121.294 Y106.253
G1 F2100 E13.4193
G1 F1800 X120.759 Y105.854 E13.4415
G1 X120.611 Y104.916 E13.47308
G1 X121.056 Y105.206 E13.49075
G1 X121.294 Y106.253 E13.52646
G1 F2100 E12.72646
G0 F3600 X121.008 Y100.585
G1 F2100 E13.52646
G1 F1800 X120.989 Y100.566 E13.52736
G1 X121.011 Y100.571 E13.52811
G1 X121.008 Y100.585 E13.52858
G1 F2100 E12.72858
G0 F3600 X131.004 Y105.1
G1 F2100 E13.52858
G1 F1800 X131.279 Y104.9 E13.53989
G1 X135.32 Y104.9 E13.6743
G1 X135.27 Y105.1 E13.68115
G1 X131.004 Y105.1 E13.82304
G1 F2100 E13.02304
G0 F3600 X141.102 Y104.65
G0 X141.382 Y102.388
G1 F2100 E13.82304
G1 F1800 X141.711 Y101.373 E13.85853
G1 X142.578 Y100.742 E13.89419
G1 X143.644 Y100.742 E13.92965
G1 X144.511 Y101.373 E13.96532
G1 X144.842 Y102.388 E14.00082
G1 X144.511 Y103.403 E14.03633
G1 X143.644 Y104.034 E14.072
G1 X142.578 Y104.034 E14.10745
G1 X141.711 Y103.403 E14.14312
G1 X141.382 Y102.388 E14.17861
G0 F3600 X141.803 Y102.388
G1 F1800 X142.052 Y101.619 E14.20549
G1 X142.707 Y101.142 E14.23244
G1 X143.515 Y101.142 E14.25932
G1 X144.171 Y101.62 E14.28631
G1 X144.421 Y102.388 E14.31317
G1 X144.171 Y103.156 E14.34004
G1 X143.515 Y103.634 E14.36703
G1 X142.707 Y103.634 E14.39391
G1 X142.052 Y103.157 E14.42086
G1 X141.803 Y102.388 E14.44774
G0 F3600 X142.223 Y102.388
G1 F1800 X142.392 Y101.866 E14.46599
G1 X142.837 Y101.542 E14.4843
G1 X143.385 Y101.542 E14.50253
G1 X143.83 Y101.866 E14.52084
G1 X144 Y102.388 E14.53909
G1 X143.83 Y102.91 E14.55735
G1 X143.385 Y103.234 E14.57566
G1 X142.837 Y103.234 E14.59389
G1 X142.392 Y102.91 E14.6122
G1 X142.223 Y102.388 E14.63045
G0 F3600 X142.644 Y102.388
G1 F1800 X142.733 Y102.113 E14.64006
G1 X142.968 Y101.942 E14.64973
G1 X143.254 Y101.942 E14.65924
G1 X143.49 Y102.114 E14.66895
G1 X143.58 Y102.388 E14.67854
G1 X143.49 Y102.662 E14.68814
G1 X143.254 Y102.834 E14.69785
G1 X142.968 Y102.834 E14.70736
G1 X142.733 Y102.663 E14.71703
G1 X142.644 Y102.388 E14.72664
G0 F3600 X143.064 Y102.388
G1 F1800 X143.098 Y102.342 E14.72854
G1 X143.16 Y102.388 E14.73111
G1 X143.098 Y102.434 E14.73368
G1 X143.064 Y102.388 E14.73558
G1 F2100 E13.93558
G0 F3600 X139.486 Y94.977
G1 F2100 E14.73558
G1 F1800 X138.462 Y94.977 E14.76964
G1 X137.63 Y94.372 E14.80385
G1 X137.315 Y93.398 E14.8379
G1 X137.63 Y92.424 E14.87195
G1 X138.462 Y91.819 E14.90616
G1 X139.486 Y91.819 E14.94022
G1 X140.318 Y92.424 E14.97444
G1 X140.635 Y93.398 E15.00851
G1 X140.318 Y94.372 E15.04257
G1 X139.486 Y94.977 E15.07679
G0 F3600 X139.357 Y94.577
G1 F1800 X138.591 Y94.577 E15.10227
G1 X137.971 Y94.126 E15.12777
G1 X137.736 Y93.398 E15.15321
G1 X137.971 Y92.67 E15.17865
G1 X138.591 Y92.219 E15.20415
G1 X139.357 Y92.219 E15.22963
G1 X139.977 Y92.67 E15.25513
G1 X140.214 Y93.398 E15.2806
G1 X139.977 Y94.126 E15.30606
G1 X139.357 Y94.577 E15.33156
G0 F3600 X139.227 Y94.177
G1 F1800 X138.721 Y94.177 E15.34839
G1 X138.312 Y93.879 E15.36522
G1 X138.157 Y93.398 E15.38203
G1 X138.312 Y92.917 E15.39884
G1 X138.721 Y92.619 E15.41567
G1 X139.227 Y92.619 E15.4325
G1 X139.637 Y92.918 E15.44938
G1 X139.794 Y93.398 E15.46617
G1 X139.637 Y93.878 E15.48297
G1 X139.227 Y94.177 E15.49985
G0 F3600 X139.096 Y93.777
G1 F1800 X138.852 Y93.777 E15.50796
G1 X138.652 Y93.632 E15.51618
G1 X138.576 Y93.398 E15.52436
G1 X138.652 Y93.164 E15.53255
G1 X138.852 Y93.019 E15.54076
G1 X139.096 Y93.019 E15.54888
G1 X139.298 Y93.165 E15.55717
G1 X139.373 Y93.398 E15.56531
G1 X139.298 Y93.631 E15.57345
