;FLAVOR:Marlin
;TIME:4025
;Filament used: 3.06105m
;Layer height: 0.2
;MINX:87.3
;MINY:80.966
;MINZ:0.2
;MAXX:158.668
;MAXY:129.415
;MAXZ:30
;Generated with Cura_SteamEngine 5.2.1
M82 ;absolute extrusion mode
G21 ; set units to millimeters
G90 ; use absolute positioning
M82 ; absolute extrusion mode
M104 S228 ; set extruder temp
M140 S0 ; set bed temp
M190 S0 ; wait for bed temp
M109 S228 ; wait for extruder temp
G28 W ; home all without mesh bed level
G80 ; mesh bed leveling
G92 E0.0 ; reset extruder distance position
G1 Y-3.0 F1000.0 ; go outside print area
G1 X60.0 E9.0 F1000.0 ; intro line
G1 X100.0 E21.5 F1000.0 ; intro line
G92 E0.0 ; reset extruder distance position
G92 E0
G92 E0
G1 F2100 E-0.8
;LAYER_COUNT:150
;LAYER:0
M107
G0 F3600 X95.103 Y84.463 Z0.2
;TYPE:SKIRT
G1 F2100 E0
G1 F1800 X95.652 Y83.895 E0.02627
G1 X96.255 Y83.385 E0.05254
G1 X96.911 Y82.937 E0.07896
G1 X97.829 Y82.376 E0.11475
G1 X98.522 Y81.999 E0.14098
G1 X99.251 Y81.694 E0.16727
G1 X100.006 Y81.464 E0.19352
G1 X100.781 Y81.312 E0.21979
G1 X101.568 Y81.239 E0.24607
G1 X102.474 Y81.253 E0.27621
G1 X104.707 Y81.419 E0.35069
G1 X105.491 Y81.518 E0.37697
G1 X105.613 Y81.545 E0.38113
G1 X106.061 Y81.495 E0.39612
G1 X106.85 Y81.487 E0.42236
G1 X107.87 Y81.596 E0.45648
G1 X109.19 Y81.825 E0.50104
G1 X111.771 Y81.812 E0.58689
G1 X112.56 Y81.848 E0.61315
G1 X113.342 Y81.963 E0.63944
G1 X114.107 Y82.157 E0.66569
G1 X114.436 Y82.277 E0.67734
G1 X115.109 Y82.002 E0.70152
G1 X115.616 Y81.843 E0.71919
G1 X117.095 Y81.434 E0.77023
G1 X117.866 Y81.262 E0.79651
G1 X118.65 Y81.17 E0.82276
G1 X119.44 Y81.157 E0.84904
G1 X120.415 Y81.251 E0.88162
G1 X123.039 Y81.674 E0.97002
G1 X123.812 Y81.839 E0.99631
G1 X124.458 Y82.048 E1.01889
G1 X124.905 Y82.031 E1.03377
G1 X125.694 Y82.071 E1.06005
G1 X126.474 Y82.19 E1.08629
G1 X127.239 Y82.388 E1.11257
G1 X127.979 Y82.662 E1.13882
G1 X128.688 Y83.01 E1.16509
G1 X129.359 Y83.428 E1.19138
G1 X129.983 Y83.911 E1.21763
G1 X130.556 Y84.454 E1.24388
G1 X131.071 Y85.053 E1.27016
G1 X131.522 Y85.701 E1.29641
G1 X131.906 Y86.392 E1.32271
G1 X132.218 Y87.117 E1.34896
G1 X132.322 Y87.448 E1.3605
G1 X133.278 Y87.296 E1.39269
G1 X134.064 Y87.212 E1.41899
G1 X135.055 Y87.207 E1.45195
G1 X135.213 Y86.631 E1.47181
G1 X135.498 Y85.894 E1.49809
G1 X135.856 Y85.191 E1.52433
G1 X136.284 Y84.526 E1.55064
G1 X136.776 Y83.909 E1.57688
G1 X137.328 Y83.344 E1.60316
G1 X137.935 Y82.839 E1.62942
G1 X138.589 Y82.397 E1.65567
G1 X139.285 Y82.023 E1.68195
G1 X140.015 Y81.722 E1.70821
G1 X140.772 Y81.496 E1.73449
G1 X141.547 Y81.348 E1.76073
G1 X141.914 Y81.315 E1.77299
G1 X142.778 Y81.133 E1.80236
G1 X143.558 Y81.01 E1.82862
G1 X144.415 Y80.966 E1.85716
G1 X147.823 Y80.979 E1.97051
G1 X148.611 Y81.022 E1.99676
G1 X149.391 Y81.145 E2.02302
G1 X150.155 Y81.345 E2.04929
G1 X150.895 Y81.622 E2.07557
G1 X151.625 Y81.985 E2.10269
G1 X153.866 Y83.249 E2.18826
G1 X154.533 Y83.671 E2.21451
G1 X155.154 Y84.159 E2.24078
G1 X155.723 Y84.707 E2.26706
G1 X156.234 Y85.309 E2.29332
G1 X156.68 Y85.961 E2.31959
G1 X157.181 Y86.919 E2.35555
G1 X157.754 Y88.23 E2.40314
G1 X158.033 Y88.969 E2.42941
G1 X158.236 Y89.732 E2.45567
G1 X158.361 Y90.512 E2.48195
G1 X158.401 Y91.672 E2.52055
G1 X158.331 Y93.382 E2.57747
G1 X158.553 Y95.57 E2.65062
G1 X158.593 Y96.358 E2.67686
G1 X158.553 Y97.147 E2.70314
G1 X158.405 Y98.056 E2.73377
G1 X158.212 Y98.92 E2.76321
G1 X158.001 Y99.681 E2.78948
G1 X157.715 Y100.417 E2.81574
G1 X157.355 Y101.12 E2.84201
G1 X156.926 Y101.783 E2.86828
G1 X156.432 Y102.399 E2.89454
G1 X155.879 Y102.963 E2.92081
G1 X155.271 Y103.467 E2.94708
G1 X154.615 Y103.907 E2.97335
G1 X153.919 Y104.279 E2.9996
G1 X153.188 Y104.578 E3.02587
G1 X152.289 Y104.844 E3.05705
G1 X152.292 Y105.353 E3.07398
G1 X152.204 Y106.222 E3.10303
G1 X151.963 Y107.743 E3.15425
G1 X152.893 Y108.155 E3.18808
G1 X153.579 Y108.546 E3.21434
G1 X154.222 Y109.004 E3.2406
G1 X154.913 Y109.61 E3.27117
G1 X155.543 Y110.286 E3.3019
G1 X156.021 Y110.915 E3.32818
G1 X156.432 Y111.589 E3.35444
G1 X156.725 Y112.189 E3.37664
G1 X158.017 Y115.149 E3.48406
G1 X158.296 Y115.888 E3.51034
G1 X158.498 Y116.651 E3.53659
G1 X158.623 Y117.431 E3.56286
G1 X158.668 Y118.219 E3.58911
G1 X158.633 Y119.008 E3.61538
G1 X158.518 Y119.789 E3.64164
G1 X158.37 Y120.406 E3.66274
G1 X157.986 Y121.754 E3.70936
G1 X157.731 Y122.501 E3.73561
G1 X157.402 Y123.219 E3.76188
G1 X157.003 Y123.901 E3.78816
G1 X156.536 Y124.538 E3.81443
G1 X156.007 Y125.124 E3.84069
G1 X155.338 Y125.731 E3.87074
G1 X154.454 Y126.375 E3.90711
G1 X153.793 Y126.807 E3.93338
G1 X153.092 Y127.17 E3.95963
G1 X152.357 Y127.46 E3.98591
G1 X151.597 Y127.675 E4.01218
G1 X150.819 Y127.811 E4.03845
G1 X149.862 Y127.87 E4.07034
G1 X149.094 Y127.87 E4.09588
G1 X148.305 Y127.83 E4.12216
G1 X147.525 Y127.711 E4.1484
G1 X147.255 Y127.641 E4.15768
G1 X147.037 Y127.754 E4.16585
G1 X146.302 Y128.044 E4.19213
G1 X145.542 Y128.259 E4.2184
G1 X144.764 Y128.395 E4.24467
G1 X143.977 Y128.452 E4.27091
G1 X143.264 Y128.435 E4.29463
G1 X142.691 Y128.395 E4.31374
G1 X141.907 Y128.3 E4.34
G1 X141.136 Y128.127 E4.36628
G1 X140.388 Y127.876 E4.39253
G1 X139.668 Y127.551 E4.4188
G1 X138.985 Y127.155 E4.44506
G1 X138.345 Y126.692 E4.47133
G1 X137.756 Y126.166 E4.4976
G1 X137.222 Y125.584 E4.52387
G1 X136.751 Y124.951 E4.55011
G1 X136.345 Y124.273 E4.57639
G1 X136.011 Y123.558 E4.60264
G1 X135.713 Y122.705 E4.63269
G1 X134.936 Y122.788 E4.65868
G1 X134.147 Y122.792 E4.68493
G1 X133.278 Y122.704 E4.71398
G1 X132.554 Y122.589 E4.73836
G1 X132.386 Y123.099 E4.75622
G1 X132.064 Y123.821 E4.78251
G1 X131.671 Y124.506 E4.80878
G1 X131.211 Y125.147 E4.83502
G1 X130.689 Y125.739 E4.86127
G1 X130.109 Y126.276 E4.88756
G1 X129.478 Y126.75 E4.91381
G1 X128.802 Y127.159 E4.94009
G1 X128.306 Y127.394 E4.95834
G1 X127.907 Y127.601 E4.97329
G1 X127.173 Y127.891 E4.99954
G1 X126.413 Y128.106 E5.02581
G1 X125.635 Y128.243 E5.05209
G1 X124.719 Y128.303 E5.08262
G1 X122.375 Y128.317 E5.16058
G1 X121.586 Y128.282 E5.18685
G1 X120.804 Y128.167 E5.21314
G1 X120.545 Y128.101 E5.22203
G1 X119.9 Y128.214 E5.24381
G1 X118.732 Y128.27 E5.2827
G1 X116.545 Y128.211 E5.35547
G1 X116.318 Y128.252 E5.36314
G1 X115.535 Y128.354 E5.3894
G1 X114.745 Y128.376 E5.41569
G1 X114.272 Y128.341 E5.43146
G1 X114.188 Y128.379 E5.43453
G1 X113.439 Y128.627 E5.46077
G1 X112.668 Y128.799 E5.48705
G1 X111.868 Y128.893 E5.51384
G1 X109.113 Y129.072 E5.60566
G1 X107.846 Y129.175 E5.64794
G1 X105.213 Y129.316 E5.73564
G1 X102.987 Y129.415 E5.80975
G1 X102.197 Y129.41 E5.83603
G1 X101.412 Y129.326 E5.86229
G1 X100.639 Y129.162 E5.88857
G1 X99.525 Y128.774 E5.9278
G1 X97.234 Y127.776 E6.01092
G1 X96.527 Y127.424 E6.03719
G1 X95.859 Y127.003 E6.06345
G1 X95.237 Y126.516 E6.08972
G1 X94.668 Y125.969 E6.11597
G1 X94.156 Y125.367 E6.14226
G1 X93.709 Y124.717 E6.1685
G1 X93.329 Y124.025 E6.19476
G1 X92.926 Y123.021 E6.23074
G1 X92.69 Y122.29 E6.25629
G1 X92.486 Y121.528 E6.28252
G1 X92.36 Y120.748 E6.3088
G1 X92.313 Y119.96 E6.33506
G1 X92.347 Y119.171 E6.36133
G1 X92.385 Y118.909 E6.37013
G1 X91.16 Y118.018 E6.42051
G1 X90.546 Y117.521 E6.44679
G1 X89.985 Y116.965 E6.47306
G1 X89.483 Y116.355 E6.49933
G1 X89.046 Y115.698 E6.52558
G1 X88.677 Y115 E6.55184
G1 X88.329 Y114.112 E6.58356
G1 X87.679 Y112.103 E6.65379
G1 X87.474 Y111.34 E6.68006
G1 X87.347 Y110.561 E6.70632
G1 X87.3 Y109.773 E6.73257
G1 X87.333 Y108.984 E6.75884
G1 X87.446 Y108.202 E6.78512
G1 X87.679 Y107.301 E6.81607
G1 X88.329 Y105.292 E6.8863
G1 X88.61 Y104.554 E6.91257
G1 X88.964 Y103.848 E6.93883
G1 X89.387 Y103.181 E6.9651
G1 X89.876 Y102.561 E6.99137
G1 X90.425 Y101.994 E7.01762
G1 X91.16 Y101.386 E7.04934
G1 X92.514 Y100.401 E7.10503
G1 X92.328 Y99.743 E7.12778
G1 X92.19 Y98.965 E7.15406
G1 X92.131 Y98.178 E7.1803
G1 X92.153 Y97.388 E7.20659
G1 X92.254 Y96.605 E7.23285
G1 X92.441 Y95.811 E7.25998
G1 X92.413 Y95.659 E7.26512
G1 X92.351 Y94.871 E7.29141
G1 X92.369 Y94.082 E7.31766
G1 X92.466 Y93.298 E7.34393
G1 X92.727 Y92.249 E7.37989
G1 X93.017 Y91.353 E7.41121
G1 X92.989 Y91.18 E7.41704
G1 X92.942 Y90.392 E7.4433
G1 X92.975 Y89.603 E7.46956
G1 X93.088 Y88.821 E7.49584
G1 X93.32 Y87.924 E7.52666
G1 X93.556 Y87.194 E7.55217
G1 X93.837 Y86.455 E7.57847
G1 X94.191 Y85.75 E7.60471
G1 X94.614 Y85.083 E7.63098
G1 X95.103 Y84.463 E7.65724
G0 F3600 X95.457 Y84.666
G1 F1800 X95.998 Y84.119 E7.68283
G1 X96.593 Y83.632 E7.7084
G1 X97.119 Y83.279 E7.72947
G1 X98.037 Y82.718 E7.76526
G1 X98.714 Y82.351 E7.79087
G1 X99.424 Y82.057 E7.81643
G1 X100.162 Y81.838 E7.84203
G1 X100.918 Y81.697 E7.86761
G1 X101.684 Y81.635 E7.89317
G1 X102.445 Y81.652 E7.91849
G1 X104.678 Y81.818 E7.99296
G1 X105.441 Y81.915 E8.01854
G1 X105.594 Y81.95 E8.02376
G1 X106.125 Y81.892 E8.04153
G1 X106.894 Y81.89 E8.06711
G1 X107.802 Y81.99 E8.09749
G1 X109.158 Y82.226 E8.14327
G1 X111.774 Y82.212 E8.23028
G1 X112.542 Y82.248 E8.25585
G1 X113.302 Y82.364 E8.28142
G1 X114.047 Y82.557 E8.30702
G1 X114.44 Y82.705 E8.32099
G1 X115.405 Y82.317 E8.35558
G1 X117.202 Y81.82 E8.41759
G1 X117.953 Y81.653 E8.44318
G1 X118.717 Y81.566 E8.46875
G1 X119.486 Y81.559 E8.49433
G1 X120.352 Y81.646 E8.52328
G1 X122.976 Y82.069 E8.61168
G1 X123.728 Y82.231 E8.63727
G1 X124.397 Y82.45 E8.66068
G1 X124.905 Y82.431 E8.67759
G1 X125.673 Y82.471 E8.70317
G1 X126.433 Y82.59 E8.72875
G1 X127.176 Y82.788 E8.75433
G1 X127.895 Y83.062 E8.77992
G1 X128.581 Y83.409 E8.80549
G1 X129.228 Y83.825 E8.83107
G1 X129.828 Y84.306 E8.85665
G1 X130.375 Y84.847 E8.88224
G1 X130.863 Y85.442 E8.90783
G1 X131.286 Y86.084 E8.9334
G1 X131.641 Y86.767 E8.959
G1 X131.922 Y87.482 E8.98456
G1 X132.037 Y87.898 E8.99891
G1 X133.341 Y87.691 E9.04283
G1 X134.106 Y87.611 E9.06841
G1 X134.875 Y87.61 E9.09399
G1 X135.367 Y87.661 E9.11044
G1 X135.456 Y87.226 E9.12521
G1 X135.686 Y86.492 E9.15079
G1 X135.992 Y85.786 E9.17638
G1 X136.369 Y85.116 E9.20195
G1 X136.813 Y84.488 E9.22753
G1 X137.321 Y83.91 E9.25313
G1 X137.885 Y83.388 E9.27869
G1 X138.501 Y82.927 E9.30428
G1 X139.161 Y82.533 E9.32984
G1 X139.859 Y82.209 E9.35544
G1 X140.587 Y81.959 E9.38104
G1 X141.336 Y81.786 E9.40661
G1 X141.923 Y81.723 E9.42624
G1 X142.861 Y81.525 E9.45813
G1 X143.62 Y81.406 E9.48368
G1 X144.413 Y81.366 E9.51009
G1 X147.821 Y81.379 E9.62344
G1 X148.589 Y81.422 E9.64902
G1 X149.349 Y81.544 E9.67462
G1 X150.091 Y81.745 E9.70019
G1 X150.809 Y82.021 E9.72578
G1 X151.428 Y82.334 E9.74885
G1 X153.669 Y83.598 E9.83442
G1 X154.319 Y84.01 E9.86002
G1 X154.922 Y84.487 E9.88559
G1 X155.472 Y85.024 E9.91116
G1 X155.964 Y85.616 E9.93676
G1 X156.391 Y86.255 E9.96232
G1 X156.815 Y87.079 E9.99314
G1 X157.388 Y88.39 E10.04073
G1 X157.659 Y89.11 E10.06632
G1 X157.853 Y89.854 E10.09189
G1 X157.97 Y90.615 E10.1175
G1 X158.001 Y91.655 E10.1521
G1 X157.93 Y93.392 E10.20993
G1 X158.155 Y95.61 E10.28408
G1 X158.193 Y96.378 E10.30965
G1 X158.151 Y97.146 E10.33523
G1 X158.015 Y97.969 E10.36298
G1 X157.822 Y98.833 E10.39242
G1 X157.616 Y99.574 E10.418
G1 X157.333 Y100.29 E10.44361
G1 X156.978 Y100.972 E10.46918
G1 X156.554 Y101.614 E10.49477
G1 X156.066 Y102.208 E10.52034
G1 X155.519 Y102.749 E10.54593
G1 X154.918 Y103.229 E10.57151
G1 X154.271 Y103.645 E10.59709
G1 X153.585 Y103.991 E10.62265
G1 X152.866 Y104.265 E10.64824
G1 X152.122 Y104.462 E10.67384
G1 X151.889 Y104.498 E10.68168
G1 X151.89 Y105.375 E10.71085
G1 X151.809 Y106.159 E10.73706
G1 X151.512 Y108.034 E10.8002
G1 X152.269 Y108.306 E10.82696
G1 X152.96 Y108.643 E10.85253
G1 X153.613 Y109.049 E10.8781
G1 X154.22 Y109.522 E10.9037
G1 X154.727 Y109.996 E10.92678
G1 X155.25 Y110.559 E10.95234
G1 X155.713 Y111.174 E10.97794
G1 X156.109 Y111.833 E11.00352
G1 X156.358 Y112.349 E11.02257
G1 X157.65 Y115.309 E11.12999
G1 X157.921 Y116.029 E11.15558
G1 X158.115 Y116.773 E11.18115
G1 X158.231 Y117.533 E11.20672
G1 X158.268 Y118.301 E11.2323
G1 X158.225 Y119.069 E11.25788
G1 X158.081 Y119.959 E11.28787
G1 X157.601 Y121.644 E11.34614
G1 X157.352 Y122.372 E11.37173
G1 X157.029 Y123.07 E11.39731
G1 X156.635 Y123.731 E11.4229
G1 X156.175 Y124.347 E11.44848
G1 X155.653 Y124.912 E11.47406
G1 X154.84 Y125.599 E11.50946
G1 X154.218 Y126.052 E11.53505
G1 X153.574 Y126.472 E11.56063
G1 X152.89 Y126.822 E11.58618
G1 X152.172 Y127.1 E11.61179
G1 X151.43 Y127.302 E11.63737
G1 X150.671 Y127.426 E11.66295
G1 X149.862 Y127.47 E11.68989
G1 X149.094 Y127.47 E11.71544
G1 X148.326 Y127.43 E11.74102
G1 X147.566 Y127.311 E11.7666
G1 X147.207 Y127.215 E11.77896
G1 X146.835 Y127.406 E11.79287
G1 X146.117 Y127.684 E11.81848
G1 X145.375 Y127.886 E11.84406
G1 X144.616 Y128.01 E11.86963
G1 X143.848 Y128.054 E11.89522
G1 X143.292 Y128.036 E11.91372
G1 X142.719 Y127.996 E11.93283
G1 X141.955 Y127.903 E11.95843
G1 X141.206 Y127.731 E11.98399
G1 X140.478 Y127.482 E12.00958
G1 X139.78 Y127.158 E12.03517
G1 X139.119 Y126.764 E12.06077
G1 X138.503 Y126.304 E12.08634
G1 X137.938 Y125.782 E12.11192
G1 X137.43 Y125.205 E12.13749
G1 X136.985 Y124.577 E12.16309
G1 X136.607 Y123.907 E12.18868
G1 X136.301 Y123.202 E12.21424
G1 X136.008 Y122.272 E12.24667
G1 X134.894 Y122.389 E12.28392
G1 X134.125 Y122.39 E12.3095
G1 X133.341 Y122.309 E12.33572
G1 X132.265 Y122.138 E12.37195
G1 X132.174 Y122.493 E12.38414
G1 X131.907 Y123.214 E12.40971
G1 X131.566 Y123.904 E12.43531
G1 X131.156 Y124.555 E12.4609
G1 X130.681 Y125.159 E12.48646
G1 X130.145 Y125.711 E12.51205
G1 X129.555 Y126.204 E12.53762
G1 X128.917 Y126.634 E12.56321
G1 X128.237 Y126.995 E12.58882
G1 X127.705 Y127.253 E12.60848
G1 X126.988 Y127.531 E12.63406
G1 X126.246 Y127.734 E12.65965
G1 X125.486 Y127.858 E12.68526
G1 X124.716 Y127.903 E12.71091
G1 X122.372 Y127.917 E12.78888
G1 X121.604 Y127.881 E12.81445
G1 X120.843 Y127.767 E12.84004
G1 X120.57 Y127.695 E12.84943
G1 X119.752 Y127.829 E12.877
G1 X118.743 Y127.87 E12.91059
G1 X116.518 Y127.81 E12.98462
G1 X116.247 Y127.859 E12.99378
G1 X115.484 Y127.957 E13.01936
G1 X114.715 Y127.975 E13.04495
G1 X114.201 Y127.933 E13.0621
G1 X114.006 Y128.02 E13.0692
G1 X113.274 Y128.257 E13.09479
G1 X112.522 Y128.417 E13.12036
G1 X111.842 Y128.493 E13.14312
G1 X109.12 Y128.67 E13.23385
G1 X107.607 Y128.79 E13.28433
G1 X105.195 Y128.917 E13.36466
G1 X102.969 Y129.016 E13.43877
G1 X102.2 Y129.01 E13.46435
G1 X101.435 Y128.924 E13.48996
G1 X100.684 Y128.76 E13.51552
G1 X99.685 Y128.407 E13.55076
G1 X97.394 Y127.409 E13.63388
G1 X96.705 Y127.066 E13.65948
G1 X96.057 Y126.653 E13.68503
G1 X95.454 Y126.175 E13.71063
G1 X94.904 Y125.637 E13.73622
G1 X94.414 Y125.044 E13.7618
G1 X93.987 Y124.404 E13.78739
G1 X93.629 Y123.724 E13.81295
G1 X93.307 Y122.899 E13.84241
G1 X93.071 Y122.168 E13.86796
G1 X92.873 Y121.424 E13.89356
G1 X92.753 Y120.664 E13.91915
G1 X92.713 Y119.896 E13.94473
G1 X92.753 Y119.128 E13.97031
G1 X92.816 Y118.728 E13.98378
G1 X91.395 Y117.694 E14.04223
G1 X90.798 Y117.21 E14.06779
G1 X90.254 Y116.666 E14.09338
G1 X89.769 Y116.069 E14.11896
G1 X89.349 Y115.424 E14.14456
G1 X88.998 Y114.74 E14.17013
G1 X88.709 Y113.989 E14.1969
G1 X88.059 Y111.98 E14.26713
G1 X87.861 Y111.237 E14.2927
G1 X87.741 Y110.477 E14.31829
G1 X87.7 Y109.709 E14.34387
G1 X87.739 Y108.941 E14.36945
G1 X87.858 Y108.181 E14.39503
G1 X88.059 Y107.424 E14.42109
G1 X88.709 Y105.415 E14.49132
G1 X88.984 Y104.697 E14.51689
G1 X89.331 Y104.01 E14.54249
G1 X89.748 Y103.364 E14.56806
G1 X90.23 Y102.764 E14.59366
G1 X90.771 Y102.218 E14.61922
G1 X91.395 Y101.71 E14.64599
G1 X92.896 Y100.617 E14.70774
G1 X92.943 Y100.437 E14.71393
G1 X92.713 Y99.634 E14.74171
G1 X92.582 Y98.876 E14.7673
G1 X92.53 Y98.108 E14.7929
G1 X92.558 Y97.34 E14.81846
G1 X92.666 Y96.578 E14.84406
G1 X92.859 Y95.869 E14.8685
G1 X92.805 Y95.567 E14.8787
G1 X92.75 Y94.8 E14.90428
G1 X92.774 Y94.031 E14.92987
G1 X92.878 Y93.269 E14.95545
G1 X93.108 Y92.372 E14.98624
G1 X93.344 Y91.643 E15.01173
G1 X93.433 Y91.41 E15.02003
G1 X93.383 Y91.096 E15.0306
G1 X93.342 Y90.328 E15.05618
G1 X93.381 Y89.56 E15.08176
G1 X93.5 Y88.8 E15.10734
G1 X93.701 Y88.047 E15.13327
G1 X93.937 Y87.317 E15.15878
G1 X94.211 Y86.598 E15.18437
G1 X94.559 Y85.912 E15.20996
G1 X94.975 Y85.265 E15.23554
G1 X95.457 Y84.666 E15.26111
G0 F3600 X95.81 Y84.871
