;FLAVOR:Marlin
;TIME:7660
;Filament used: 7.67979m
;Layer height: 0.2
;MINX:101.212
;MINY:81.212
;MINZ:0.2
;MAXX:148.788
;MAXY:128.788
;MAXZ:71
;Generated with Cura_SteamEngine 5.2.1
M82 ;absolute extrusion mode
G21 ; set units to millimeters
G90 ; use absolute positioning
M82 ; absolute extrusion mode
M104 S228 ; set extruder temp
M140 S0 ; set bed temp
M190 S0 ; wait for bed temp
M109 S228 ; wait for extruder temp
G28 W ; home all without mesh bed level
G80 ; mesh bed leveling
G92 E0.0 ; reset extruder distance position
G1 Y-3.0 F1000.0 ; go outside print area
G1 X60.0 E9.0 F1000.0 ; intro line
G1 X100.0 E21.5 F1000.0 ; intro line
G92 E0.0 ; reset extruder distance position
G92 E0
G92 E0
G1 F2100 E-0.8
;LAYER_COUNT:355
;LAYER:0
M107
G0 F3600 X106.677 Y89.825 Z0.2
;TYPE:SKIRT
G1 F2100 E0
G1 F1800 X107.873 Y88.487 E0.05969
G1 X108.494 Y87.866 E0.0889
G1 X109.834 Y86.67 E0.14864
G1 X110.511 Y86.13 E0.17744
G1 X111.971 Y85.093 E0.237
G1 X112.715 Y84.625 E0.26624
G1 X114.289 Y83.755 E0.32605
G1 X115.083 Y83.373 E0.35536
G1 X116.738 Y82.689 E0.41492
G1 X117.553 Y82.404 E0.44364
G1 X119.274 Y81.907 E0.50322
G1 X120.136 Y81.71 E0.53263
G1 X121.908 Y81.41 E0.5924
G1 X122.771 Y81.313 E0.62129
G1 X124.561 Y81.212 E0.68092
G1 X125.438 Y81.212 E0.71009
G1 X127.232 Y81.313 E0.76985
G1 X128.098 Y81.411 E0.79884
G1 X129.867 Y81.711 E0.85851
G1 X130.725 Y81.907 E0.88779
G1 X132.448 Y82.404 E0.94743
G1 X133.275 Y82.693 E0.97657
G1 X134.931 Y83.38 E1.0362
G1 X135.712 Y83.757 E1.06504
G1 X137.284 Y84.625 E1.12477
G1 X138.029 Y85.092 E1.15401
G1 X139.49 Y86.129 E1.2136
G1 X140.171 Y86.673 E1.24259
G1 X141.511 Y87.87 E1.30235
G1 X142.131 Y88.489 E1.33149
G1 X143.326 Y89.826 E1.39113
G1 X143.871 Y90.511 E1.42025
G1 X144.909 Y91.974 E1.47991
G1 X145.376 Y92.716 E1.50907
G1 X146.246 Y94.291 E1.56892
G1 X146.627 Y95.083 E1.59815
G1 X147.311 Y96.738 E1.65771
G1 X147.596 Y97.554 E1.68646
G1 X148.093 Y99.276 E1.74607
G1 X148.288 Y100.131 E1.77524
G1 X148.589 Y101.9 E1.83492
G1 X148.688 Y102.774 E1.86418
G1 X148.788 Y104.568 E1.92394
G1 X148.788 Y105.437 E1.95284
G1 X148.688 Y107.228 E2.0125
G1 X148.59 Y108.099 E2.04165
G1 X148.29 Y109.865 E2.10123
G1 X148.095 Y110.72 E2.1304
G1 X147.598 Y112.444 E2.19008
G1 X147.308 Y113.271 E2.21922
G1 X146.62 Y114.93 E2.27896
G1 X146.245 Y115.709 E2.30771
G1 X145.379 Y117.279 E2.36735
G1 X144.91 Y118.025 E2.39666
G1 X143.872 Y119.488 E2.45632
G1 X143.326 Y120.174 E2.48548
G1 X142.128 Y121.514 E2.54527
G1 X141.507 Y122.134 E2.57445
G1 X140.167 Y123.33 E2.63419
G1 X139.49 Y123.87 E2.66299
G1 X138.03 Y124.907 E2.72256
G1 X137.278 Y125.379 E2.75209
G1 X135.703 Y126.247 E2.8119
G1 X134.926 Y126.621 E2.84058
G1 X133.272 Y127.307 E2.90014
G1 X132.448 Y127.596 E2.92918
G1 X130.727 Y128.093 E2.98876
G1 X129.865 Y128.29 E3.01817
G1 X128.093 Y128.59 E3.07794
G1 X127.229 Y128.687 E3.10686
G1 X125.435 Y128.788 E3.16663
G1 X124.557 Y128.788 E3.19583
G1 X122.77 Y128.687 E3.25536
G1 X121.908 Y128.59 E3.28421
G1 X120.136 Y128.29 E3.34399
G1 X119.276 Y128.093 E3.37333
G1 X117.55 Y127.595 E3.43308
G1 X116.72 Y127.304 E3.46233
G1 X115.066 Y126.617 E3.5219
G1 X114.292 Y126.245 E3.55046
G1 X112.723 Y125.38 E3.61005
G1 X111.97 Y124.907 E3.63963
G1 X110.504 Y123.865 E3.69945
G1 X109.827 Y123.325 E3.72825
G1 X108.49 Y122.131 E3.78787
G1 X107.871 Y121.511 E3.81701
G1 X106.675 Y120.173 E3.8767
G1 X106.126 Y119.485 E3.90598
G1 X105.09 Y118.023 E3.96558
G1 X104.628 Y117.288 E3.99445
G1 X103.757 Y115.713 E4.05431
G1 X103.376 Y114.922 E4.08351
G1 X102.69 Y113.265 E4.14316
G1 X102.402 Y112.44 E4.17222
G1 X101.906 Y110.718 E4.23183
G1 X101.711 Y109.863 E4.26099
G1 X101.411 Y108.094 E4.32067
G1 X101.313 Y107.23 E4.34959
G1 X101.212 Y105.441 E4.40919
G1 X101.212 Y104.562 E4.43843
G1 X101.313 Y102.771 E4.49809
G1 X101.411 Y101.906 E4.52704
G1 X101.711 Y100.137 E4.58672
G1 X101.905 Y99.284 E4.61582
G1 X102.402 Y97.557 E4.67559
G1 X102.695 Y96.721 E4.70505
G1 X103.383 Y95.065 E4.76469
G1 X103.756 Y94.291 E4.79327
G1 X104.622 Y92.721 E4.85291
G1 X105.092 Y91.973 E4.88229
G1 X106.132 Y90.508 E4.94204
G1 X106.677 Y89.825 E4.97111
G0 F3600 X106.975 Y90.091
G1 F1800 X108.171 Y88.753 E5.0308
G1 X108.76 Y88.164 E5.0585
G1 X110.1 Y86.968 E5.11824
G1 X110.743 Y86.456 E5.14558
G1 X112.203 Y85.419 E5.20514
G1 X112.908 Y84.975 E5.23285
G1 X114.482 Y84.105 E5.29267
G1 X115.236 Y83.743 E5.32049
G1 X116.891 Y83.059 E5.38005
G1 X117.664 Y82.789 E5.40728
G1 X119.385 Y82.292 E5.46686
G1 X120.203 Y82.105 E5.49477
G1 X121.975 Y81.805 E5.55455
G1 X122.793 Y81.713 E5.58192
G1 X124.583 Y81.612 E5.64155
G1 X125.416 Y81.612 E5.66926
G1 X127.21 Y81.713 E5.72902
G1 X128.031 Y81.805 E5.7565
G1 X129.8 Y82.105 E5.81618
G1 X130.614 Y82.291 E5.84395
G1 X132.337 Y82.788 E5.90359
G1 X133.122 Y83.063 E5.93126
G1 X134.778 Y83.75 E5.99089
G1 X135.519 Y84.107 E6.01824
G1 X137.091 Y84.975 E6.07797
G1 X137.797 Y85.419 E6.10571
G1 X139.258 Y86.456 E6.1653
G1 X139.905 Y86.971 E6.1928
G1 X141.245 Y88.168 E6.25256
G1 X141.832 Y88.756 E6.2802
G1 X143.027 Y90.093 E6.33984
G1 X143.545 Y90.742 E6.36746
G1 X144.583 Y92.205 E6.42712
G1 X145.025 Y92.909 E6.45477
G1 X145.895 Y94.484 E6.51462
G1 X146.257 Y95.236 E6.54237
G1 X146.941 Y96.891 E6.60194
G1 X147.212 Y97.665 E6.62921
G1 X147.709 Y99.387 E6.68882
G1 X147.894 Y100.198 E6.71649
G1 X148.195 Y101.967 E6.77617
G1 X148.289 Y102.796 E6.80392
G1 X148.389 Y104.59 E6.86368
G1 X148.388 Y105.415 E6.89112
G1 X148.288 Y107.206 E6.95078
G1 X148.195 Y108.032 E6.97843
G1 X147.895 Y109.798 E7.03801
G1 X147.71 Y110.609 E7.06568
G1 X147.213 Y112.333 E7.12535
G1 X146.939 Y113.118 E7.15301
G1 X146.251 Y114.777 E7.21274
G1 X145.895 Y115.516 E7.24002
G1 X145.029 Y117.086 E7.29966
G1 X144.584 Y117.794 E7.32747
G1 X143.546 Y119.257 E7.38714
G1 X143.028 Y119.907 E7.41478
G1 X141.83 Y121.247 E7.47456
G1 X141.241 Y121.836 E7.50227
G1 X139.901 Y123.032 E7.56201
G1 X139.258 Y123.544 E7.58935
G1 X137.798 Y124.581 E7.64891
G1 X137.085 Y125.029 E7.67692
G1 X135.51 Y125.897 E7.73673
G1 X134.773 Y126.251 E7.76392
G1 X133.119 Y126.937 E7.82348
G1 X132.337 Y127.211 E7.85104
G1 X130.616 Y127.708 E7.91062
G1 X129.798 Y127.895 E7.93853
G1 X128.026 Y128.195 E7.9983
G1 X127.207 Y128.287 E8.02571
G1 X125.413 Y128.388 E8.08548
G1 X124.579 Y128.388 E8.11322
G1 X122.792 Y128.287 E8.17275
G1 X121.975 Y128.195 E8.20009
G1 X120.203 Y127.895 E8.25987
G1 X119.387 Y127.709 E8.2877
G1 X117.661 Y127.211 E8.34745
G1 X116.873 Y126.935 E8.37522
G1 X115.219 Y126.248 E8.43479
G1 X114.485 Y125.894 E8.4619
G1 X112.916 Y125.029 E8.52149
G1 X112.202 Y124.581 E8.54952
G1 X110.736 Y123.539 E8.60934
G1 X110.094 Y123.026 E8.63667
G1 X108.757 Y121.832 E8.6963
G1 X108.169 Y121.245 E8.72393
G1 X106.973 Y119.907 E8.78362
G1 X106.452 Y119.253 E8.81143
G1 X105.416 Y117.791 E8.87103
G1 X104.978 Y117.094 E8.89841
G1 X104.107 Y115.519 E8.95827
G1 X103.746 Y114.769 E8.98595
G1 X103.06 Y113.112 E9.0456
G1 X102.786 Y112.329 E9.07319
G1 X102.29 Y110.607 E9.13279
G1 X102.105 Y109.796 E9.16046
G1 X101.805 Y108.027 E9.22014
G1 X101.713 Y107.207 E9.24758
G1 X101.612 Y105.418 E9.30718
G1 X101.612 Y104.584 E9.33492
G1 X101.713 Y102.793 E9.39458
G1 X101.805 Y101.973 E9.42203
G1 X102.105 Y100.204 E9.4817
G1 X102.29 Y99.394 E9.50934
G1 X102.787 Y97.667 E9.56911
G1 X103.064 Y96.875 E9.59702
G1 X103.752 Y95.219 E9.65666
G1 X104.106 Y94.484 E9.68379
G1 X104.972 Y92.914 E9.74343
G1 X105.418 Y92.204 E9.77132
G1 X106.458 Y90.739 E9.83107
G1 X106.975 Y90.091 E9.85864
G0 F3600 X107.273 Y90.358
G1 F1800 X108.469 Y89.02 E9.91833
G1 X109.027 Y88.463 E9.94456
G1 X110.367 Y87.267 E10.0043
G1 X110.975 Y86.782 E10.03016
G1 X112.435 Y85.745 E10.08973
G1 X113.102 Y85.326 E10.11592
G1 X114.676 Y84.456 E10.17574
G1 X115.388 Y84.113 E10.20203
G1 X117.043 Y83.429 E10.26159
G1 X117.775 Y83.173 E10.28738
G1 X119.496 Y82.676 E10.34696
G1 X120.27 Y82.499 E10.37337
G1 X122.042 Y82.199 E10.43314
G1 X122.816 Y82.112 E10.45905
G1 X124.606 Y82.011 E10.51868
G1 X125.393 Y82.011 E10.54485
G1 X127.187 Y82.112 E10.60462
G1 X127.964 Y82.2 E10.63063
G1 X129.733 Y82.5 E10.6903
G1 X130.503 Y82.675 E10.71657
G1 X132.226 Y83.172 E10.77621
G1 X132.968 Y83.432 E10.80236
G1 X134.624 Y84.119 E10.86199
G1 X135.326 Y84.457 E10.88791
G1 X136.898 Y85.325 E10.94763
G1 X137.566 Y85.745 E10.97388
G1 X139.027 Y86.782 E11.03346
G1 X139.638 Y87.27 E11.05947
G1 X140.978 Y88.467 E11.11923
G1 X141.534 Y89.022 E11.14536
G1 X142.729 Y90.359 E11.20501
G1 X143.219 Y90.973 E11.23113
G1 X144.257 Y92.436 E11.2908
G1 X144.675 Y93.102 E11.31695
G1 X145.545 Y94.677 E11.37679
G1 X145.887 Y95.388 E11.40304
G1 X146.571 Y97.043 E11.4626
G1 X146.827 Y97.776 E11.48842
G1 X147.324 Y99.498 E11.54803
G1 X147.5 Y100.265 E11.57421
G1 X147.801 Y102.034 E11.63389
G1 X147.889 Y102.818 E11.66013
G1 X147.989 Y104.612 E11.71989
G1 X147.989 Y105.392 E11.74583
G1 X147.889 Y107.183 E11.80549
G1 X147.801 Y107.965 E11.83167
G1 X147.501 Y109.731 E11.89125
G1 X147.326 Y110.498 E11.91741
G1 X146.829 Y112.222 E11.97709
G1 X146.569 Y112.965 E12.00327
G1 X145.881 Y114.624 E12.06301
G1 X145.544 Y115.323 E12.08882
G1 X144.678 Y116.893 E12.14845
G1 X144.258 Y117.563 E12.17475
G1 X143.22 Y119.026 E12.23441
G1 X142.73 Y119.641 E12.26057
G1 X141.532 Y120.981 E12.32035
G1 X140.974 Y121.537 E12.34655
G1 X139.634 Y122.733 E12.40629
G1 X139.026 Y123.218 E12.43216
G1 X137.566 Y124.255 E12.49172
G1 X136.892 Y124.679 E12.5182
G1 X135.317 Y125.547 E12.57802
G1 X134.62 Y125.882 E12.60374
G1 X132.966 Y126.568 E12.66329
G1 X132.226 Y126.827 E12.68937
G1 X130.505 Y127.324 E12.74895
G1 X129.731 Y127.501 E12.77536
G1 X127.959 Y127.801 E12.83513
G1 X127.184 Y127.888 E12.86107
G1 X125.39 Y127.989 E12.92084
G1 X124.602 Y127.989 E12.94705
G1 X122.815 Y127.888 E13.00658
G1 X122.042 Y127.801 E13.03245
G1 X120.27 Y127.501 E13.09222
G1 X119.497 Y127.325 E13.11859
G1 X117.771 Y126.827 E13.17834
G1 X117.027 Y126.566 E13.20456
G1 X115.373 Y125.879 E13.26413
G1 X114.678 Y125.544 E13.28979
G1 X113.109 Y124.679 E13.34938
G1 X112.434 Y124.255 E13.3759
G1 X110.968 Y123.213 E13.43572
G1 X110.36 Y122.728 E13.46159
G1 X109.023 Y121.534 E13.52121
G1 X108.467 Y120.978 E13.54736
G1 X107.271 Y119.64 E13.60705
G1 X106.779 Y119.022 E13.63332
G1 X105.743 Y117.56 E13.69292
G1 X105.328 Y116.901 E13.71882
G1 X104.457 Y115.326 E13.77868
G1 X104.115 Y114.616 E13.80489
G1 X103.429 Y112.959 E13.86454
G1 X103.17 Y112.218 E13.89065
G1 X102.674 Y110.496 E13.95025
G1 X102.5 Y109.729 E13.97641
G1 X102.2 Y107.96 E14.03609
G1 X102.112 Y107.185 E14.06203
G1 X102.011 Y105.396 E14.12163
G1 X102.011 Y104.607 E14.14787
G1 X102.112 Y102.816 E14.20753
G1 X102.2 Y102.04 E14.23351
G1 X102.5 Y100.271 E14.29319
G1 X102.674 Y99.505 E14.31931
G1 X103.171 Y97.778 E14.37908
G1 X103.434 Y97.028 E14.40552
G1 X104.122 Y95.372 E14.46516
G1 X104.457 Y94.677 E14.49082
G1 X105.323 Y93.107 E14.55046
G1 X105.744 Y92.436 E14.57681
G1 X106.784 Y90.971 E14.63656
G1 X107.273 Y90.358 E14.66264
G0 F3600 X107.571 Y90.625
G1 F1800 X108.767 Y89.287 E14.72233
G1 X109.293 Y88.761 E14.74707
G1 X110.633 Y87.565 E14.80681
G1 X111.206 Y87.108 E14.83119
G1 X112.666 Y86.071 E14.89075
G1 X113.295 Y85.676 E14.91545
G1 X114.869 Y84.806 E14.97527
G1 X115.541 Y84.482 E15.00008
G1 X117.196 Y83.798 E15.05965
G1 X117.886 Y83.557 E15.08395
G1 X119.607 Y83.06 E15.14353
G1 X120.336 Y82.894 E15.1684
G1 X122.108 Y82.594 E15.22818
G1 X122.838 Y82.511 E15.25261
G1 X124.628 Y82.41 E15.31224
G1 X125.371 Y82.41 E15.33696
G1 X127.165 Y82.511 E15.39672
G1 X127.898 Y82.594 E15.42125
G1 X129.667 Y82.894 E15.48093
G1 X130.392 Y83.06 E15.50567
G1 X132.115 Y83.557 E15.56531
G1 X132.815 Y83.802 E15.58998
G1 X134.471 Y84.489 E15.64961
G1 X135.132 Y84.807 E15.67401
G1 X136.704 Y85.675 E15.73373
G1 X137.334 Y86.071 E15.75848
G1 X138.795 Y87.108 E15.81807
G1 X139.372 Y87.568 E15.84262
G1 X140.712 Y88.765 E15.90238
G1 X141.236 Y89.289 E15.92702
G1 X142.431 Y90.626 E15.98667
G1 X142.893 Y91.205 E16.0113
G1 X143.931 Y92.668 E16.07097
G1 X144.325 Y93.296 E16.09562
G1 X145.195 Y94.871 E16.15547
G1 X145.518 Y95.541 E16.18021
G1 X146.202 Y97.196 E16.23977
G1 X146.443 Y97.887 E16.26411
G1 X146.94 Y99.609 E16.32372
G1 X147.105 Y100.332 E16.34839
G1 X147.406 Y102.101 E16.40807
G1 X147.49 Y102.841 E16.43284
G1 X147.59 Y104.635 E16.4926
G1 X147.59 Y105.37 E16.51705
G1 X147.49 Y107.161 E16.57671
G1 X147.407 Y107.898 E16.60138
G1 X147.107 Y109.664 E16.66096
G1 X146.942 Y110.387 E16.68562
G1 X146.445 Y112.111 E16.7453
G1 X146.2 Y112.811 E16.76996
G1 X145.512 Y114.47 E16.8297
G1 X145.194 Y115.13 E16.85407
G1 X144.328 Y116.7 E16.9137
G1 X143.932 Y117.331 E16.93848
G1 X142.894 Y118.794 E16.99814
G1 X142.431 Y119.374 E17.02283
G1 X141.233 Y120.714 E17.08261
G1 X140.708 Y121.239 E17.1073
G1 X139.368 Y122.435 E17.16704
G1 X138.795 Y122.892 E17.19142
G1 X137.335 Y123.929 E17.25098
G1 X136.699 Y124.328 E17.27595
G1 X135.124 Y125.196 E17.33577
G1 X134.467 Y125.512 E17.36001
G1 X132.813 Y126.198 E17.41957
G1 X132.115 Y126.443 E17.44418
G1 X130.394 Y126.94 E17.50376
G1 X129.665 Y127.106 E17.52862
G1 X127.893 Y127.406 E17.5884
G1 X127.162 Y127.489 E17.61287
G1 X125.368 Y127.59 E17.67263
G1 X124.625 Y127.589 E17.69734
G1 X122.838 Y127.488 E17.75687
G1 X122.108 Y127.406 E17.78131
G1 X120.336 Y127.106 E17.84108
G1 X119.608 Y126.94 E17.86592
G1 X117.882 Y126.442 E17.92567
G1 X117.18 Y126.196 E17.95041
G1 X115.526 Y125.509 E18.00998
G1 X114.872 Y125.194 E18.03412
G1 X113.303 Y124.329 E18.09371
G1 X112.665 Y123.929 E18.11875
G1 X111.199 Y122.887 E18.17858
G1 X110.627 Y122.43 E18.20293
G1 X109.29 Y121.236 E18.26255
G1 X108.765 Y120.711 E18.28724
G1 X107.569 Y119.373 E18.34693
G1 X107.105 Y118.791 E18.37169
G1 X106.069 Y117.329 E18.43128
G1 X105.678 Y116.707 E18.45572
G1 X104.807 Y115.132 E18.51558
G1 X104.485 Y114.463 E18.54028
G1 X103.799 Y112.806 E18.59992
G1 X103.555 Y112.108 E18.62452
G1 X103.059 Y110.386 E18.68412
G1 X102.894 Y109.663 E18.70879
G1 X102.594 Y107.894 E18.76846
G1 X102.511 Y107.162 E18.79297
G1 X102.41 Y105.373 E18.85256
G1 X102.41 Y104.629 E18.87731
G1 X102.511 Y102.838 E18.93697
G1 X102.594 Y102.106 E18.96147
G1 X102.894 Y100.337 E19.02115
G1 X103.058 Y99.616 E19.04574
G1 X103.555 Y97.889 E19.10552
G1 X103.803 Y97.182 E19.13044
G1 X104.491 Y95.526 E19.19008
G1 X104.807 Y94.87 E19.2143
G1 X105.673 Y93.3 E19.27393
G1 X106.07 Y92.667 E19.29878
G1 X107.11 Y91.202 E19.35854
G1 X107.571 Y90.625 E19.3831
G0 F3600 X107.87 Y90.891
G1 F1800 X109.066 Y89.553 E19.44279
G1 X109.56 Y89.059 E19.46603
G1 X110.9 Y87.863 E19.52577
G1 X111.438 Y87.434 E19.54865
G1 X112.898 Y86.397 E19.60822
G1 X113.489 Y86.026 E19.63143
G1 X115.063 Y85.156 E19.69124
G1 X115.694 Y84.852 E19.71454
G1 X117.349 Y84.168 E19.7741
G1 X117.997 Y83.941 E19.79694
G1 X119.718 Y83.444 E19.85652
G1 X120.403 Y83.288 E19.87988
G1 X122.175 Y82.988 E19.93966
G1 X122.861 Y82.911 E19.96262
G1 X124.651 Y82.81 E20.02225
G1 X125.349 Y82.81 E20.04546
G1 X127.143 Y82.911 E20.10523
G1 X127.831 Y82.988 E20.12825
G1 X129.6 Y83.288 E20.18793
G1 X130.281 Y83.444 E20.21117
G1 X132.004 Y83.941 E20.27081
G1 X132.662 Y84.171 E20.29399
G1 X134.318 Y84.858 E20.35362
G1 X134.939 Y85.157 E20.37655
G1 X136.511 Y86.025 E20.43627
G1 X137.103 Y86.397 E20.45953
G1 X138.564 Y87.434 E20.51912
G1 X139.105 Y87.866 E20.54215
G1 X140.445 Y89.063 E20.60191
G1 X140.938 Y89.555 E20.62507
G1 X142.133 Y90.892 E20.68471
G1 X142.567 Y91.436 E20.70786
G1 X143.605 Y92.899 E20.76752
G1 X143.975 Y93.489 E20.79069
G1 X144.845 Y95.064 E20.85053
G1 X145.148 Y95.694 E20.87378
G1 X145.832 Y97.349 E20.93334
G1 X146.059 Y97.998 E20.95621
G1 X146.556 Y99.72 E21.01582
G1 X146.711 Y100.399 E21.03899
G1 X147.012 Y102.168 E21.09867
G1 X147.09 Y102.863 E21.12193
G1 X147.19 Y104.657 E21.18169
G1 X147.19 Y105.348 E21.20468
G1 X147.09 Y107.139 E21.26434
G1 X147.012 Y107.831 E21.2875
G1 X146.712 Y109.597 E21.34708
G1 X146.557 Y110.276 E21.37024
G1 X146.06 Y112 E21.42992
G1 X145.83 Y112.658 E21.4531
G1 X145.142 Y114.317 E21.51284
G1 X144.844 Y114.937 E21.53572
G1 X143.978 Y116.507 E21.59535
G1 X143.606 Y117.1 E21.61864
G1 X142.568 Y118.563 E21.6783
G1 X142.133 Y119.107 E21.70147
G1 X140.935 Y120.447 E21.76125
G1 X140.441 Y120.941 E21.78449
