;FLAVOR:Marlin
;TIME:3236
;Filament used: 2.44013m
;Layer height: 0.2
;MINX:100.2
;MINY:73.17
;MINZ:0.2
;MAXX:149.8
;MAXY:136.83
;MAXZ:52
;Generated with Cura_SteamEngine 5.2.1
M82 ;absolute extrusion mode
G21 ; set units to millimeters
G90 ; use absolute positioning
M82 ; absolute extrusion mode
M104 S228 ; set extruder temp
M140 S0 ; set bed temp
M190 S0 ; wait for bed temp
M109 S228 ; wait for extruder temp
G28 W ; home all without mesh bed level
G80 ; mesh bed leveling
G92 E0.0 ; reset extruder distance position
G1 Y-3.0 F1000.0 ; go outside print area
G1 X60.0 E9.0 F1000.0 ; intro line
G1 X100.0 E21.5 F1000.0 ; intro line
G92 E0.0 ; reset extruder distance position
G92 E0
G92 E0
G1 F2100 E-0.8
;LAYER_COUNT:260
;LAYER:0
M107
G0 F3600 X102.08 Y86.922 Z0.2
;TYPE:SKIRT
G1 F2100 E0
G1 F1800 X102.623 Y86.349 E0.02626
G1 X103.222 Y85.834 E0.05253
G1 X103.87 Y85.383 E0.07879
G1 X104.561 Y84.999 E0.10508
G1 X105.286 Y84.687 E0.13133
G1 X106.039 Y84.45 E0.15759
G1 X106.813 Y84.291 E0.18387
G1 X107.695 Y84.2 E0.21336
G1 X112.703 Y84.2 E0.37993
G1 X112.703 Y83.612 E0.39949
G1 X112.782 Y82.826 E0.42576
G1 X112.965 Y81.931 E0.45614
G1 X113.454 Y80.419 E0.509
G1 X113.734 Y79.68 E0.53528
G1 X114.088 Y78.974 E0.56155
G1 X114.512 Y78.308 E0.58781
G1 X115.001 Y77.688 E0.61407
G1 X115.549 Y77.12 E0.64032
G1 X116.283 Y76.514 E0.67198
G1 X118.822 Y74.665 E0.77645
G1 X119.483 Y74.233 E0.80271
G1 X120.185 Y73.87 E0.829
G1 X120.919 Y73.58 E0.85525
G1 X121.679 Y73.365 E0.88152
G1 X122.457 Y73.229 E0.90779
G1 X123.414 Y73.17 E0.93968
G1 X126.552 Y73.17 E1.04405
G1 X127.341 Y73.21 E1.07032
G1 X128.121 Y73.329 E1.09657
G1 X128.886 Y73.527 E1.12285
G1 X129.626 Y73.801 E1.14909
G1 X130.335 Y74.149 E1.17536
G1 X131.144 Y74.665 E1.20728
G1 X133.683 Y76.514 E1.31174
G1 X134.297 Y77.01 E1.338
G1 X134.857 Y77.566 E1.36424
G1 X135.359 Y78.176 E1.39052
G1 X135.796 Y78.834 E1.41679
G1 X136.165 Y79.532 E1.44305
G1 X136.507 Y80.401 E1.47411
G1 X136.892 Y81.582 E1.51543
G1 X137.098 Y82.345 E1.54171
G1 X137.227 Y83.124 E1.56798
G1 X137.276 Y83.912 E1.59424
G1 X137.264 Y84.2 E1.60382
G1 X142 Y84.2 E1.76134
G1 X142.789 Y84.24 E1.78762
G1 X143.569 Y84.359 E1.81386
G1 X144.334 Y84.557 E1.84014
G1 X145.074 Y84.831 E1.86639
G1 X145.783 Y85.179 E1.89266
G1 X146.454 Y85.597 E1.91895
G1 X147.078 Y86.08 E1.9452
G1 X147.651 Y86.623 E1.97145
G1 X148.166 Y87.222 E1.99773
G1 X148.617 Y87.87 E2.02399
G1 X149.001 Y88.561 E2.05028
G1 X149.313 Y89.286 E2.07653
G1 X149.55 Y90.039 E2.10279
G1 X149.709 Y90.813 E2.12907
G1 X149.8 Y91.695 E2.15856
G1 X149.8 Y118 E3.03347
G1 X149.76 Y118.789 E3.05974
G1 X149.641 Y119.569 E3.08599
G1 X149.443 Y120.334 E3.11227
G1 X149.169 Y121.074 E3.13851
G1 X148.821 Y121.783 E3.16478
G1 X148.403 Y122.454 E3.19108
G1 X147.92 Y123.078 E3.21732
G1 X147.377 Y123.651 E3.24358
G1 X146.778 Y124.166 E3.26985
G1 X146.13 Y124.617 E3.29611
G1 X145.439 Y125.001 E3.3224
G1 X144.714 Y125.313 E3.34866
G1 X143.961 Y125.55 E3.37491
G1 X143.187 Y125.709 E3.40119
G1 X142.305 Y125.8 E3.43068
G1 X137.144 Y125.8 E3.60234
G1 X137.144 Y126.388 E3.6219
G1 X137.065 Y127.174 E3.64817
G1 X136.879 Y128.083 E3.67903
G1 X136.385 Y129.599 E3.73206
G1 X136.102 Y130.336 E3.75832
G1 X135.747 Y131.041 E3.78457
G1 X135.322 Y131.707 E3.81085
G1 X134.832 Y132.326 E3.83711
G1 X134.281 Y132.892 E3.86338
G1 X133.561 Y133.486 E3.89443
G1 X131.022 Y135.335 E3.99889
G1 X130.361 Y135.767 E4.02516
G1 X129.659 Y136.13 E4.05144
G1 X128.925 Y136.42 E4.07769
G1 X128.165 Y136.635 E4.10396
G1 X127.387 Y136.771 E4.13023
G1 X126.43 Y136.83 E4.16212
G1 X123.292 Y136.83 E4.26649
G1 X122.503 Y136.79 E4.29277
G1 X121.723 Y136.671 E4.31901
G1 X120.958 Y136.473 E4.34529
G1 X120.218 Y136.199 E4.37154
G1 X119.509 Y135.851 E4.39781
G1 X118.7 Y135.335 E4.42972
G1 X116.161 Y133.486 E4.53419
G1 X115.547 Y132.99 E4.56044
G1 X114.987 Y132.434 E4.58669
G1 X114.485 Y131.824 E4.61296
G1 X114.048 Y131.166 E4.63924
G1 X113.679 Y130.468 E4.6655
G1 X113.332 Y129.581 E4.69717
G1 X112.95 Y128.4 E4.73846
G1 X112.745 Y127.638 E4.7647
G1 X112.618 Y126.858 E4.79099
G1 X112.571 Y126.07 E4.81724
G1 X112.582 Y125.8 E4.82623
G1 X108 Y125.8 E4.97863
G1 X107.211 Y125.76 E5.00491
G1 X106.431 Y125.641 E5.03115
G1 X105.666 Y125.443 E5.05743
G1 X104.926 Y125.169 E5.08368
G1 X104.217 Y124.821 E5.10994
G1 X103.546 Y124.403 E5.13624
G1 X102.922 Y123.92 E5.16248
G1 X102.349 Y123.377 E5.18874
G1 X101.834 Y122.778 E5.21501
G1 X101.383 Y122.13 E5.24127
G1 X100.999 Y121.439 E5.26757
G1 X100.687 Y120.714 E5.29382
G1 X100.45 Y119.961 E5.32007
G1 X100.291 Y119.187 E5.34635
G1 X100.2 Y118.305 E5.37585
G1 X100.2 Y92 E6.25075
G1 X100.24 Y91.211 E6.27703
G1 X100.359 Y90.431 E6.30327
G1 X100.557 Y89.666 E6.32956
G1 X100.831 Y88.926 E6.3558
G1 X101.179 Y88.217 E6.38207
G1 X101.597 Y87.546 E6.40836
G1 X102.08 Y86.922 E6.43461
G0 F3600 X102.475 Y87.077
G1 F1800 X103.016 Y86.53 E6.4602
G1 X103.611 Y86.042 E6.48579
G1 X104.253 Y85.619 E6.51136
G1 X104.936 Y85.264 E6.53696
G1 X105.651 Y84.983 E6.56252
G1 X106.393 Y84.777 E6.58813
G1 X107.151 Y84.649 E6.6137
G1 X108 Y84.6 E6.64198
G1 X113.126 Y84.6 E6.81247
G1 X113.093 Y84.081 E6.82977
G1 X113.125 Y83.313 E6.85534
G1 X113.236 Y82.552 E6.88091
G1 X113.452 Y81.723 E6.90941
G1 X113.834 Y80.542 E6.95069
G1 X114.109 Y79.823 E6.9763
G1 X114.456 Y79.137 E7.00186
G1 X114.873 Y78.491 E7.02744
G1 X115.355 Y77.891 E7.05304
G1 X115.896 Y77.345 E7.0786
G1 X116.519 Y76.837 E7.10534
G1 X119.058 Y74.988 E7.2098
G1 X119.702 Y74.568 E7.23538
G1 X120.387 Y74.218 E7.26096
G1 X121.104 Y73.94 E7.28654
G1 X121.846 Y73.738 E7.31212
G1 X122.605 Y73.614 E7.3377
G1 X123.414 Y73.57 E7.36464
G1 X126.552 Y73.57 E7.46901
G1 X127.32 Y73.61 E7.49459
G1 X128.08 Y73.729 E7.52018
G1 X128.823 Y73.927 E7.54575
G1 X129.542 Y74.201 E7.57134
G1 X130.228 Y74.548 E7.59691
G1 X130.908 Y74.988 E7.62385
G1 X133.447 Y76.837 E7.72832
G1 X134.045 Y77.322 E7.75393
G1 X134.589 Y77.865 E7.77949
G1 X135.073 Y78.463 E7.80508
G1 X135.493 Y79.107 E7.83065
G1 X135.844 Y79.792 E7.85625
G1 X136.127 Y80.525 E7.88239
G1 X136.512 Y81.706 E7.9237
G1 X136.712 Y82.449 E7.94929
G1 X136.834 Y83.209 E7.97489
G1 X136.876 Y83.977 E8.00048
G1 X136.845 Y84.6 E8.02122
G1 X142 Y84.6 E8.19268
G1 X142.768 Y84.64 E8.21826
G1 X143.528 Y84.759 E8.24384
G1 X144.271 Y84.957 E8.26942
G1 X144.99 Y85.231 E8.29501
G1 X145.676 Y85.578 E8.32058
G1 X146.323 Y85.994 E8.34616
G1 X146.923 Y86.475 E8.37174
G1 X147.47 Y87.016 E8.39733
G1 X147.958 Y87.611 E8.42292
G1 X148.381 Y88.253 E8.44849
G1 X148.736 Y88.936 E8.47409
G1 X149.017 Y89.651 E8.49965
G1 X149.223 Y90.393 E8.52526
G1 X149.351 Y91.151 E8.55083
G1 X149.4 Y92 E8.57911
G1 X149.4 Y118 E9.44388
G1 X149.36 Y118.768 E9.46945
G1 X149.241 Y119.528 E9.49504
G1 X149.043 Y120.271 E9.52061
G1 X148.769 Y120.99 E9.54621
G1 X148.422 Y121.676 E9.57178
G1 X148.006 Y122.323 E9.59736
G1 X147.525 Y122.923 E9.62294
G1 X146.984 Y123.47 E9.64852
G1 X146.389 Y123.958 E9.67412
G1 X145.747 Y124.381 E9.69969
G1 X145.064 Y124.736 E9.72529
G1 X144.349 Y125.017 E9.75084
G1 X143.607 Y125.223 E9.77646
G1 X142.849 Y125.351 E9.80202
G1 X142 Y125.4 E9.83031
G1 X136.721 Y125.4 E10.00589
G1 X136.754 Y125.919 E10.02319
G1 X136.722 Y126.687 E10.04875
G1 X136.611 Y127.448 E10.07433
G1 X136.39 Y128.294 E10.10341
G1 X136.005 Y129.475 E10.14473
G1 X135.729 Y130.192 E10.17028
G1 X135.379 Y130.878 E10.1959
G1 X134.961 Y131.523 E10.22146
G1 X134.478 Y132.122 E10.24705
G1 X133.935 Y132.667 E10.27264
G1 X133.325 Y133.163 E10.29879
G1 X130.786 Y135.012 E10.40326
G1 X130.142 Y135.432 E10.42883
G1 X129.457 Y135.782 E10.45441
G1 X128.74 Y136.06 E10.47999
G1 X127.998 Y136.262 E10.50557
G1 X127.239 Y136.386 E10.53115
G1 X126.43 Y136.43 E10.5581
G1 X123.292 Y136.43 E10.66247
G1 X122.524 Y136.39 E10.68804
G1 X121.764 Y136.271 E10.71363
G1 X121.021 Y136.073 E10.7392
G1 X120.302 Y135.799 E10.7648
G1 X119.616 Y135.452 E10.79037
G1 X118.936 Y135.012 E10.8173
G1 X116.397 Y133.163 E10.92177
G1 X115.799 Y132.678 E10.94738
G1 X115.255 Y132.135 E10.97294
G1 X114.771 Y131.537 E10.99853
G1 X114.351 Y130.893 E11.0241
G1 X114 Y130.208 E11.0497
G1 X113.712 Y129.458 E11.07643
G1 X113.33 Y128.277 E11.11771
G1 X113.132 Y127.534 E11.14328
G1 X113.012 Y126.775 E11.16884
G1 X112.971 Y126.006 E11.19446
G1 X113.002 Y125.4 E11.21464
G1 X108 Y125.4 E11.381
G1 X107.232 Y125.36 E11.40658
G1 X106.472 Y125.241 E11.43217
G1 X105.729 Y125.043 E11.45774
G1 X105.01 Y124.769 E11.48334
G1 X104.324 Y124.422 E11.5089
G1 X103.677 Y124.006 E11.53449
G1 X103.077 Y123.525 E11.56007
G1 X102.53 Y122.984 E11.58565
G1 X102.042 Y122.389 E11.61125
G1 X101.619 Y121.747 E11.63682
G1 X101.264 Y121.064 E11.66242
G1 X100.983 Y120.349 E11.68797
G1 X100.777 Y119.607 E11.71359
G1 X100.649 Y118.849 E11.73915
G1 X100.6 Y118 E11.76744
G1 X100.6 Y92 E12.6322
G1 X100.64 Y91.232 E12.65778
G1 X100.759 Y90.472 E12.68337
G1 X100.957 Y89.729 E12.70894
G1 X101.231 Y89.01 E12.73453
G1 X101.578 Y88.324 E12.7601
G1 X101.994 Y87.677 E12.78569
G1 X102.475 Y87.077 E12.81126
G0 F3600 X102.871 Y87.237
G1 F1800 X103.408 Y86.716 E12.83615
G1 X103.998 Y86.257 E12.86101
G1 X104.634 Y85.862 E12.88591
G1 X105.308 Y85.538 E12.91078
G1 X106.013 Y85.288 E12.93566
G1 X106.741 Y85.114 E12.96056
G1 X107.483 Y85.019 E12.98544
G1 X108 Y85 E13.00265
G1 X113.574 Y85 E13.18804
G1 X113.512 Y84.517 E13.20423
G1 X113.497 Y83.769 E13.22912
G1 X113.561 Y83.024 E13.25399
G1 X113.729 Y82.167 E13.28303
G1 X114.215 Y80.665 E13.33554
G1 X114.483 Y79.966 E13.36044
G1 X114.824 Y79.3 E13.38533
G1 X115.234 Y78.675 E13.41019
G1 X115.708 Y78.096 E13.43508
G1 X116.242 Y77.572 E13.45996
G1 X116.754 Y77.16 E13.48182
G1 X119.293 Y75.311 E13.58628
G1 X119.921 Y74.904 E13.61117
G1 X120.588 Y74.566 E13.63605
G1 X121.287 Y74.301 E13.66091
G1 X122.011 Y74.112 E13.6858
G1 X122.751 Y74.001 E13.71068
G1 X123.414 Y73.97 E13.73276
G1 X126.552 Y73.97 E13.83713
G1 X127.299 Y74.01 E13.86201
G1 X128.037 Y74.129 E13.88687
G1 X128.759 Y74.327 E13.91177
G1 X129.455 Y74.6 E13.93664
G1 X130.118 Y74.947 E13.96153
G1 X130.673 Y75.311 E13.9836
G1 X133.212 Y77.16 E14.08807
G1 X133.792 Y77.633 E14.11296
G1 X134.319 Y78.164 E14.13785
G1 X134.786 Y78.748 E14.16272
G1 X135.188 Y79.379 E14.1876
G1 X135.52 Y80.049 E14.21247
G1 X135.746 Y80.649 E14.2338
G1 X136.131 Y81.83 E14.27511
G1 X136.325 Y82.553 E14.30001
G1 X136.44 Y83.292 E14.32488
G1 X136.476 Y84.039 E14.34976
G1 X136.419 Y85 E14.38178
G1 X142 Y85 E14.5674
G1 X142.747 Y85.04 E14.59228
G1 X143.485 Y85.159 E14.61715
G1 X144.207 Y85.357 E14.64205
G1 X144.903 Y85.63 E14.66691
G1 X145.566 Y85.977 E14.6918
G1 X146.189 Y86.392 E14.7167
G1 X146.763 Y86.871 E14.74157
G1 X147.284 Y87.408 E14.76645
G1 X147.743 Y87.998 E14.79131
G1 X148.138 Y88.634 E14.81621
G1 X148.462 Y89.308 E14.84109
G1 X148.712 Y90.013 E14.86597
G1 X148.886 Y90.741 E14.89086
G1 X148.981 Y91.483 E14.91574
G1 X149 Y92 E14.93295
G1 X149 Y118 E15.79771
G1 X148.96 Y118.747 E15.82259
G1 X148.841 Y119.485 E15.84746
G1 X148.643 Y120.207 E15.87236
G1 X148.37 Y120.903 E15.89722
G1 X148.023 Y121.566 E15.92211
G1 X147.608 Y122.189 E15.94701
G1 X147.129 Y122.763 E15.97188
G1 X146.592 Y123.284 E15.99676
G1 X146.002 Y123.743 E16.02162
G1 X145.366 Y124.138 E16.04652
G1 X144.692 Y124.462 E16.0714
G1 X143.987 Y124.712 E16.09628
G1 X143.259 Y124.886 E16.12117
G1 X142.517 Y124.981 E16.14605
G1 X142 Y125 E16.16326
G1 X136.273 Y125 E16.35374
G1 X136.335 Y125.483 E16.36994
G1 X136.35 Y126.231 E16.39482
G1 X136.286 Y126.976 E16.41969
G1 X136.116 Y127.841 E16.44901
G1 X135.624 Y129.351 E16.50183
G1 X135.355 Y130.048 E16.52668
G1 X135.012 Y130.713 E16.55157
G1 X134.601 Y131.338 E16.57645
G1 X134.125 Y131.915 E16.60133
G1 X133.59 Y132.439 E16.62623
G1 X133.09 Y132.84 E16.64755
G1 X130.551 Y134.689 E16.75202
G1 X129.923 Y135.096 E16.77691
G1 X129.256 Y135.434 E16.80178
G1 X128.557 Y135.699 E16.82664
G1 X127.833 Y135.888 E16.85153
G1 X127.093 Y135.999 E16.87642
G1 X126.43 Y136.03 E16.89849
G1 X123.292 Y136.03 E17.00286
G1 X122.545 Y135.99 E17.02774
G1 X121.807 Y135.871 E17.05261
G1 X121.085 Y135.673 E17.07751
G1 X120.389 Y135.4 E17.10237
G1 X119.726 Y135.053 E17.12726
G1 X119.171 Y134.689 E17.14934
G1 X116.632 Y132.84 E17.25381
G1 X116.052 Y132.367 E17.2787
G1 X115.525 Y131.836 E17.30358
G1 X115.058 Y131.252 E17.32845
G1 X114.656 Y130.621 E17.35334
G1 X114.324 Y129.951 E17.37821
G1 X114.093 Y129.335 E17.40009
G1 X113.711 Y128.154 E17.44137
G1 X113.519 Y127.431 E17.46625
G1 X113.405 Y126.692 E17.49112
G1 X113.371 Y125.945 E17.51599
G1 X113.429 Y125 E17.54748
G1 X108 Y125 E17.72805
G1 X107.253 Y124.96 E17.75293
G1 X106.515 Y124.841 E17.7778
G1 X105.793 Y124.643 E17.8027
G1 X105.097 Y124.37 E17.82756
G1 X104.434 Y124.023 E17.85245
G1 X103.811 Y123.608 E17.87735
G1 X103.237 Y123.129 E17.90221
G1 X102.716 Y122.592 E17.9271
G1 X102.257 Y122.002 E17.95196
G1 X101.862 Y121.366 E17.97686
G1 X101.538 Y120.692 E18.00174
G1 X101.288 Y119.987 E18.02662
G1 X101.114 Y119.259 E18.05151
G1 X101.019 Y118.517 E18.07639
G1 X101 Y118 E18.0936
G1 X101 Y92 E18.95836
G1 X101.04 Y91.253 E18.98324
G1 X101.159 Y90.515 E19.00811
G1 X101.357 Y89.793 E19.03301
G1 X101.63 Y89.097 E19.05787
G1 X101.977 Y88.434 E19.08276
G1 X102.392 Y87.811 E19.10766
G1 X102.871 Y87.237 E19.13252
G0 F3600 X103.265 Y87.402
G1 F1800 X103.799 Y86.909 E19.1567
G1 X104.384 Y86.479 E19.18085
G1 X105.013 Y86.115 E19.20502
G1 X105.678 Y85.822 E19.22919
G1 X106.371 Y85.604 E19.25335
G1 X107.083 Y85.464 E19.27748
G1 X108 Y85.4 E19.30806
G1 X114.052 Y85.4 E19.50935
G1 X113.957 Y84.917 E19.52572
G1 X113.896 Y84.193 E19.54989
G1 X113.915 Y83.467 E19.57404
G1 X114.013 Y82.747 E19.59821
G1 X114.213 Y81.969 E19.62493
G1 X114.595 Y80.788 E19.66621
G1 X114.857 Y80.11 E19.69039
G1 X115.191 Y79.465 E19.71455
G1 X115.594 Y78.861 E19.7387
G1 X116.061 Y78.304 E19.76287
G1 X116.586 Y77.803 E19.78701
G1 X116.99 Y77.484 E19.80413
G1 X119.529 Y75.635 E19.9086
G1 X120.138 Y75.24 E19.93274
G1 X120.788 Y74.915 E19.95691
G1 X121.469 Y74.663 E19.98106
G1 X122.174 Y74.488 E20.00522
G1 X122.894 Y74.391 E20.02938
G1 X123.414 Y74.37 E20.04669
G1 X126.552 Y74.37 E20.15106
G1 X127.277 Y74.41 E20.17521
G1 X127.994 Y74.529 E20.19939
G1 X128.693 Y74.727 E20.22355
G1 X129.366 Y75 E20.24771
G1 X130.005 Y75.345 E20.27186
G1 X130.437 Y75.635 E20.28917
G1 X132.976 Y77.484 E20.39363
G1 X133.539 Y77.943 E20.41779
G1 X134.048 Y78.461 E20.44195
G1 X134.497 Y79.032 E20.46611
G1 X134.88 Y79.649 E20.49026
G1 X135.258 Y80.44 E20.51942
G1 X135.751 Y81.954 E20.57238
G1 X135.938 Y82.656 E20.59654
G1 X136.046 Y83.375 E20.62072
G1 X136.075 Y84.1 E20.64486
G1 X136.024 Y84.825 E20.66903
G1 X135.919 Y85.4 E20.68847
G1 X142 Y85.4 E20.89072
G1 X142.725 Y85.44 E20.91487
G1 X143.442 Y85.559 E20.93905
G1 X144.141 Y85.757 E20.96321
G1 X144.814 Y86.03 E20.98737
G1 X145.453 Y86.375 E21.01152
G1 X146.05 Y86.789 E21.03568
G1 X146.598 Y87.265 E21.05983
G1 X147.091 Y87.799 E21.084
G1 X147.521 Y88.384 E21.10815
G1 X147.885 Y89.013 E21.13232
G1 X148.178 Y89.678 E21.15649
G1 X148.396 Y90.371 E21.18065
G1 X148.536 Y91.083 E21.20479
G1 X148.6 Y92 E21.23536
G1 X148.6 Y118 E22.10012
G1 X148.56 Y118.725 E22.12427
G1 X148.441 Y119.442 E22.14845
G1 X148.243 Y120.141 E22.17261
G1 X147.97 Y120.814 E22.19677
G1 X147.625 Y121.453 E22.22092
G1 X147.211 Y122.05 E22.24508
G1 X146.735 Y122.598 E22.26923
G1 X146.201 Y123.091 E22.2934
G1 X145.616 Y123.521 E22.31755
G1 X144.987 Y123.885 E22.34172
G1 X144.322 Y124.178 E22.36589
G1 X143.629 Y124.396 E22.39005
G1 X142.917 Y124.536 E22.41418
G1 X142 Y124.6 E22.44476
G1 X135.795 Y124.6 E22.65114
G1 X135.89 Y125.083 E22.66751
G1 X135.951 Y125.807 E22.69168
G1 X135.932 Y126.533 E22.71583
G1 X135.834 Y127.253 E22.74
G1 X135.629 Y128.046 E22.76724
G1 X135.244 Y129.227 E22.80856
G1 X134.981 Y129.904 E22.83271
G1 X134.646 Y130.548 E22.85686
G1 X134.241 Y131.151 E22.88102
G1 X133.773 Y131.707 E22.90519
G1 X133.144 Y132.304 E22.93403
G1 X130.315 Y134.365 E23.05045
G1 X129.706 Y134.76 E23.07459
G1 X129.056 Y135.085 E23.09876
G1 X128.375 Y135.337 E23.12291
G1 X127.67 Y135.512 E23.14707
G1 X126.95 Y135.609 E23.17123
G1 X126.43 Y135.63 E23.18854
G1 X123.292 Y135.63 E23.29291
G1 X122.567 Y135.59 E23.31706
