;FLAVOR:Marlin
;TIME:2734
;Filament used: 1.9273m
;Layer height: 0.2
;MINX:84.208
;MINY:69.252
;MINZ:0.2
;MAXX:165.792
;MAXY:140.756
;MAXZ:16.8
;Generated with Cura_SteamEngine 5.2.1
M82 ;absolute extrusion mode
G21 ; set units to millimeters
G90 ; use absolute positioning
M82 ; absolute extrusion mode
M104 S228 ; set extruder temp
M140 S0 ; set bed temp
M190 S0 ; wait for bed temp
M109 S228 ; wait for extruder temp
G28 W ; home all without mesh bed level
G80 ; mesh bed leveling
G92 E0.0 ; reset extruder distance position
G1 Y-3.0 F1000.0 ; go outside print area
G1 X60.0 E9.0 F1000.0 ; intro line
G1 X100.0 E21.5 F1000.0 ; intro line
G92 E0.0 ; reset extruder distance position
G92 E0
G92 E0
G1 F2100 E-0.8
;LAYER_COUNT:84
;LAYER:0
M107
G0 F3600 X101.763 Y74.033 Z0.2
;TYPE:SKIRT
G1 F2100 E0
G1 F1800 X102.345 Y73.383 E0.02902
G1 X103.339 Y72.389 E0.07577
G1 X103.925 Y71.859 E0.10205
G1 X104.561 Y71.392 E0.1283
G1 X105.315 Y70.953 E0.15732
G1 X106.57 Y70.314 E0.20416
G1 X107.291 Y69.992 E0.23042
G1 X108.041 Y69.744 E0.25669
G1 X108.885 Y69.562 E0.28541
G1 X110.276 Y69.341 E0.33226
G1 X111.061 Y69.256 E0.35852
G1 X111.851 Y69.252 E0.38479
G1 X112.724 Y69.341 E0.41398
G1 X114.115 Y69.562 E0.46082
G1 X114.888 Y69.725 E0.4871
G1 X115.64 Y69.965 E0.51335
G1 X116.43 Y70.314 E0.54208
G1 X117.685 Y70.953 E0.58892
G1 X118.37 Y71.347 E0.6152
G1 X119.011 Y71.807 E0.64145
G1 X119.661 Y72.389 E0.67046
G1 X120.655 Y73.383 E0.71722
G1 X121.185 Y73.969 E0.7435
G1 X121.652 Y74.605 E0.76974
G1 X122.091 Y75.359 E0.79876
G1 X122.73 Y76.614 E0.8456
G1 X123.052 Y77.335 E0.87187
G1 X123.3 Y78.085 E0.89814
G1 X123.482 Y78.929 E0.92686
G1 X123.692 Y80.249 E0.97131
G1 X126.309 Y80.245 E1.05835
G1 X126.518 Y78.929 E1.10267
G1 X126.681 Y78.156 E1.12895
G1 X126.921 Y77.404 E1.1552
G1 X127.27 Y76.614 E1.18393
G1 X127.909 Y75.359 E1.23077
G1 X128.303 Y74.674 E1.25705
G1 X128.763 Y74.033 E1.28329
G1 X129.345 Y73.383 E1.31231
G1 X130.339 Y72.389 E1.35907
G1 X130.925 Y71.859 E1.38535
G1 X131.561 Y71.392 E1.41159
G1 X132.315 Y70.953 E1.44061
G1 X133.57 Y70.314 E1.48745
G1 X134.291 Y69.992 E1.51371
G1 X135.041 Y69.744 E1.53999
G1 X135.885 Y69.562 E1.5687
G1 X137.276 Y69.341 E1.61555
G1 X138.061 Y69.256 E1.64181
G1 X138.851 Y69.252 E1.66809
G1 X139.724 Y69.341 E1.69727
G1 X141.115 Y69.562 E1.74412
G1 X141.888 Y69.725 E1.77039
G1 X142.64 Y69.965 E1.79665
G1 X143.43 Y70.314 E1.82537
G1 X144.685 Y70.953 E1.87221
G1 X145.37 Y71.347 E1.8985
G1 X146.011 Y71.807 E1.92474
G1 X146.661 Y72.389 E1.95376
G1 X147.655 Y73.383 E2.00051
G1 X148.185 Y73.969 E2.02679
G1 X148.652 Y74.605 E2.05303
G1 X149.091 Y75.359 E2.08205
G1 X149.73 Y76.614 E2.12889
G1 X150.052 Y77.335 E2.15516
G1 X150.3 Y78.085 E2.18143
G1 X150.482 Y78.929 E2.21015
G1 X150.703 Y80.32 E2.25699
G1 X150.788 Y81.105 E2.28325
G1 X150.8 Y82.483 E2.32909
G1 X152.93 Y84.613 E2.42928
G1 X153.46 Y85.199 E2.45556
G1 X153.927 Y85.835 E2.4818
G1 X154.328 Y86.515 E2.50806
G1 X154.658 Y87.233 E2.53434
G1 X154.913 Y87.98 E2.56059
G1 X155.092 Y88.749 E2.58685
G1 X155.144 Y89.156 E2.6005
G1 X156.115 Y89.31 E2.6332
G1 X156.888 Y89.473 E2.65948
G1 X157.64 Y89.713 E2.68573
G1 X158.43 Y90.062 E2.71446
G1 X159.685 Y90.701 E2.7613
G1 X160.37 Y91.095 E2.78758
G1 X161.011 Y91.555 E2.81382
G1 X161.661 Y92.137 E2.84284
G1 X162.655 Y93.131 E2.88959
G1 X163.185 Y93.717 E2.91587
G1 X163.652 Y94.353 E2.94212
G1 X164.091 Y95.107 E2.97114
G1 X164.73 Y96.362 E3.01798
G1 X165.052 Y97.083 E3.04424
G1 X165.3 Y97.833 E3.07051
G1 X165.482 Y98.677 E3.09923
G1 X165.703 Y100.068 E3.14608
G1 X165.788 Y100.853 E3.17234
G1 X165.792 Y101.643 E3.19861
G1 X165.703 Y102.516 E3.2278
G1 X165.482 Y103.907 E3.27465
G1 X165.319 Y104.68 E3.30092
G1 X165.079 Y105.432 E3.32718
G1 X164.73 Y106.222 E3.3559
G1 X164.091 Y107.477 E3.40274
G1 X163.697 Y108.162 E3.42902
G1 X163.237 Y108.803 E3.45527
G1 X162.655 Y109.453 E3.48428
G1 X161.661 Y110.447 E3.53104
G1 X161.075 Y110.977 E3.55732
G1 X160.439 Y111.444 E3.58356
G1 X159.685 Y111.883 E3.61258
G1 X158.43 Y112.522 E3.65942
G1 X157.709 Y112.844 E3.68569
G1 X156.959 Y113.092 E3.71196
G1 X156.115 Y113.274 E3.74068
G1 X155.215 Y113.417 E3.77099
G1 X155.215 Y130.956 E4.35434
G1 X155.175 Y131.745 E4.38061
G1 X155.056 Y132.525 E4.40685
G1 X154.858 Y133.29 E4.43314
G1 X154.584 Y134.03 E4.45938
G1 X154.236 Y134.739 E4.48565
G1 X153.818 Y135.41 E4.51194
G1 X153.335 Y136.034 E4.53819
G1 X152.93 Y136.471 E4.55801
G1 X150.93 Y138.471 E4.65208
G1 X150.344 Y139.001 E4.67836
G1 X149.708 Y139.468 E4.7046
G1 X149.028 Y139.869 E4.73086
G1 X148.31 Y140.199 E4.75714
G1 X147.563 Y140.454 E4.7834
G1 X146.794 Y140.633 E4.80966
G1 X146.01 Y140.733 E4.83594
G1 X145.415 Y140.756 E4.85575
G1 X104.585 Y140.756 E6.21376
G1 X103.796 Y140.716 E6.24004
G1 X103.016 Y140.597 E6.26628
G1 X102.251 Y140.399 E6.29256
G1 X101.511 Y140.125 E6.31881
G1 X100.802 Y139.777 E6.34508
G1 X100.131 Y139.359 E6.37137
G1 X99.507 Y138.876 E6.39761
G1 X99.07 Y138.471 E6.41743
G1 X97.07 Y136.471 E6.51151
G1 X96.54 Y135.885 E6.53778
G1 X96.073 Y135.249 E6.56403
G1 X95.672 Y134.569 E6.59029
G1 X95.342 Y133.851 E6.61657
G1 X95.087 Y133.104 E6.64282
G1 X94.908 Y132.335 E6.66908
G1 X94.808 Y131.551 E6.69537
G1 X94.785 Y130.956 E6.71517
G1 X94.785 Y113.417 E7.29852
G1 X93.885 Y113.274 E7.32883
G1 X93.112 Y113.111 E7.35511
G1 X92.36 Y112.871 E7.38136
G1 X91.57 Y112.522 E7.41009
G1 X90.315 Y111.883 E7.45693
G1 X89.63 Y111.489 E7.48321
G1 X88.989 Y111.029 E7.50945
G1 X88.339 Y110.447 E7.53847
G1 X87.345 Y109.453 E7.58523
G1 X86.815 Y108.867 E7.61151
G1 X86.348 Y108.231 E7.63775
G1 X85.909 Y107.477 E7.66677
G1 X85.27 Y106.222 E7.71361
G1 X84.948 Y105.501 E7.73987
G1 X84.7 Y104.751 E7.76615
G1 X84.518 Y103.907 E7.79486
G1 X84.297 Y102.516 E7.84171
G1 X84.212 Y101.731 E7.86797
G1 X84.208 Y100.941 E7.89425
G1 X84.297 Y100.068 E7.92343
G1 X84.518 Y98.677 E7.97028
G1 X84.681 Y97.904 E7.99655
G1 X84.921 Y97.152 E8.02281
G1 X85.27 Y96.362 E8.05153
G1 X85.909 Y95.107 E8.09837
G1 X86.303 Y94.422 E8.12466
G1 X86.763 Y93.781 E8.1509
G1 X87.345 Y93.131 E8.17992
G1 X88.339 Y92.137 E8.22667
G1 X88.925 Y91.607 E8.25295
G1 X89.561 Y91.14 E8.27919
G1 X90.315 Y90.701 E8.30821
G1 X91.57 Y90.062 E8.35505
G1 X92.291 Y89.74 E8.38132
G1 X93.041 Y89.492 E8.40759
G1 X93.885 Y89.31 E8.43631
G1 X94.853 Y89.156 E8.46891
G1 X94.944 Y88.559 E8.48899
G1 X95.142 Y87.794 E8.51528
G1 X95.416 Y87.054 E8.54152
G1 X95.764 Y86.345 E8.56779
G1 X96.182 Y85.674 E8.59409
G1 X96.665 Y85.05 E8.62033
G1 X97.07 Y84.613 E8.64015
G1 X99.2 Y82.483 E8.74034
G1 X99.211 Y81.833 E8.76196
G1 X99.209 Y81.171 E8.78398
G1 X99.297 Y80.32 E8.81243
G1 X99.518 Y78.929 E8.85928
G1 X99.681 Y78.156 E8.88555
G1 X99.921 Y77.404 E8.91181
G1 X100.27 Y76.614 E8.94053
G1 X100.909 Y75.359 E8.98737
G1 X101.303 Y74.674 E9.01366
G1 X101.763 Y74.033 E9.0399
G0 F3600 X102.101 Y74.251
G1 F1800 X102.627 Y73.665 E9.06609
G1 X103.621 Y72.671 E9.11284
G1 X104.193 Y72.157 E9.13842
G1 X104.815 Y71.704 E9.16401
G1 X105.496 Y71.31 E9.19018
G1 X106.751 Y70.671 E9.23702
G1 X107.454 Y70.358 E9.26262
G1 X108.185 Y70.119 E9.2882
G1 X108.948 Y69.957 E9.31414
G1 X110.339 Y69.736 E9.36098
G1 X111.104 Y69.655 E9.38657
G1 X111.873 Y69.653 E9.41215
G1 X112.661 Y69.736 E9.4385
G1 X114.052 Y69.957 E9.48535
G1 X114.804 Y70.117 E9.51092
G1 X115.536 Y70.354 E9.53651
G1 X116.249 Y70.671 E9.56246
G1 X117.504 Y71.31 E9.6093
G1 X118.17 Y71.694 E9.63487
G1 X118.793 Y72.145 E9.66045
G1 X119.379 Y72.671 E9.68664
G1 X120.373 Y73.665 E9.7334
G1 X120.887 Y74.237 E9.75898
G1 X121.34 Y74.859 E9.78457
G1 X121.734 Y75.54 E9.81074
G1 X122.373 Y76.795 E9.85758
G1 X122.686 Y77.498 E9.88317
G1 X122.925 Y78.229 E9.90875
G1 X123.087 Y78.992 E9.93469
G1 X123.354 Y80.673 E9.99131
G1 X123.838 Y80.645 E10.00743
G1 X126.162 Y80.645 E10.08473
G1 X126.646 Y80.67 E10.10085
G1 X126.913 Y78.992 E10.15736
G1 X127.073 Y78.24 E10.18293
G1 X127.31 Y77.508 E10.20852
G1 X127.627 Y76.795 E10.23447
G1 X128.266 Y75.54 E10.28131
G1 X128.65 Y74.874 E10.30688
G1 X129.101 Y74.251 E10.33246
G1 X129.627 Y73.665 E10.35865
G1 X130.621 Y72.671 E10.40541
G1 X131.193 Y72.157 E10.43099
G1 X131.815 Y71.704 E10.45658
G1 X132.496 Y71.31 E10.48275
G1 X133.751 Y70.671 E10.52959
G1 X134.454 Y70.358 E10.55518
G1 X135.185 Y70.119 E10.58076
G1 X135.948 Y69.957 E10.60671
G1 X137.339 Y69.736 E10.65355
G1 X138.104 Y69.655 E10.67914
G1 X138.873 Y69.653 E10.70471
G1 X139.661 Y69.736 E10.73107
G1 X141.052 Y69.957 E10.77791
G1 X141.804 Y70.117 E10.80349
G1 X142.536 Y70.354 E10.82908
G1 X143.249 Y70.671 E10.85503
G1 X144.504 Y71.31 E10.90187
G1 X145.17 Y71.694 E10.92744
G1 X145.793 Y72.145 E10.95302
G1 X146.379 Y72.671 E10.97921
G1 X147.373 Y73.665 E11.02596
G1 X147.887 Y74.237 E11.05154
G1 X148.34 Y74.859 E11.07713
G1 X148.734 Y75.54 E11.1033
G1 X149.373 Y76.795 E11.15014
G1 X149.686 Y77.498 E11.17574
G1 X149.925 Y78.229 E11.20132
G1 X150.087 Y78.992 E11.22726
G1 X150.308 Y80.383 E11.27411
G1 X150.389 Y81.148 E11.29969
G1 X150.391 Y81.887 E11.32427
G1 X150.4 Y82.044 E11.3295
G1 X150.4 Y82.647 E11.34956
G1 X152.648 Y84.895 E11.4553
G1 X153.162 Y85.467 E11.48087
G1 X153.615 Y86.089 E11.50647
G1 X154.001 Y86.754 E11.53204
G1 X154.316 Y87.456 E11.55763
G1 X154.556 Y88.187 E11.58322
G1 X154.719 Y88.938 E11.60878
G1 X154.781 Y89.503 E11.62769
G1 X156.052 Y89.705 E11.67049
G1 X156.804 Y89.865 E11.69606
G1 X157.536 Y90.102 E11.72165
G1 X158.249 Y90.419 E11.74761
G1 X159.504 Y91.058 E11.79445
G1 X160.17 Y91.442 E11.82002
G1 X160.793 Y91.893 E11.8456
G1 X161.379 Y92.419 E11.87179
G1 X162.373 Y93.413 E11.91854
G1 X162.887 Y93.985 E11.94412
G1 X163.34 Y94.607 E11.96971
G1 X163.734 Y95.288 E11.99588
G1 X164.373 Y96.543 E12.04272
G1 X164.686 Y97.246 E12.06832
G1 X164.925 Y97.977 E12.0939
G1 X165.087 Y98.74 E12.11984
G1 X165.308 Y100.131 E12.16668
G1 X165.389 Y100.896 E12.19227
G1 X165.391 Y101.665 E12.21785
G1 X165.308 Y102.453 E12.2442
G1 X165.087 Y103.844 E12.29105
G1 X164.927 Y104.596 E12.31662
G1 X164.69 Y105.328 E12.34221
G1 X164.373 Y106.041 E12.36816
G1 X163.734 Y107.296 E12.415
G1 X163.35 Y107.962 E12.44057
G1 X162.899 Y108.585 E12.46615
G1 X162.373 Y109.171 E12.49234
G1 X161.379 Y110.165 E12.5391
G1 X160.807 Y110.679 E12.56468
G1 X160.185 Y111.132 E12.59027
G1 X159.504 Y111.526 E12.61644
G1 X158.249 Y112.165 E12.66328
G1 X157.546 Y112.478 E12.68887
G1 X156.815 Y112.717 E12.71445
G1 X156.052 Y112.879 E12.74039
G1 X154.815 Y113.076 E12.78206
G1 X154.815 Y130.956 E13.37675
G1 X154.775 Y131.724 E13.40233
G1 X154.656 Y132.484 E13.42791
G1 X154.458 Y133.227 E13.45349
G1 X154.184 Y133.946 E13.47908
G1 X153.837 Y134.632 E13.50465
G1 X153.421 Y135.279 E13.53023
G1 X152.867 Y135.97 E13.55969
G1 X150.648 Y138.189 E13.66406
G1 X150.076 Y138.703 E13.68964
G1 X149.454 Y139.156 E13.71523
G1 X148.789 Y139.542 E13.74081
G1 X148.087 Y139.857 E13.7664
G1 X147.356 Y140.097 E13.79199
G1 X146.605 Y140.26 E13.81755
G1 X145.731 Y140.356 E13.84679
G1 X104.585 Y140.356 E15.21531
G1 X103.817 Y140.316 E15.24089
G1 X103.057 Y140.197 E15.26648
G1 X102.314 Y139.999 E15.29205
G1 X101.595 Y139.725 E15.31764
G1 X100.909 Y139.378 E15.34321
G1 X100.262 Y138.962 E15.3688
G1 X99.571 Y138.408 E15.39825
G1 X97.352 Y136.189 E15.50263
G1 X96.838 Y135.617 E15.52821
G1 X96.385 Y134.995 E15.5538
G1 X95.999 Y134.33 E15.57937
G1 X95.684 Y133.628 E15.60497
G1 X95.444 Y132.897 E15.63056
G1 X95.281 Y132.146 E15.65612
G1 X95.185 Y131.272 E15.68536
G1 X95.185 Y113.076 E16.29056
G1 X93.948 Y112.879 E16.33222
G1 X93.196 Y112.719 E16.35779
G1 X92.464 Y112.482 E16.38338
G1 X91.751 Y112.165 E16.40934
G1 X90.496 Y111.526 E16.45618
G1 X89.83 Y111.142 E16.48175
G1 X89.207 Y110.691 E16.50733
G1 X88.621 Y110.165 E16.53352
G1 X87.627 Y109.171 E16.58027
G1 X87.113 Y108.599 E16.60585
G1 X86.66 Y107.977 E16.63144
G1 X86.266 Y107.296 E16.65761
G1 X85.627 Y106.041 E16.70445
G1 X85.314 Y105.338 E16.73005
G1 X85.075 Y104.607 E16.75563
G1 X84.913 Y103.844 E16.78157
G1 X84.692 Y102.453 E16.82841
G1 X84.611 Y101.688 E16.854
G1 X84.609 Y100.919 E16.87958
G1 X84.692 Y100.131 E16.90593
G1 X84.913 Y98.74 E16.95278
G1 X85.073 Y97.988 E16.97835
G1 X85.31 Y97.256 E17.00394
G1 X85.627 Y96.543 E17.02989
G1 X86.266 Y95.288 E17.07673
G1 X86.65 Y94.622 E17.1023
G1 X87.101 Y93.999 E17.12788
G1 X87.627 Y93.413 E17.15407
G1 X88.621 Y92.419 E17.20083
G1 X89.193 Y91.905 E17.22641
G1 X89.815 Y91.452 E17.252
G1 X90.496 Y91.058 E17.27817
G1 X91.751 Y90.419 E17.32501
G1 X92.454 Y90.106 E17.3506
G1 X93.185 Y89.867 E17.37618
G1 X93.948 Y89.705 E17.40212
G1 X95.202 Y89.506 E17.44435
G1 X95.344 Y88.6 E17.47486
G1 X95.542 Y87.857 E17.50043
G1 X95.816 Y87.138 E17.52602
G1 X96.163 Y86.452 E17.55159
G1 X96.579 Y85.805 E17.57718
G1 X97.133 Y85.114 E17.60663
G1 X99.6 Y82.647 E17.72267
G1 X99.6 Y82.044 E17.74273
G1 X99.61 Y81.852 E17.74912
G1 X99.61 Y81.15 E17.77247
G1 X99.692 Y80.383 E17.79813
G1 X99.913 Y78.992 E17.84497
G1 X100.073 Y78.24 E17.87054
G1 X100.31 Y77.508 E17.89614
G1 X100.627 Y76.795 E17.92209
G1 X101.266 Y75.54 E17.96893
G1 X101.65 Y74.874 E17.9945
G1 X102.101 Y74.251 E18.02008
G0 F3600 X102.438 Y74.47
G1 F1800 X102.91 Y73.948 E18.04349
G1 X103.904 Y72.954 E18.09024
G1 X104.461 Y72.454 E18.11514
G1 X105.067 Y72.017 E18.13999
G1 X105.678 Y71.666 E18.16342
G1 X106.933 Y71.027 E18.21026
G1 X107.617 Y70.724 E18.23514
G1 X108.329 Y70.495 E18.26002
G1 X109.011 Y70.352 E18.2832
G1 X110.402 Y70.131 E18.33004
G1 X111.146 Y70.053 E18.35492
G1 X111.894 Y70.055 E18.3798
G1 X112.598 Y70.131 E18.40335
G1 X113.989 Y70.352 E18.4502
G1 X114.721 Y70.508 E18.47509
G1 X115.431 Y70.742 E18.49996
G1 X116.067 Y71.027 E18.52314
G1 X117.322 Y71.666 E18.56998
G1 X117.97 Y72.041 E18.59488
G1 X118.574 Y72.482 E18.61975
G1 X119.096 Y72.954 E18.64316
G1 X120.09 Y73.948 E18.68991
G1 X120.59 Y74.505 E18.71481
G1 X121.027 Y75.111 E18.73966
G1 X121.378 Y75.722 E18.7631
G1 X122.017 Y76.977 E18.80994
G1 X122.32 Y77.661 E18.83482
G1 X122.549 Y78.373 E18.85969
G1 X122.692 Y79.055 E18.88287
G1 X122.913 Y80.446 E18.92972
G1 X122.982 Y81.107 E18.95182
G1 X123.321 Y81.064 E18.96319
G1 X123.838 Y81.045 E18.98039
G1 X126.162 Y81.045 E19.05769
G1 X127.016 Y81.091 E19.08613
G1 X127.087 Y80.446 E19.10772
G1 X127.308 Y79.055 E19.15456
G1 X127.464 Y78.323 E19.17946
G1 X127.698 Y77.613 E19.20432
G1 X127.983 Y76.977 E19.2275
G1 X128.622 Y75.722 E19.27434
G1 X128.997 Y75.074 E19.29924
G1 X129.438 Y74.47 E19.32412
G1 X129.91 Y73.948 E19.34752
G1 X130.904 Y72.954 E19.39428
G1 X131.461 Y72.454 E19.41917
G1 X132.067 Y72.017 E19.44402
G1 X132.678 Y71.666 E19.46746
G1 X133.933 Y71.027 E19.5143
G1 X134.617 Y70.724 E19.53918
G1 X135.329 Y70.495 E19.56406
G1 X136.011 Y70.352 E19.58723
G1 X137.402 Y70.131 E19.63408
G1 X138.146 Y70.053 E19.65896
G1 X138.894 Y70.055 E19.68384
G1 X139.598 Y70.131 E19.70739
G1 X140.989 Y70.352 E19.75424
G1 X141.721 Y70.508 E19.77913
G1 X142.431 Y70.742 E19.80399
G1 X143.067 Y71.027 E19.82717
G1 X144.322 Y71.666 E19.87401
G1 X144.97 Y72.041 E19.89891
G1 X145.574 Y72.482 E19.92379
G1 X146.096 Y72.954 E19.9472
G1 X147.09 Y73.948 E19.99395
G1 X147.59 Y74.505 E20.01885
G1 X148.027 Y75.111 E20.0437
G1 X148.378 Y75.722 E20.06713
G1 X149.017 Y76.977 E20.11397
G1 X149.32 Y77.661 E20.13885
G1 X149.549 Y78.373 E20.16373
G1 X149.692 Y79.055 E20.18691
G1 X149.913 Y80.446 E20.23375
G1 X149.991 Y81.19 E20.25863
G1 X149.989 Y81.758 E20.27753
G1 X150 Y82.044 E20.28704
G1 X150 Y82.862 E20.31425
G1 X150.365 Y83.178 E20.33031
G1 X152.365 Y85.178 E20.42438
G1 X152.865 Y85.735 E20.44928
G1 X153.302 Y86.341 E20.47413
G1 X153.673 Y86.991 E20.49902
G1 X153.972 Y87.677 E20.52391
G1 X154.196 Y88.391 E20.5488
G1 X154.343 Y89.124 E20.57366
G1 X154.395 Y89.847 E20.59777
G1 X155.989 Y90.1 E20.65145
G1 X156.721 Y90.256 E20.67635
G1 X157.431 Y90.49 E20.70121
G1 X158.067 Y90.775 E20.72439
G1 X159.322 Y91.414 E20.77123
G1 X159.97 Y91.789 E20.79613
G1 X160.574 Y92.23 E20.82101
G1 X161.096 Y92.702 E20.84441
G1 X162.09 Y93.696 E20.89117
G1 X162.59 Y94.253 E20.91606
G1 X163.027 Y94.859 E20.94091
G1 X163.378 Y95.47 E20.96435
G1 X164.017 Y96.725 E21.01119
G1 X164.32 Y97.409 E21.03607
G1 X164.549 Y98.121 E21.06095
G1 X164.692 Y98.803 E21.08413
G1 X164.913 Y100.194 E21.13097
