;FLAVOR:Marlin
;TIME:2492
;Filament used: 1.84519m
;Layer height: 0.2
;MINX:84.208
;MINY:69.208
;MINZ:0.2
;MAXX:165.792
;MAXY:140.712
;MAXZ:20
;Generated with Cura_SteamEngine 5.2.1
M82 ;absolute extrusion mode
G21 ; set units to millimeters
G90 ; use absolute positioning
M82 ; absolute extrusion mode
M104 S228 ; set extruder temp
M140 S0 ; set bed temp
M190 S0 ; wait for bed temp
M109 S228 ; wait for extruder temp
G28 W ; home all without mesh bed level
G80 ; mesh bed leveling
G92 E0.0 ; reset extruder distance position
G1 Y-3.0 F1000.0 ; go outside print area
G1 X60.0 E9.0 F1000.0 ; intro line
G1 X100.0 E21.5 F1000.0 ; intro line
G92 E0.0 ; reset extruder distance position
G92 E0
G92 E0
G1 F2100 E-0.8
;LAYER_COUNT:100
;LAYER:0
M107
G0 F3600 X97.763 Y73.989 Z0.2
;TYPE:SKIRT
G1 F2100 E0
G1 F1800 X98.345 Y73.339 E0.02902
G1 X99.339 Y72.345 E0.07577
G1 X99.925 Y71.815 E0.10205
G1 X100.561 Y71.348 E0.1283
G1 X101.315 Y70.909 E0.15732
G1 X102.57 Y70.27 E0.20416
G1 X103.291 Y69.948 E0.23042
G1 X104.041 Y69.7 E0.25669
G1 X104.885 Y69.518 E0.28541
G1 X106.276 Y69.297 E0.33226
G1 X107.061 Y69.212 E0.35852
G1 X107.851 Y69.208 E0.38479
G1 X108.724 Y69.297 E0.41398
G1 X110.115 Y69.518 E0.46082
G1 X110.888 Y69.681 E0.4871
G1 X111.64 Y69.921 E0.51335
G1 X112.43 Y70.27 E0.54208
G1 X113.685 Y70.909 E0.58892
G1 X114.37 Y71.303 E0.6152
G1 X115.011 Y71.763 E0.64145
G1 X115.661 Y72.345 E0.67046
G1 X116.655 Y73.339 E0.71722
G1 X117.185 Y73.925 E0.7435
G1 X117.652 Y74.561 E0.76974
G1 X118.091 Y75.315 E0.79876
G1 X118.73 Y76.57 E0.8456
G1 X119.052 Y77.291 E0.87187
G1 X119.3 Y78.041 E0.89814
G1 X119.482 Y78.885 E0.92686
G1 X119.704 Y80.284 E0.97397
G1 X122.729 Y80.284 E1.07458
G1 X123.533 Y80.201 E1.10146
G1 X126.162 Y80.201 E1.1889
G1 X126.951 Y80.241 E1.21518
G1 X127.233 Y80.284 E1.22467
G1 X130.296 Y80.284 E1.32654
G1 X130.518 Y78.885 E1.37366
G1 X130.681 Y78.112 E1.39993
G1 X130.921 Y77.36 E1.42619
G1 X131.27 Y76.57 E1.45491
G1 X131.909 Y75.315 E1.50175
G1 X132.303 Y74.63 E1.52804
G1 X132.763 Y73.989 E1.55428
G1 X133.345 Y73.339 E1.5833
G1 X134.339 Y72.345 E1.63005
G1 X134.925 Y71.815 E1.65633
G1 X135.561 Y71.348 E1.68257
G1 X136.315 Y70.909 E1.71159
G1 X137.57 Y70.27 E1.75843
G1 X138.291 Y69.948 E1.7847
G1 X139.041 Y69.7 E1.81097
G1 X139.885 Y69.518 E1.83969
G1 X141.276 Y69.297 E1.88653
G1 X142.061 Y69.212 E1.9128
G1 X142.851 Y69.208 E1.93907
G1 X143.724 Y69.297 E1.96826
G1 X145.115 Y69.518 E2.0151
G1 X145.888 Y69.681 E2.04138
G1 X146.64 Y69.921 E2.06763
G1 X147.43 Y70.27 E2.09636
G1 X148.685 Y70.909 E2.1432
G1 X149.37 Y71.303 E2.16948
G1 X150.011 Y71.763 E2.19572
G1 X150.661 Y72.345 E2.22474
G1 X151.655 Y73.339 E2.2715
G1 X152.185 Y73.925 E2.29778
G1 X152.652 Y74.561 E2.32402
G1 X153.091 Y75.315 E2.35304
G1 X153.73 Y76.57 E2.39988
G1 X154.052 Y77.291 E2.42614
G1 X154.3 Y78.041 E2.45242
G1 X154.482 Y78.885 E2.48113
G1 X154.703 Y80.276 E2.52798
G1 X154.788 Y81.061 E2.55424
G1 X154.8 Y82 E2.58547
G1 X154.8 Y87.605 E2.7719
G1 X154.913 Y87.936 E2.78353
G1 X155.092 Y88.705 E2.80979
G1 X155.144 Y89.112 E2.82344
G1 X156.115 Y89.266 E2.85614
G1 X156.888 Y89.429 E2.88241
G1 X157.64 Y89.669 E2.90867
G1 X158.43 Y90.018 E2.93739
G1 X159.685 Y90.657 E2.98423
G1 X160.37 Y91.051 E3.01052
G1 X161.011 Y91.511 E3.03676
G1 X161.661 Y92.093 E3.06578
G1 X162.655 Y93.087 E3.11253
G1 X163.185 Y93.673 E3.13881
G1 X163.652 Y94.309 E3.16505
G1 X164.091 Y95.063 E3.19407
G1 X164.73 Y96.318 E3.24091
G1 X165.052 Y97.039 E3.26718
G1 X165.3 Y97.789 E3.29345
G1 X165.482 Y98.633 E3.32217
G1 X165.703 Y100.024 E3.36901
G1 X165.788 Y100.809 E3.39527
G1 X165.792 Y101.599 E3.42155
G1 X165.703 Y102.472 E3.45074
G1 X165.482 Y103.863 E3.49758
G1 X165.319 Y104.636 E3.52386
G1 X165.079 Y105.388 E3.55011
G1 X164.73 Y106.178 E3.57884
G1 X164.091 Y107.433 E3.62568
G1 X163.697 Y108.118 E3.65196
G1 X163.237 Y108.759 E3.6782
G1 X162.655 Y109.409 E3.70722
G1 X161.661 Y110.403 E3.75398
G1 X161.075 Y110.933 E3.78026
G1 X160.439 Y111.4 E3.8065
G1 X159.685 Y111.839 E3.83552
G1 X158.43 Y112.478 E3.88236
G1 X157.709 Y112.8 E3.90862
G1 X156.959 Y113.048 E3.9349
G1 X156.115 Y113.23 E3.96361
G1 X155.215 Y113.373 E3.99392
G1 X155.215 Y130.912 E4.57727
G1 X155.175 Y131.701 E4.60355
G1 X155.056 Y132.481 E4.62979
G1 X154.858 Y133.246 E4.65607
G1 X154.584 Y133.986 E4.68232
G1 X154.236 Y134.695 E4.70859
G1 X153.818 Y135.366 E4.73488
G1 X153.335 Y135.99 E4.76113
G1 X152.93 Y136.427 E4.78094
G1 X150.93 Y138.427 E4.87502
G1 X150.344 Y138.957 E4.9013
G1 X149.708 Y139.424 E4.92754
G1 X149.028 Y139.825 E4.9538
G1 X148.31 Y140.155 E4.98008
G1 X147.563 Y140.41 E5.00633
G1 X146.794 Y140.589 E5.03259
G1 X146.01 Y140.689 E5.05888
G1 X145.415 Y140.712 E5.07869
G1 X104.585 Y140.712 E6.4367
G1 X103.796 Y140.672 E6.46297
G1 X103.016 Y140.553 E6.48922
G1 X102.251 Y140.355 E6.5155
G1 X101.511 Y140.081 E6.54174
G1 X100.802 Y139.733 E6.56801
G1 X100.131 Y139.315 E6.59431
G1 X99.507 Y138.832 E6.62055
G1 X99.07 Y138.427 E6.64037
G1 X97.07 Y136.427 E6.73444
G1 X96.54 Y135.841 E6.76072
G1 X96.073 Y135.205 E6.78697
G1 X95.672 Y134.525 E6.81322
G1 X95.342 Y133.807 E6.8395
G1 X95.087 Y133.06 E6.86576
G1 X94.908 Y132.291 E6.89202
G1 X94.808 Y131.507 E6.91831
G1 X94.785 Y130.912 E6.93811
G1 X94.785 Y113.373 E7.52146
G1 X93.885 Y113.23 E7.55177
G1 X93.112 Y113.067 E7.57804
G1 X92.36 Y112.827 E7.6043
G1 X91.57 Y112.478 E7.63302
G1 X90.315 Y111.839 E7.67987
G1 X89.63 Y111.445 E7.70615
G1 X88.989 Y110.985 E7.73239
G1 X88.339 Y110.403 E7.76141
G1 X87.345 Y109.409 E7.80816
G1 X86.815 Y108.823 E7.83444
G1 X86.348 Y108.187 E7.86069
G1 X85.909 Y107.433 E7.88971
G1 X85.27 Y106.178 E7.93655
G1 X84.948 Y105.457 E7.96281
G1 X84.7 Y104.707 E7.98908
G1 X84.518 Y103.863 E8.0178
G1 X84.297 Y102.472 E8.06465
G1 X84.212 Y101.687 E8.09091
G1 X84.208 Y100.897 E8.11718
G1 X84.297 Y100.024 E8.14637
G1 X84.518 Y98.633 E8.19321
G1 X84.681 Y97.86 E8.21949
G1 X84.921 Y97.108 E8.24574
G1 X85.27 Y96.318 E8.27447
G1 X85.909 Y95.063 E8.32131
G1 X86.303 Y94.378 E8.34759
G1 X86.763 Y93.737 E8.37384
G1 X87.345 Y93.087 E8.40285
G1 X88.339 Y92.093 E8.44961
G1 X88.925 Y91.563 E8.47589
G1 X89.561 Y91.096 E8.50213
G1 X90.315 Y90.657 E8.53115
G1 X91.57 Y90.018 E8.57799
G1 X92.291 Y89.696 E8.60426
G1 X93.041 Y89.448 E8.63053
G1 X93.885 Y89.266 E8.65925
G1 X94.853 Y89.112 E8.69185
G1 X94.944 Y88.515 E8.71193
G1 X95.142 Y87.75 E8.73821
G1 X95.2 Y87.593 E8.74378
G1 X95.2 Y82 E8.92981
G1 X95.211 Y81.789 E8.93683
G1 X95.209 Y81.127 E8.95885
G1 X95.297 Y80.276 E8.98731
G1 X95.518 Y78.885 E9.03415
G1 X95.681 Y78.112 E9.06043
G1 X95.921 Y77.36 E9.08668
G1 X96.27 Y76.57 E9.11541
G1 X96.909 Y75.315 E9.16225
G1 X97.303 Y74.63 E9.18853
G1 X97.763 Y73.989 E9.21477
G0 F3600 X98.101 Y74.207
G1 F1800 X98.627 Y73.621 E9.24096
G1 X99.621 Y72.627 E9.28772
G1 X100.193 Y72.113 E9.31329
G1 X100.815 Y71.66 E9.33889
G1 X101.496 Y71.266 E9.36506
G1 X102.751 Y70.627 E9.4119
G1 X103.454 Y70.314 E9.43749
G1 X104.185 Y70.075 E9.46307
G1 X104.948 Y69.913 E9.48901
G1 X106.339 Y69.692 E9.53586
G1 X107.104 Y69.611 E9.56144
G1 X107.873 Y69.609 E9.58702
G1 X108.661 Y69.692 E9.61338
G1 X110.052 Y69.913 E9.66022
G1 X110.804 Y70.073 E9.68579
G1 X111.536 Y70.31 E9.71138
G1 X112.249 Y70.627 E9.73734
G1 X113.504 Y71.266 E9.78418
G1 X114.17 Y71.65 E9.80975
G1 X114.793 Y72.101 E9.83533
G1 X115.379 Y72.627 E9.86152
G1 X116.373 Y73.621 E9.90827
G1 X116.887 Y74.193 E9.93385
G1 X117.34 Y74.815 E9.95944
G1 X117.734 Y75.496 E9.98561
G1 X118.373 Y76.751 E10.03245
G1 X118.686 Y77.454 E10.05805
G1 X118.925 Y78.185 E10.08363
G1 X119.087 Y78.948 E10.10957
G1 X119.363 Y80.684 E10.16803
G1 X122.788 Y80.684 E10.28195
G1 X122.989 Y80.65 E10.28873
G1 X123.838 Y80.601 E10.31701
G1 X126.162 Y80.601 E10.39431
G1 X126.93 Y80.641 E10.41989
G1 X127.205 Y80.684 E10.42915
G1 X130.637 Y80.684 E10.5433
G1 X130.913 Y78.948 E10.60176
G1 X131.073 Y78.196 E10.62733
G1 X131.31 Y77.464 E10.65292
G1 X131.627 Y76.751 E10.67888
G1 X132.266 Y75.496 E10.72572
G1 X132.65 Y74.83 E10.75129
G1 X133.101 Y74.207 E10.77687
G1 X133.627 Y73.621 E10.80306
G1 X134.621 Y72.627 E10.84981
G1 X135.193 Y72.113 E10.87539
G1 X135.815 Y71.66 E10.90098
G1 X136.496 Y71.266 E10.92715
G1 X137.751 Y70.627 E10.97399
G1 X138.454 Y70.314 E10.99959
G1 X139.185 Y70.075 E11.02516
G1 X139.948 Y69.913 E11.05111
G1 X141.339 Y69.692 E11.09795
G1 X142.104 Y69.611 E11.12354
G1 X142.873 Y69.609 E11.14912
G1 X143.661 Y69.692 E11.17547
G1 X145.052 Y69.913 E11.22232
G1 X145.804 Y70.073 E11.24789
G1 X146.536 Y70.31 E11.27348
G1 X147.249 Y70.627 E11.29943
G1 X148.504 Y71.266 E11.34627
G1 X149.17 Y71.65 E11.37184
G1 X149.793 Y72.101 E11.39742
G1 X150.379 Y72.627 E11.42361
G1 X151.373 Y73.621 E11.47037
G1 X151.887 Y74.193 E11.49594
G1 X152.34 Y74.815 E11.52154
G1 X152.734 Y75.496 E11.5477
G1 X153.373 Y76.751 E11.59455
G1 X153.686 Y77.454 E11.62014
G1 X153.925 Y78.185 E11.64572
G1 X154.087 Y78.948 E11.67166
G1 X154.308 Y80.339 E11.71851
G1 X154.389 Y81.104 E11.74409
G1 X154.391 Y81.843 E11.76867
G1 X154.4 Y82 E11.7739
G1 X154.4 Y87.668 E11.96242
G1 X154.556 Y88.143 E11.97905
G1 X154.719 Y88.894 E12.00461
G1 X154.781 Y89.459 E12.02352
G1 X156.052 Y89.661 E12.06632
G1 X156.804 Y89.821 E12.09189
G1 X157.536 Y90.058 E12.11748
G1 X158.249 Y90.375 E12.14344
G1 X159.504 Y91.014 E12.19028
G1 X160.17 Y91.398 E12.21585
G1 X160.793 Y91.849 E12.24143
G1 X161.379 Y92.375 E12.26762
G1 X162.373 Y93.369 E12.31437
G1 X162.887 Y93.941 E12.33995
G1 X163.34 Y94.563 E12.36554
G1 X163.734 Y95.244 E12.39171
G1 X164.373 Y96.499 E12.43855
G1 X164.686 Y97.202 E12.46414
G1 X164.925 Y97.933 E12.48972
G1 X165.087 Y98.696 E12.51567
G1 X165.308 Y100.087 E12.56251
G1 X165.389 Y100.852 E12.5881
G1 X165.391 Y101.621 E12.61368
G1 X165.308 Y102.409 E12.64003
G1 X165.087 Y103.8 E12.68688
G1 X164.927 Y104.552 E12.71245
G1 X164.69 Y105.284 E12.73804
G1 X164.373 Y105.997 E12.76399
G1 X163.734 Y107.252 E12.81083
G1 X163.35 Y107.918 E12.8364
G1 X162.899 Y108.541 E12.86198
G1 X162.373 Y109.127 E12.88817
G1 X161.379 Y110.121 E12.93493
G1 X160.807 Y110.635 E12.9605
G1 X160.185 Y111.088 E12.9861
G1 X159.504 Y111.482 E13.01226
G1 X158.249 Y112.121 E13.05911
G1 X157.546 Y112.434 E13.0847
G1 X156.815 Y112.673 E13.11028
G1 X156.052 Y112.835 E13.13622
G1 X154.815 Y113.032 E13.17788
G1 X154.815 Y130.912 E13.77258
G1 X154.775 Y131.68 E13.79815
G1 X154.656 Y132.44 E13.82374
G1 X154.458 Y133.183 E13.84931
G1 X154.184 Y133.902 E13.87491
G1 X153.837 Y134.588 E13.90047
G1 X153.421 Y135.235 E13.92606
G1 X152.867 Y135.926 E13.95552
G1 X150.648 Y138.145 E14.05989
G1 X150.076 Y138.659 E14.08547
G1 X149.454 Y139.112 E14.11106
G1 X148.789 Y139.498 E14.13664
G1 X148.087 Y139.813 E14.16223
G1 X147.356 Y140.053 E14.18782
G1 X146.605 Y140.216 E14.21338
G1 X145.731 Y140.312 E14.24262
G1 X104.585 Y140.312 E15.61114
G1 X103.817 Y140.272 E15.63672
G1 X103.057 Y140.153 E15.66231
G1 X102.314 Y139.955 E15.68788
G1 X101.595 Y139.681 E15.71347
G1 X100.909 Y139.334 E15.73904
G1 X100.262 Y138.918 E15.76463
G1 X99.571 Y138.364 E15.79408
G1 X97.352 Y136.145 E15.89846
G1 X96.838 Y135.573 E15.92404
G1 X96.385 Y134.951 E15.94963
G1 X95.999 Y134.286 E15.9752
G1 X95.684 Y133.584 E16.00079
G1 X95.444 Y132.853 E16.02638
G1 X95.281 Y132.102 E16.05194
G1 X95.185 Y131.228 E16.08119
G1 X95.185 Y113.032 E16.68639
G1 X93.948 Y112.835 E16.72805
G1 X93.196 Y112.675 E16.75362
G1 X92.464 Y112.438 E16.77921
G1 X91.751 Y112.121 E16.80517
G1 X90.496 Y111.482 E16.85201
G1 X89.83 Y111.098 E16.87758
G1 X89.207 Y110.647 E16.90316
G1 X88.621 Y110.121 E16.92935
G1 X87.627 Y109.127 E16.9761
G1 X87.113 Y108.555 E17.00168
G1 X86.66 Y107.933 E17.02727
G1 X86.266 Y107.252 E17.05344
G1 X85.627 Y105.997 E17.10028
G1 X85.314 Y105.294 E17.12588
G1 X85.075 Y104.563 E17.15145
G1 X84.913 Y103.8 E17.1774
G1 X84.692 Y102.409 E17.22424
G1 X84.611 Y101.644 E17.24983
G1 X84.609 Y100.875 E17.27541
G1 X84.692 Y100.087 E17.30176
G1 X84.913 Y98.696 E17.34861
G1 X85.073 Y97.944 E17.37418
G1 X85.31 Y97.212 E17.39977
G1 X85.627 Y96.499 E17.42572
G1 X86.266 Y95.244 E17.47256
G1 X86.65 Y94.578 E17.49813
G1 X87.101 Y93.955 E17.52371
G1 X87.627 Y93.369 E17.5499
G1 X88.621 Y92.375 E17.59666
G1 X89.193 Y91.861 E17.62223
G1 X89.815 Y91.408 E17.64783
G1 X90.496 Y91.014 E17.67399
G1 X91.751 Y90.375 E17.72084
G1 X92.454 Y90.062 E17.74643
G1 X93.185 Y89.823 E17.77201
G1 X93.948 Y89.661 E17.79795
G1 X95.202 Y89.462 E17.84018
G1 X95.344 Y88.556 E17.87068
G1 X95.542 Y87.813 E17.89626
G1 X95.6 Y87.661 E17.90167
G1 X95.6 Y82 E18.08996
G1 X95.61 Y81.808 E18.09635
G1 X95.61 Y81.106 E18.1197
G1 X95.692 Y80.339 E18.14536
G1 X95.913 Y78.948 E18.1922
G1 X96.073 Y78.196 E18.21777
G1 X96.31 Y77.464 E18.24336
G1 X96.627 Y76.751 E18.26932
G1 X97.266 Y75.496 E18.31616
G1 X97.65 Y74.83 E18.34173
G1 X98.101 Y74.207 E18.36731
G0 F3600 X98.438 Y74.426
G1 F1800 X98.91 Y73.904 E18.39071
G1 X99.904 Y72.91 E18.43747
G1 X100.461 Y72.41 E18.46236
G1 X101.067 Y71.973 E18.48721
G1 X101.678 Y71.622 E18.51065
G1 X102.933 Y70.983 E18.55749
G1 X103.617 Y70.68 E18.58237
G1 X104.329 Y70.451 E18.60725
G1 X105.011 Y70.308 E18.63042
G1 X106.402 Y70.087 E18.67727
G1 X107.146 Y70.009 E18.70215
G1 X107.894 Y70.011 E18.72703
G1 X108.598 Y70.087 E18.75058
G1 X109.989 Y70.308 E18.79743
G1 X110.721 Y70.464 E18.82232
G1 X111.431 Y70.698 E18.84718
G1 X112.067 Y70.983 E18.87036
G1 X113.322 Y71.622 E18.9172
G1 X113.97 Y71.997 E18.94211
G1 X114.574 Y72.438 E18.96698
G1 X115.096 Y72.91 E18.99039
G1 X116.09 Y73.904 E19.03714
G1 X116.59 Y74.461 E19.06204
G1 X117.027 Y75.067 E19.08689
G1 X117.378 Y75.678 E19.11032
G1 X118.017 Y76.933 E19.15716
G1 X118.32 Y77.617 E19.18205
G1 X118.549 Y78.329 E19.20692
G1 X118.692 Y79.011 E19.2301
G1 X118.913 Y80.402 E19.27694
G1 X118.984 Y81.084 E19.29975
G1 X122.821 Y81.084 E19.42737
G1 X123.321 Y81.02 E19.44413
G1 X123.838 Y81.001 E19.46134
G1 X126.162 Y81.001 E19.53864
G1 X126.909 Y81.041 E19.56352
G1 X127.176 Y81.084 E19.57251
G1 X131.012 Y81.084 E19.7001
G1 X131.087 Y80.402 E19.72292
G1 X131.308 Y79.011 E19.76976
G1 X131.464 Y78.279 E19.79466
G1 X131.698 Y77.569 E19.81952
G1 X131.983 Y76.933 E19.8427
G1 X132.622 Y75.678 E19.88954
G1 X132.997 Y75.03 E19.91444
G1 X133.438 Y74.426 E19.93932
G1 X133.91 Y73.904 E19.96272
G1 X134.904 Y72.91 E20.00948
G1 X135.461 Y72.41 E20.03437
G1 X136.067 Y71.973 E20.05922
G1 X136.678 Y71.622 E20.08266
G1 X137.933 Y70.983 E20.1295
G1 X138.617 Y70.68 E20.15438
G1 X139.329 Y70.451 E20.17926
G1 X140.011 Y70.308 E20.20244
G1 X141.402 Y70.087 E20.24928
G1 X142.146 Y70.009 E20.27416
G1 X142.894 Y70.011 E20.29904
G1 X143.598 Y70.087 E20.32259
G1 X144.989 Y70.308 E20.36944
G1 X145.721 Y70.464 E20.39433
G1 X146.431 Y70.698 E20.4192
G1 X147.067 Y70.983 E20.44238
G1 X148.322 Y71.622 E20.48922
G1 X148.97 Y71.997 E20.51412
G1 X149.574 Y72.438 E20.53899
G1 X150.096 Y72.91 E20.5624
G1 X151.09 Y73.904 E20.60915
G1 X151.59 Y74.461 E20.63405
G1 X152.027 Y75.067 E20.6589
G1 X152.378 Y75.678 E20.68233
G1 X153.017 Y76.933 E20.72917
G1 X153.32 Y77.617 E20.75406
G1 X153.549 Y78.329 E20.77893
G1 X153.692 Y79.011 E20.80211
G1 X153.913 Y80.402 E20.84895
G1 X153.991 Y81.146 E20.87384
G1 X153.989 Y81.714 E20.89273
G1 X154 Y82 E20.90225
G1 X154 Y87.722 E21.09256
G1 X154.196 Y88.347 E21.11435
G1 X154.343 Y89.08 E21.13921
G1 X154.395 Y89.803 E21.16332
G1 X155.989 Y90.056 E21.217
G1 X156.721 Y90.212 E21.2419
G1 X157.431 Y90.446 E21.26676
G1 X158.067 Y90.731 E21.28994
G1 X159.322 Y91.37 E21.33678
G1 X159.97 Y91.745 E21.36168
G1 X160.574 Y92.186 E21.38656
G1 X161.096 Y92.658 E21.40996
G1 X162.09 Y93.652 E21.45672
G1 X162.59 Y94.209 E21.48161
G1 X163.027 Y94.815 E21.50646
G1 X163.378 Y95.426 E21.5299
G1 X164.017 Y96.681 E21.57674
G1 X164.32 Y97.365 E21.60162
G1 X164.549 Y98.077 E21.6265
G1 X164.692 Y98.759 E21.64967
G1 X164.913 Y100.15 E21.69652
G1 X164.991 Y100.894 E21.7214
G1 X164.989 Y101.642 E21.74628
G1 X164.913 Y102.346 E21.76983
G1 X164.692 Y103.737 E21.81668
G1 X164.536 Y104.469 E21.84157
G1 X164.302 Y105.179 E21.86643
G1 X164.017 Y105.815 E21.88961
G1 X163.378 Y107.07 E21.93645
G1 X163.003 Y107.718 E21.96136
G1 X162.562 Y108.322 E21.98623
G1 X162.09 Y108.844 E22.00964
G1 X161.096 Y109.838 E22.05639
