;FLAVOR:Marlin
;TIME:2793
;Filament used: 1.93424m
;Layer height: 0.2
;MINX:84.208
;MINY:74.744
;MINZ:0.2
;MAXX:165.792
;MAXY:135.256
;MAXZ:16.8
;Generated with Cura_SteamEngine 5.2.1
M82 ;absolute extrusion mode
G21 ; set units to millimeters
G90 ; use absolute positioning
M82 ; absolute extrusion mode
M104 S228 ; set extruder temp
M140 S0 ; set bed temp
M190 S0 ; wait for bed temp
M109 S228 ; wait for extruder temp
G28 W ; home all without mesh bed level
G80 ; mesh bed leveling
G92 E0.0 ; reset extruder distance position
G1 Y-3.0 F1000.0 ; go outside print area
G1 X60.0 E9.0 F1000.0 ; intro line
G1 X100.0 E21.5 F1000.0 ; intro line
G92 E0.0 ; reset extruder distance position
G92 E0
G92 E0
G1 F2100 E-0.8
;LAYER_COUNT:84
;LAYER:0
M107
G0 F3600 X87.345 Y87.631 Z0.2
;TYPE:SKIRT
G1 F2100 E0
G1 F1800 X88.339 Y86.637 E0.04675
G1 X88.925 Y86.107 E0.07303
G1 X89.561 Y85.64 E0.09928
G1 X90.315 Y85.201 E0.1283
G1 X91.57 Y84.562 E0.17514
G1 X92.291 Y84.24 E0.2014
G1 X93.041 Y83.992 E0.22767
G1 X93.885 Y83.81 E0.25639
G1 X94.853 Y83.656 E0.28899
G1 X94.944 Y83.059 E0.30908
G1 X95.142 Y82.294 E0.33536
G1 X95.416 Y81.554 E0.36161
G1 X95.764 Y80.845 E0.38787
G1 X96.182 Y80.174 E0.41417
G1 X96.665 Y79.55 E0.44041
G1 X97.07 Y79.113 E0.46023
G1 X99.07 Y77.113 E0.5543
G1 X99.656 Y76.583 E0.58058
G1 X100.292 Y76.116 E0.60683
G1 X100.972 Y75.715 E0.63308
G1 X101.69 Y75.385 E0.65937
G1 X102.437 Y75.13 E0.68562
G1 X103.206 Y74.951 E0.71188
G1 X103.99 Y74.851 E0.73817
G1 X104.585 Y74.828 E0.75797
G1 X122.719 Y74.828 E1.36111
G1 X123.533 Y74.744 E1.38833
G1 X126.162 Y74.744 E1.47577
G1 X126.951 Y74.784 E1.50205
G1 X127.239 Y74.828 E1.51174
G1 X145.415 Y74.828 E2.11627
G1 X146.204 Y74.868 E2.14255
G1 X146.984 Y74.987 E2.16879
G1 X147.749 Y75.185 E2.19507
G1 X148.489 Y75.459 E2.22132
G1 X149.198 Y75.807 E2.24759
G1 X149.869 Y76.225 E2.27388
G1 X150.493 Y76.708 E2.30013
G1 X150.93 Y77.113 E2.31994
G1 X152.93 Y79.113 E2.41402
G1 X153.46 Y79.699 E2.4403
G1 X153.927 Y80.335 E2.46654
G1 X154.328 Y81.015 E2.4928
G1 X154.658 Y81.733 E2.51908
G1 X154.913 Y82.48 E2.54533
G1 X155.092 Y83.249 E2.57159
G1 X155.144 Y83.656 E2.58524
G1 X156.115 Y83.81 E2.61794
G1 X156.888 Y83.973 E2.64422
G1 X157.64 Y84.213 E2.67047
G1 X158.43 Y84.562 E2.6992
G1 X159.685 Y85.201 E2.74604
G1 X160.37 Y85.595 E2.77232
G1 X161.011 Y86.055 E2.79856
G1 X161.661 Y86.637 E2.82758
G1 X162.655 Y87.631 E2.87433
G1 X163.185 Y88.217 E2.90061
G1 X163.652 Y88.853 E2.92686
G1 X164.091 Y89.607 E2.95588
G1 X164.73 Y90.862 E3.00272
G1 X165.052 Y91.583 E3.02898
G1 X165.3 Y92.333 E3.05525
G1 X165.482 Y93.177 E3.08397
G1 X165.703 Y94.568 E3.13082
G1 X165.788 Y95.353 E3.15708
G1 X165.792 Y96.143 E3.18335
G1 X165.703 Y97.016 E3.21254
G1 X165.482 Y98.407 E3.25938
G1 X165.319 Y99.18 E3.28566
G1 X165.079 Y99.932 E3.31191
G1 X164.73 Y100.722 E3.34064
G1 X164.091 Y101.977 E3.38748
G1 X163.697 Y102.662 E3.41376
G1 X163.237 Y103.303 E3.44001
G1 X162.655 Y103.953 E3.46902
G1 X161.661 Y104.947 E3.51578
G1 X161.075 Y105.477 E3.54206
G1 X160.817 Y105.666 E3.5527
G1 X161.011 Y105.805 E3.56063
G1 X161.661 Y106.387 E3.58965
G1 X162.655 Y107.381 E3.63641
G1 X163.185 Y107.967 E3.66269
G1 X163.652 Y108.603 E3.68893
G1 X164.091 Y109.357 E3.71795
G1 X164.73 Y110.612 E3.76479
G1 X165.052 Y111.333 E3.79105
G1 X165.3 Y112.083 E3.81733
G1 X165.482 Y112.927 E3.84604
G1 X165.703 Y114.318 E3.89289
G1 X165.788 Y115.103 E3.91915
G1 X165.792 Y115.893 E3.94543
G1 X165.703 Y116.766 E3.97461
G1 X165.482 Y118.157 E4.02146
G1 X165.319 Y118.93 E4.04773
G1 X165.079 Y119.682 E4.07399
G1 X164.73 Y120.472 E4.10271
G1 X164.091 Y121.727 E4.14955
G1 X163.697 Y122.412 E4.17584
G1 X163.237 Y123.053 E4.20208
G1 X162.655 Y123.703 E4.2311
G1 X161.661 Y124.697 E4.27785
G1 X161.075 Y125.227 E4.30413
G1 X160.439 Y125.694 E4.33038
G1 X159.685 Y126.133 E4.35939
G1 X158.43 Y126.772 E4.40624
G1 X157.709 Y127.094 E4.4325
G1 X156.959 Y127.342 E4.45877
G1 X156.115 Y127.524 E4.48749
G1 X154.884 Y127.72 E4.52895
G1 X154.584 Y128.53 E4.55768
G1 X154.236 Y129.239 E4.58395
G1 X153.818 Y129.91 E4.61024
G1 X153.335 Y130.534 E4.63649
G1 X152.93 Y130.971 E4.6563
G1 X150.93 Y132.971 E4.75038
G1 X150.344 Y133.501 E4.77666
G1 X149.708 Y133.968 E4.8029
G1 X149.028 Y134.369 E4.82916
G1 X148.31 Y134.699 E4.85544
G1 X147.563 Y134.954 E4.88169
G1 X146.794 Y135.133 E4.90795
G1 X146.01 Y135.233 E4.93424
G1 X145.415 Y135.256 E4.95404
G1 X104.585 Y135.256 E6.31206
G1 X103.796 Y135.216 E6.33833
G1 X103.016 Y135.097 E6.36457
G1 X102.251 Y134.899 E6.39086
G1 X101.511 Y134.625 E6.4171
G1 X100.802 Y134.277 E6.44337
G1 X100.131 Y133.859 E6.46966
G1 X99.507 Y133.376 E6.49591
G1 X99.07 Y132.971 E6.51573
G1 X97.07 Y130.971 E6.6098
G1 X96.54 Y130.385 E6.63608
G1 X96.073 Y129.749 E6.66232
G1 X95.672 Y129.069 E6.68858
G1 X95.342 Y128.351 E6.71486
G1 X95.127 Y127.721 E6.737
G1 X93.885 Y127.524 E6.77883
G1 X93.112 Y127.361 E6.8051
G1 X92.36 Y127.121 E6.83136
G1 X91.57 Y126.772 E6.86008
G1 X90.315 Y126.133 E6.90692
G1 X89.63 Y125.739 E6.93321
G1 X88.989 Y125.279 E6.95945
G1 X88.339 Y124.697 E6.98847
G1 X87.345 Y123.703 E7.03522
G1 X86.815 Y123.117 E7.0615
G1 X86.348 Y122.481 E7.08775
G1 X85.909 Y121.727 E7.11677
G1 X85.27 Y120.472 E7.16361
G1 X84.948 Y119.751 E7.18987
G1 X84.7 Y119.001 E7.21614
G1 X84.518 Y118.157 E7.24486
G1 X84.297 Y116.766 E7.2917
G1 X84.212 Y115.981 E7.31797
G1 X84.208 Y115.191 E7.34424
G1 X84.297 Y114.318 E7.37343
G1 X84.518 Y112.927 E7.42027
G1 X84.681 Y112.154 E7.44655
G1 X84.921 Y111.402 E7.4728
G1 X85.27 Y110.612 E7.50153
G1 X85.909 Y109.357 E7.54837
G1 X86.303 Y108.672 E7.57465
G1 X86.763 Y108.031 E7.60089
G1 X87.345 Y107.381 E7.62991
G1 X88.339 Y106.387 E7.67667
G1 X88.925 Y105.857 E7.70295
G1 X89.183 Y105.668 E7.71358
G1 X88.989 Y105.529 E7.72152
G1 X88.339 Y104.947 E7.75054
G1 X87.345 Y103.953 E7.7973
G1 X86.815 Y103.367 E7.82358
G1 X86.348 Y102.731 E7.84982
G1 X85.909 Y101.977 E7.87884
G1 X85.27 Y100.722 E7.92568
G1 X84.948 Y100.001 E7.95194
G1 X84.7 Y99.251 E7.97822
G1 X84.518 Y98.407 E8.00693
G1 X84.297 Y97.016 E8.05378
G1 X84.212 Y96.231 E8.08004
G1 X84.208 Y95.441 E8.10632
G1 X84.297 Y94.568 E8.1355
G1 X84.518 Y93.177 E8.18235
G1 X84.681 Y92.404 E8.20862
G1 X84.921 Y91.652 E8.23488
G1 X85.27 Y90.862 E8.2636
G1 X85.909 Y89.607 E8.31044
G1 X86.303 Y88.922 E8.33673
G1 X86.763 Y88.281 E8.36297
G1 X87.345 Y87.631 E8.39199
G0 F3600 X87.627 Y87.913
G1 F1800 X88.621 Y86.919 E8.43874
G1 X89.193 Y86.405 E8.46432
G1 X89.815 Y85.952 E8.48991
G1 X90.496 Y85.558 E8.51608
G1 X91.751 Y84.919 E8.56292
G1 X92.454 Y84.606 E8.58852
G1 X93.185 Y84.367 E8.61409
G1 X93.948 Y84.205 E8.64004
G1 X95.202 Y84.006 E8.68227
G1 X95.344 Y83.1 E8.71277
G1 X95.542 Y82.357 E8.73834
G1 X95.816 Y81.638 E8.76394
G1 X96.163 Y80.952 E8.78951
G1 X96.579 Y80.305 E8.81509
G1 X97.133 Y79.614 E8.84455
G1 X99.352 Y77.395 E8.94892
G1 X99.924 Y76.881 E8.9745
G1 X100.546 Y76.428 E9.00009
G1 X101.211 Y76.042 E9.02567
G1 X101.913 Y75.727 E9.05126
G1 X102.644 Y75.487 E9.07685
G1 X103.395 Y75.324 E9.10241
G1 X104.269 Y75.228 E9.13165
G1 X122.782 Y75.228 E9.7474
G1 X122.989 Y75.193 E9.75438
G1 X123.838 Y75.144 E9.78266
G1 X126.162 Y75.144 E9.85996
G1 X126.93 Y75.184 E9.88554
G1 X127.211 Y75.228 E9.895
G1 X145.415 Y75.228 E10.50047
G1 X146.183 Y75.268 E10.52604
G1 X146.943 Y75.387 E10.55163
G1 X147.686 Y75.585 E10.5772
G1 X148.405 Y75.859 E10.6028
G1 X149.091 Y76.206 E10.62837
G1 X149.738 Y76.622 E10.65395
G1 X150.429 Y77.176 E10.68341
G1 X152.648 Y79.395 E10.78778
G1 X153.162 Y79.967 E10.81336
G1 X153.615 Y80.589 E10.83895
G1 X154.001 Y81.254 E10.86453
G1 X154.316 Y81.956 E10.89012
G1 X154.556 Y82.687 E10.91571
G1 X154.719 Y83.438 E10.94127
G1 X154.781 Y84.003 E10.96017
G1 X156.052 Y84.205 E11.00298
G1 X156.804 Y84.365 E11.02855
G1 X157.536 Y84.602 E11.05414
G1 X158.249 Y84.919 E11.08009
G1 X159.504 Y85.558 E11.12693
G1 X160.17 Y85.942 E11.1525
G1 X160.793 Y86.393 E11.17808
G1 X161.379 Y86.919 E11.20427
G1 X162.373 Y87.913 E11.25103
G1 X162.887 Y88.485 E11.2766
G1 X163.34 Y89.107 E11.3022
G1 X163.734 Y89.788 E11.32837
G1 X164.373 Y91.043 E11.37521
G1 X164.686 Y91.746 E11.4008
G1 X164.925 Y92.477 E11.42638
G1 X165.087 Y93.24 E11.45232
G1 X165.308 Y94.631 E11.49917
G1 X165.389 Y95.396 E11.52476
G1 X165.391 Y96.165 E11.55033
G1 X165.308 Y96.953 E11.57669
G1 X165.087 Y98.344 E11.62353
G1 X164.927 Y99.096 E11.6491
G1 X164.69 Y99.828 E11.67469
G1 X164.373 Y100.541 E11.70065
G1 X163.734 Y101.796 E11.74749
G1 X163.35 Y102.462 E11.77306
G1 X162.899 Y103.085 E11.79864
G1 X162.373 Y103.671 E11.82483
G1 X161.379 Y104.665 E11.87158
G1 X160.807 Y105.179 E11.89716
G1 X160.132 Y105.67 E11.92492
G1 X160.793 Y106.143 E11.95196
G1 X161.379 Y106.669 E11.97815
G1 X162.373 Y107.663 E12.0249
G1 X162.887 Y108.235 E12.05048
G1 X163.34 Y108.857 E12.07607
G1 X163.734 Y109.538 E12.10224
G1 X164.373 Y110.793 E12.14908
G1 X164.686 Y111.496 E12.17467
G1 X164.925 Y112.227 E12.20025
G1 X165.087 Y112.99 E12.2262
G1 X165.308 Y114.381 E12.27304
G1 X165.389 Y115.146 E12.29863
G1 X165.391 Y115.915 E12.32421
G1 X165.308 Y116.703 E12.35056
G1 X165.087 Y118.094 E12.3974
G1 X164.927 Y118.846 E12.42298
G1 X164.69 Y119.578 E12.44857
G1 X164.373 Y120.291 E12.47452
G1 X163.734 Y121.546 E12.52136
G1 X163.35 Y122.212 E12.54693
G1 X162.899 Y122.835 E12.57251
G1 X162.373 Y123.421 E12.5987
G1 X161.379 Y124.415 E12.64546
G1 X160.807 Y124.929 E12.67103
G1 X160.185 Y125.382 E12.69663
G1 X159.504 Y125.776 E12.72279
G1 X158.249 Y126.415 E12.76963
G1 X157.546 Y126.728 E12.79523
G1 X156.815 Y126.967 E12.82081
G1 X156.052 Y127.129 E12.84675
G1 X154.553 Y127.367 E12.89723
G1 X154.458 Y127.727 E12.90962
G1 X154.184 Y128.446 E12.93521
G1 X153.837 Y129.132 E12.96078
G1 X153.421 Y129.779 E12.98636
G1 X152.867 Y130.47 E13.01582
G1 X150.648 Y132.689 E13.12019
G1 X150.076 Y133.203 E13.14577
G1 X149.454 Y133.656 E13.17136
G1 X148.789 Y134.042 E13.19694
G1 X148.087 Y134.357 E13.22253
G1 X147.356 Y134.597 E13.24812
G1 X146.605 Y134.76 E13.27368
G1 X145.731 Y134.856 E13.30292
G1 X104.585 Y134.856 E14.67145
G1 X103.817 Y134.816 E14.69702
G1 X103.057 Y134.697 E14.72261
G1 X102.314 Y134.499 E14.74818
G1 X101.595 Y134.225 E14.77378
G1 X100.909 Y133.878 E14.79935
G1 X100.262 Y133.462 E14.82493
G1 X99.571 Y132.908 E14.85439
G1 X97.352 Y130.689 E14.95876
G1 X96.838 Y130.117 E14.98434
G1 X96.385 Y129.495 E15.00993
G1 X95.999 Y128.83 E15.03551
G1 X95.684 Y128.128 E15.0611
G1 X95.436 Y127.36 E15.08794
G1 X93.948 Y127.129 E15.13802
G1 X93.196 Y126.969 E15.16359
G1 X92.464 Y126.732 E15.18919
G1 X91.751 Y126.415 E15.21514
G1 X90.496 Y125.776 E15.26198
G1 X89.83 Y125.392 E15.28755
G1 X89.207 Y124.941 E15.31313
G1 X88.621 Y124.415 E15.33932
G1 X87.627 Y123.421 E15.38607
G1 X87.113 Y122.849 E15.41165
G1 X86.66 Y122.227 E15.43724
G1 X86.266 Y121.546 E15.46341
G1 X85.627 Y120.291 E15.51025
G1 X85.314 Y119.588 E15.53585
G1 X85.075 Y118.857 E15.56143
G1 X84.913 Y118.094 E15.58737
G1 X84.692 Y116.703 E15.63422
G1 X84.611 Y115.938 E15.6598
G1 X84.609 Y115.169 E15.68538
G1 X84.692 Y114.381 E15.71173
G1 X84.913 Y112.99 E15.75858
G1 X85.073 Y112.238 E15.78415
G1 X85.31 Y111.506 E15.80974
G1 X85.627 Y110.793 E15.83569
G1 X86.266 Y109.538 E15.88253
G1 X86.65 Y108.872 E15.9081
G1 X87.101 Y108.249 E15.93368
G1 X87.627 Y107.663 E15.95987
G1 X88.621 Y106.669 E16.00663
G1 X89.193 Y106.155 E16.03221
G1 X89.868 Y105.664 E16.05997
G1 X89.207 Y105.191 E16.087
G1 X88.621 Y104.665 E16.11319
G1 X87.627 Y103.671 E16.15995
G1 X87.113 Y103.099 E16.18553
G1 X86.66 Y102.477 E16.21112
G1 X86.266 Y101.796 E16.23729
G1 X85.627 Y100.541 E16.28413
G1 X85.314 Y99.838 E16.30972
G1 X85.075 Y99.107 E16.3353
G1 X84.913 Y98.344 E16.36124
G1 X84.692 Y96.953 E16.40809
G1 X84.611 Y96.188 E16.43368
G1 X84.609 Y95.419 E16.45925
G1 X84.692 Y94.631 E16.48561
G1 X84.913 Y93.24 E16.53245
G1 X85.073 Y92.488 E16.55802
G1 X85.31 Y91.756 E16.58361
G1 X85.627 Y91.043 E16.60957
G1 X86.266 Y89.788 E16.65641
G1 X86.65 Y89.122 E16.68198
G1 X87.101 Y88.499 E16.70756
G1 X87.627 Y87.913 E16.73375
G0 F3600 X87.91 Y88.196
G1 F1800 X88.904 Y87.202 E16.7805
G1 X89.461 Y86.702 E16.8054
G1 X90.067 Y86.265 E16.83025
G1 X90.678 Y85.914 E16.85368
G1 X91.933 Y85.275 E16.90053
G1 X92.617 Y84.972 E16.92541
G1 X93.329 Y84.743 E16.95028
G1 X94.011 Y84.6 E16.97346
G1 X95.6 Y84.348 E17.02697
G1 X95.625 Y83.881 E17.04253
G1 X95.744 Y83.143 E17.06739
G1 X95.942 Y82.421 E17.09229
G1 X96.215 Y81.725 E17.11716
G1 X96.562 Y81.062 E17.14204
G1 X96.977 Y80.439 E17.16694
G1 X97.635 Y79.678 E17.2004
G1 X99.635 Y77.678 E17.29448
G1 X100.192 Y77.178 E17.31937
G1 X100.798 Y76.741 E17.34422
G1 X101.448 Y76.37 E17.36911
G1 X102.134 Y76.071 E17.394
G1 X102.848 Y75.847 E17.41889
G1 X103.581 Y75.7 E17.44376
G1 X104.585 Y75.628 E17.47724
G1 X122.813 Y75.628 E18.0835
G1 X123.321 Y75.563 E18.10054
G1 X123.838 Y75.544 E18.11774
G1 X126.162 Y75.544 E18.19504
G1 X126.909 Y75.584 E18.21992
G1 X127.182 Y75.628 E18.22912
G1 X145.415 Y75.628 E18.83555
G1 X146.162 Y75.668 E18.86043
G1 X146.9 Y75.787 E18.88529
G1 X147.622 Y75.985 E18.91019
G1 X148.318 Y76.258 E18.93506
G1 X148.981 Y76.605 E18.95995
G1 X149.604 Y77.02 E18.98485
G1 X150.365 Y77.678 E19.01831
G1 X152.365 Y79.678 E19.11238
G1 X152.865 Y80.235 E19.13728
G1 X153.302 Y80.841 E19.16213
G1 X153.673 Y81.491 E19.18702
G1 X153.972 Y82.177 E19.21191
G1 X154.196 Y82.891 E19.2368
G1 X154.343 Y83.624 E19.26166
G1 X154.395 Y84.347 E19.28577
G1 X155.989 Y84.6 E19.33945
G1 X156.721 Y84.756 E19.36435
G1 X157.431 Y84.99 E19.38921
G1 X158.067 Y85.275 E19.41239
G1 X159.322 Y85.914 E19.45923
G1 X159.97 Y86.289 E19.48413
G1 X160.574 Y86.73 E19.50901
G1 X161.096 Y87.202 E19.53241
G1 X162.09 Y88.196 E19.57917
G1 X162.59 Y88.753 E19.60406
G1 X163.027 Y89.359 E19.62891
G1 X163.378 Y89.97 E19.65235
G1 X164.017 Y91.225 E19.69919
G1 X164.32 Y91.909 E19.72407
G1 X164.549 Y92.621 E19.74895
G1 X164.692 Y93.303 E19.77212
G1 X164.913 Y94.694 E19.81897
G1 X164.991 Y95.438 E19.84385
G1 X164.989 Y96.186 E19.86873
G1 X164.913 Y96.89 E19.89228
G1 X164.692 Y98.281 E19.93913
G1 X164.536 Y99.013 E19.96402
G1 X164.302 Y99.723 E19.98888
G1 X164.017 Y100.359 E20.01206
G1 X163.378 Y101.614 E20.0589
G1 X163.003 Y102.262 E20.0838
G1 X162.562 Y102.866 E20.10868
G1 X162.09 Y103.388 E20.13209
G1 X161.096 Y104.382 E20.17884
G1 X160.539 Y104.882 E20.20374
G1 X159.933 Y105.319 E20.22859
G1 X159.327 Y105.667 E20.25183
G1 X159.97 Y106.039 E20.27654
G1 X160.574 Y106.48 E20.30141
G1 X161.096 Y106.952 E20.32482
G1 X162.09 Y107.946 E20.37157
G1 X162.59 Y108.503 E20.39647
G1 X163.027 Y109.109 E20.42132
G1 X163.378 Y109.72 E20.44475
G1 X164.017 Y110.975 E20.49159
G1 X164.32 Y111.659 E20.51648
G1 X164.549 Y112.371 E20.54135
G1 X164.692 Y113.053 E20.56453
G1 X164.913 Y114.444 E20.61137
G1 X164.991 Y115.188 E20.63625
G1 X164.989 Y115.936 E20.66113
G1 X164.913 Y116.64 E20.68468
G1 X164.692 Y118.031 E20.73153
G1 X164.536 Y118.763 E20.75642
G1 X164.302 Y119.473 E20.78129
G1 X164.017 Y120.109 E20.80447
G1 X163.378 Y121.364 E20.85131
G1 X163.003 Y122.012 E20.87621
G1 X162.562 Y122.616 E20.90108
G1 X162.09 Y123.138 E20.92449
G1 X161.096 Y124.132 E20.97124
G1 X160.539 Y124.632 E20.99614
G1 X159.933 Y125.069 E21.02099
G1 X159.322 Y125.42 E21.04443
G1 X158.067 Y126.059 E21.09127
G1 X157.383 Y126.362 E21.11615
G1 X156.671 Y126.591 E21.14102
G1 X155.989 Y126.734 E21.1642
G1 X154.236 Y127.012 E21.22323
G1 X154.058 Y127.663 E21.24568
G1 X153.785 Y128.359 E21.27055
G1 X153.438 Y129.022 E21.29544
G1 X153.023 Y129.645 E21.32033
G1 X152.365 Y130.406 E21.3538
G1 X150.365 Y132.406 E21.44787
G1 X149.808 Y132.906 E21.47276
G1 X149.202 Y133.343 E21.49761
G1 X148.552 Y133.714 E21.52251
G1 X147.866 Y134.013 E21.5474
G1 X147.152 Y134.237 E21.57228
G1 X146.419 Y134.384 E21.59715
G1 X145.415 Y134.456 E21.63063
G1 X104.585 Y134.456 E22.98864
G1 X103.838 Y134.416 E23.01352
G1 X103.1 Y134.297 E23.03838
G1 X102.378 Y134.099 E23.06328
G1 X101.682 Y133.826 E23.08815
G1 X101.019 Y133.479 E23.11304
G1 X100.396 Y133.064 E23.13794
G1 X99.635 Y132.406 E23.1714
G1 X97.635 Y130.406 E23.26547
G1 X97.135 Y129.849 E23.29037
G1 X96.698 Y129.243 E23.31522
G1 X96.327 Y128.593 E23.34011
G1 X96.028 Y127.907 E23.365
