;FLAVOR:Marlin
;TIME:2991
;Filament used: 1.99941m
;Layer height: 0.2
;MINX:89.492
;MINY:69.252
;MINZ:0.2
;MAXX:160.5
;MAXY:140.756
;MAXZ:20
;Generated with Cura_SteamEngine 5.2.1
M82 ;absolute extrusion mode
G21 ; set units to millimeters
G90 ; use absolute positioning
M82 ; absolute extrusion mode
M104 S228 ; set extruder temp
M140 S0 ; set bed temp
M190 S0 ; wait for bed temp
M109 S228 ; wait for extruder temp
G28 W ; home all without mesh bed level
G80 ; mesh bed leveling
G92 E0.0 ; reset extruder distance position
G1 Y-3.0 F1000.0 ; go outside print area
G1 X60.0 E9.0 F1000.0 ; intro line
G1 X100.0 E21.5 F1000.0 ; intro line
G92 E0.0 ; reset extruder distance position
G92 E0
G92 E0
G1 F2100 E-0.8
;LAYER_COUNT:100
;LAYER:0
M107
G0 F3600 X99.721 Y74.033 Z0.2
;TYPE:SKIRT
G1 F2100 E0
G1 F1800 X100.3 Y73.385 E0.0289
G1 X101.293 Y72.391 E0.07563
G1 X101.878 Y71.862 E0.10187
G1 X102.515 Y71.394 E0.12816
G1 X103.274 Y70.952 E0.15737
G1 X104.53 Y70.313 E0.20424
G1 X105.251 Y69.991 E0.2305
G1 X106.001 Y69.744 E0.25677
G1 X106.843 Y69.562 E0.28542
G1 X108.234 Y69.341 E0.33226
G1 X109.019 Y69.256 E0.35853
G1 X109.809 Y69.252 E0.3848
G1 X110.683 Y69.341 E0.41402
G1 X112.073 Y69.562 E0.46083
G1 X112.845 Y69.725 E0.48708
G1 X113.598 Y69.966 E0.51337
G1 X114.385 Y70.313 E0.54198
G1 X115.641 Y70.952 E0.58885
G1 X116.326 Y71.345 E0.61512
G1 X116.967 Y71.806 E0.64138
G1 X117.622 Y72.391 E0.67059
G1 X118.615 Y73.385 E0.71732
G1 X119.144 Y73.972 E0.7436
G1 X119.332 Y74.227 E0.75414
G1 X119.471 Y74.033 E0.76207
G1 X120.053 Y73.383 E0.79109
G1 X121.047 Y72.389 E0.83785
G1 X121.633 Y71.859 E0.86413
G1 X122.269 Y71.392 E0.89037
G1 X123.023 Y70.953 E0.91939
G1 X124.278 Y70.314 E0.96623
G1 X124.999 Y69.992 E0.99249
G1 X125.749 Y69.744 E1.01877
G1 X126.593 Y69.562 E1.04748
G1 X127.984 Y69.341 E1.09433
G1 X128.769 Y69.256 E1.12059
G1 X129.559 Y69.252 E1.14687
G1 X130.433 Y69.341 E1.17609
G1 X131.823 Y69.562 E1.2229
G1 X132.595 Y69.725 E1.24914
G1 X133.348 Y69.966 E1.27544
G1 X134.135 Y70.313 E1.30405
G1 X135.391 Y70.952 E1.35092
G1 X136.076 Y71.345 E1.37718
G1 X136.717 Y71.806 E1.40344
G1 X137.372 Y72.391 E1.43265
G1 X138.365 Y73.385 E1.47938
G1 X138.894 Y73.972 E1.50567
G1 X139.361 Y74.608 E1.53191
G1 X139.798 Y75.359 E1.56081
G1 X140.437 Y76.614 E1.60765
G1 X140.759 Y77.335 E1.63391
G1 X141.007 Y78.085 E1.66019
G1 X141.189 Y78.924 E1.68874
G1 X141.432 Y80.447 E1.74004
G1 X141.692 Y80.487 E1.74879
G1 X142.457 Y80.685 E1.77507
G1 X143.197 Y80.959 E1.80131
G1 X143.906 Y81.307 E1.82758
G1 X144.577 Y81.725 E1.85388
G1 X145.201 Y82.208 E1.88012
G1 X145.638 Y82.613 E1.89994
G1 X147.638 Y84.613 E1.99401
G1 X148.168 Y85.199 E2.02029
G1 X148.635 Y85.835 E2.04654
G1 X149.036 Y86.515 E2.07279
G1 X149.366 Y87.233 E2.09908
G1 X149.621 Y87.98 E2.12533
G1 X149.8 Y88.749 E2.15159
G1 X149.852 Y89.156 E2.16524
G1 X150.823 Y89.31 E2.19794
G1 X151.596 Y89.473 E2.22421
G1 X152.348 Y89.713 E2.25047
G1 X153.138 Y90.062 E2.27919
G1 X154.393 Y90.701 E2.32603
G1 X155.078 Y91.095 E2.35231
G1 X155.719 Y91.555 E2.37856
G1 X156.369 Y92.137 E2.40757
G1 X157.363 Y93.131 E2.45433
G1 X157.893 Y93.717 E2.48061
G1 X158.36 Y94.353 E2.50685
G1 X158.799 Y95.107 E2.53587
G1 X159.438 Y96.362 E2.58271
G1 X159.76 Y97.083 E2.60898
G1 X160.008 Y97.833 E2.63525
G1 X160.19 Y98.677 E2.66397
G1 X160.411 Y100.068 E2.71081
G1 X160.496 Y100.853 E2.73707
G1 X160.5 Y101.643 E2.76335
G1 X160.411 Y102.516 E2.79254
G1 X160.19 Y103.907 E2.83938
G1 X160.027 Y104.68 E2.86566
G1 X159.787 Y105.432 E2.89191
G1 X159.438 Y106.222 E2.92064
G1 X158.799 Y107.477 E2.96748
G1 X158.405 Y108.162 E2.99376
G1 X157.945 Y108.803 E3.02
G1 X157.363 Y109.453 E3.04902
G1 X156.369 Y110.447 E3.09577
G1 X155.783 Y110.977 E3.12205
G1 X155.525 Y111.166 E3.13269
G1 X155.719 Y111.305 E3.14063
G1 X156.369 Y111.887 E3.16965
G1 X157.363 Y112.881 E3.2164
G1 X157.893 Y113.467 E3.24268
G1 X158.36 Y114.103 E3.26893
G1 X158.799 Y114.857 E3.29794
G1 X159.438 Y116.112 E3.34479
G1 X159.76 Y116.833 E3.37105
G1 X160.008 Y117.583 E3.39732
G1 X160.19 Y118.427 E3.42604
G1 X160.411 Y119.818 E3.47288
G1 X160.496 Y120.603 E3.49915
G1 X160.5 Y121.393 E3.52542
G1 X160.411 Y122.266 E3.55461
G1 X160.19 Y123.657 E3.60145
G1 X160.027 Y124.43 E3.62773
G1 X159.787 Y125.182 E3.65398
G1 X159.438 Y125.972 E3.68271
G1 X158.799 Y127.227 E3.72955
G1 X158.405 Y127.912 E3.75583
G1 X157.945 Y128.553 E3.78207
G1 X157.363 Y129.203 E3.81109
G1 X156.369 Y130.197 E3.85785
G1 X155.783 Y130.727 E3.88413
G1 X155.147 Y131.194 E3.91037
G1 X154.393 Y131.633 E3.93939
G1 X153.138 Y132.272 E3.98623
G1 X152.417 Y132.594 E4.01249
G1 X151.667 Y132.842 E4.03877
G1 X150.823 Y133.024 E4.06748
G1 X149.592 Y133.22 E4.10894
G1 X149.292 Y134.03 E4.13767
G1 X148.944 Y134.739 E4.16394
G1 X148.526 Y135.41 E4.19024
G1 X148.043 Y136.034 E4.21648
G1 X147.638 Y136.471 E4.2363
G1 X145.638 Y138.471 E4.33037
G1 X145.052 Y139.001 E4.35665
G1 X144.416 Y139.468 E4.38289
G1 X143.736 Y139.869 E4.40915
G1 X143.018 Y140.199 E4.43543
G1 X142.271 Y140.454 E4.46169
G1 X141.502 Y140.633 E4.48795
G1 X140.718 Y140.733 E4.51423
G1 X140.123 Y140.756 E4.53404
G1 X99.292 Y140.756 E5.89208
G1 X98.503 Y140.716 E5.91836
G1 X97.723 Y140.597 E5.9446
G1 X96.958 Y140.399 E5.97089
G1 X96.218 Y140.125 E5.99713
G1 X95.509 Y139.777 E6.0234
G1 X94.838 Y139.359 E6.04969
G1 X94.214 Y138.876 E6.07594
G1 X93.777 Y138.471 E6.09576
G1 X91.777 Y136.471 E6.18983
G1 X91.247 Y135.885 E6.21611
G1 X90.78 Y135.249 E6.24235
G1 X90.379 Y134.569 E6.26861
G1 X90.049 Y133.851 E6.29489
G1 X89.794 Y133.104 E6.32114
G1 X89.615 Y132.335 E6.34741
G1 X89.515 Y131.551 E6.37369
G1 X89.492 Y130.956 E6.3935
G1 X89.492 Y90.128 E7.75144
G1 X89.532 Y89.339 E7.77772
G1 X89.651 Y88.559 E7.80396
G1 X89.849 Y87.794 E7.83024
G1 X90.123 Y87.054 E7.85649
G1 X90.471 Y86.345 E7.88276
G1 X90.889 Y85.674 E7.90905
G1 X91.372 Y85.05 E7.9353
G1 X91.777 Y84.613 E7.95511
G1 X93.777 Y82.613 E8.04919
G1 X94.363 Y82.083 E8.07547
G1 X94.999 Y81.616 E8.10171
G1 X95.679 Y81.215 E8.12797
G1 X96.397 Y80.885 E8.15425
G1 X97.209 Y80.608 E8.18278
G1 X97.476 Y78.929 E8.23933
G1 X97.639 Y78.156 E8.26561
G1 X97.879 Y77.404 E8.29186
G1 X98.228 Y76.614 E8.32059
G1 X98.867 Y75.359 E8.36743
G1 X99.261 Y74.674 E8.39371
G1 X99.721 Y74.033 E8.41995
G0 F3600 X100.059 Y74.251
G1 F1800 X100.583 Y73.668 E8.44602
G1 X101.576 Y72.674 E8.49275
G1 X102.147 Y72.159 E8.51833
G1 X102.768 Y71.706 E8.54389
G1 X103.455 Y71.309 E8.57029
G1 X104.711 Y70.67 E8.61716
G1 X105.414 Y70.357 E8.64275
G1 X106.146 Y70.119 E8.66835
G1 X106.906 Y69.957 E8.6942
G1 X108.297 Y69.736 E8.74104
G1 X109.062 Y69.655 E8.76663
G1 X109.831 Y69.653 E8.79221
G1 X110.62 Y69.736 E8.81859
G1 X112.01 Y69.957 E8.8654
G1 X112.762 Y70.117 E8.89098
G1 X113.494 Y70.354 E8.91657
G1 X114.204 Y70.67 E8.94242
G1 X115.46 Y71.309 E8.98929
G1 X116.126 Y71.692 E9.01484
G1 X116.749 Y72.143 E9.04042
G1 X117.339 Y72.674 E9.06682
G1 X118.332 Y73.668 E9.11355
G1 X118.847 Y74.24 E9.13915
G1 X119.336 Y74.913 E9.16682
G1 X119.809 Y74.251 E9.19388
G1 X120.335 Y73.665 E9.22007
G1 X121.329 Y72.671 E9.26683
G1 X121.901 Y72.157 E9.2924
G1 X122.523 Y71.704 E9.318
G1 X123.204 Y71.31 E9.34416
G1 X124.459 Y70.671 E9.391
G1 X125.162 Y70.358 E9.4166
G1 X125.893 Y70.119 E9.44218
G1 X126.656 Y69.957 E9.46812
G1 X128.047 Y69.736 E9.51497
G1 X128.812 Y69.655 E9.54055
G1 X129.581 Y69.653 E9.56613
G1 X130.37 Y69.736 E9.59252
G1 X131.76 Y69.957 E9.63933
G1 X132.512 Y70.117 E9.6649
G1 X133.244 Y70.354 E9.69049
G1 X133.954 Y70.67 E9.71634
G1 X135.21 Y71.309 E9.76321
G1 X135.876 Y71.692 E9.78876
G1 X136.499 Y72.143 E9.81434
G1 X137.089 Y72.674 E9.84074
G1 X138.082 Y73.668 E9.88748
G1 X138.597 Y74.24 E9.91308
G1 X139.049 Y74.862 E9.93865
G1 X139.441 Y75.54 E9.9647
G1 X140.08 Y76.795 E10.01154
G1 X140.393 Y77.498 E10.03713
G1 X140.632 Y78.229 E10.06271
G1 X140.794 Y78.987 E10.08849
G1 X141.083 Y80.798 E10.14949
G1 X141.651 Y80.887 E10.16861
G1 X142.394 Y81.085 E10.19419
G1 X143.113 Y81.359 E10.21978
G1 X143.799 Y81.706 E10.24535
G1 X144.446 Y82.122 E10.27093
G1 X145.137 Y82.676 E10.30039
G1 X147.356 Y84.895 E10.40476
G1 X147.87 Y85.467 E10.43034
G1 X148.323 Y86.089 E10.45593
G1 X148.709 Y86.754 E10.48151
G1 X149.024 Y87.456 E10.5071
G1 X149.264 Y88.187 E10.53269
G1 X149.427 Y88.938 E10.55825
G1 X149.489 Y89.503 E10.57715
G1 X150.76 Y89.705 E10.61996
G1 X151.512 Y89.865 E10.64553
G1 X152.244 Y90.102 E10.67112
G1 X152.957 Y90.419 E10.69707
G1 X154.212 Y91.058 E10.74391
G1 X154.878 Y91.442 E10.76948
G1 X155.501 Y91.893 E10.79506
G1 X156.087 Y92.419 E10.82125
G1 X157.081 Y93.413 E10.86801
G1 X157.595 Y93.985 E10.89359
G1 X158.048 Y94.607 E10.91918
G1 X158.442 Y95.288 E10.94535
G1 X159.081 Y96.543 E10.99219
G1 X159.394 Y97.246 E11.01778
G1 X159.633 Y97.977 E11.04336
G1 X159.795 Y98.74 E11.06931
G1 X160.016 Y100.131 E11.11615
G1 X160.097 Y100.896 E11.14174
G1 X160.099 Y101.665 E11.16731
G1 X160.016 Y102.453 E11.19367
G1 X159.795 Y103.844 E11.24051
G1 X159.635 Y104.596 E11.26608
G1 X159.398 Y105.328 E11.29167
G1 X159.081 Y106.041 E11.31763
G1 X158.442 Y107.296 E11.36447
G1 X158.058 Y107.962 E11.39004
G1 X157.607 Y108.585 E11.41562
G1 X157.081 Y109.171 E11.44181
G1 X156.087 Y110.165 E11.48856
G1 X155.515 Y110.679 E11.51414
G1 X154.84 Y111.17 E11.5419
G1 X155.501 Y111.643 E11.56894
G1 X156.087 Y112.169 E11.59513
G1 X157.081 Y113.163 E11.64188
G1 X157.595 Y113.735 E11.66746
G1 X158.048 Y114.357 E11.69305
G1 X158.442 Y115.038 E11.71922
G1 X159.081 Y116.293 E11.76606
G1 X159.394 Y116.996 E11.79166
G1 X159.633 Y117.727 E11.81724
G1 X159.795 Y118.49 E11.84318
G1 X160.016 Y119.881 E11.89002
G1 X160.097 Y120.646 E11.91561
G1 X160.099 Y121.415 E11.94119
G1 X160.016 Y122.203 E11.96754
G1 X159.795 Y123.594 E12.01439
G1 X159.635 Y124.346 E12.03996
G1 X159.398 Y125.078 E12.06555
G1 X159.081 Y125.791 E12.0915
G1 X158.442 Y127.046 E12.13834
G1 X158.058 Y127.712 E12.16391
G1 X157.607 Y128.335 E12.18949
G1 X157.081 Y128.921 E12.21568
G1 X156.087 Y129.915 E12.26244
G1 X155.515 Y130.429 E12.28801
G1 X154.893 Y130.882 E12.31361
G1 X154.212 Y131.276 E12.33978
G1 X152.957 Y131.915 E12.38662
G1 X152.254 Y132.228 E12.41221
G1 X151.523 Y132.467 E12.43779
G1 X150.76 Y132.629 E12.46373
G1 X149.261 Y132.867 E12.51422
G1 X149.166 Y133.227 E12.5266
G1 X148.892 Y133.946 E12.55219
G1 X148.545 Y134.632 E12.57776
G1 X148.129 Y135.279 E12.60334
G1 X147.575 Y135.97 E12.6328
G1 X145.356 Y138.189 E12.73718
G1 X144.784 Y138.703 E12.76275
G1 X144.162 Y139.156 E12.78835
G1 X143.497 Y139.542 E12.81392
G1 X142.795 Y139.857 E12.83951
G1 X142.064 Y140.097 E12.8651
G1 X141.313 Y140.26 E12.89066
G1 X140.439 Y140.356 E12.91991
G1 X99.292 Y140.356 E14.28846
G1 X98.524 Y140.316 E14.31404
G1 X97.764 Y140.197 E14.33962
G1 X97.021 Y139.999 E14.3652
G1 X96.302 Y139.725 E14.39079
G1 X95.616 Y139.378 E14.41636
G1 X94.969 Y138.962 E14.44194
G1 X94.278 Y138.408 E14.4714
G1 X92.059 Y136.189 E14.57578
G1 X91.545 Y135.617 E14.60135
G1 X91.092 Y134.995 E14.62695
G1 X90.706 Y134.33 E14.65252
G1 X90.391 Y133.628 E14.67811
G1 X90.151 Y132.897 E14.7037
G1 X89.988 Y132.146 E14.72926
G1 X89.892 Y131.272 E14.75851
G1 X89.892 Y90.128 E16.12696
G1 X89.932 Y89.36 E16.15254
G1 X90.051 Y88.6 E16.17812
G1 X90.249 Y87.857 E16.2037
G1 X90.523 Y87.138 E16.22929
G1 X90.87 Y86.452 E16.25486
G1 X91.286 Y85.805 E16.28044
G1 X91.84 Y85.114 E16.3099
G1 X94.059 Y82.895 E16.41428
G1 X94.631 Y82.381 E16.43985
G1 X95.253 Y81.928 E16.46545
G1 X95.918 Y81.542 E16.49102
G1 X96.62 Y81.227 E16.51661
G1 X97.351 Y80.987 E16.5422
G1 X97.591 Y80.935 E16.55037
G1 X97.65 Y80.383 E16.56883
G1 X97.871 Y78.992 E16.61568
G1 X98.031 Y78.24 E16.64125
G1 X98.268 Y77.508 E16.66684
G1 X98.585 Y76.795 E16.69279
G1 X99.224 Y75.54 E16.73963
G1 X99.608 Y74.874 E16.7652
G1 X100.059 Y74.251 E16.79079
G0 F3600 X100.396 Y74.47
G1 F1800 X100.866 Y73.951 E16.81407
G1 X101.859 Y72.957 E16.8608
G1 X102.415 Y72.457 E16.88567
G1 X103.021 Y72.019 E16.91054
G1 X103.637 Y71.665 E16.93417
G1 X104.893 Y71.026 E16.98104
G1 X105.577 Y70.723 E17.00593
G1 X106.289 Y70.495 E17.03079
G1 X106.969 Y70.352 E17.0539
G1 X108.36 Y70.131 E17.10075
G1 X109.104 Y70.053 E17.12563
G1 X109.852 Y70.055 E17.15051
G1 X110.557 Y70.131 E17.17409
G1 X111.947 Y70.352 E17.22091
G1 X112.679 Y70.509 E17.24581
G1 X113.389 Y70.743 E17.27067
G1 X114.022 Y71.026 E17.29373
G1 X115.278 Y71.665 E17.3406
G1 X115.926 Y72.039 E17.36549
G1 X116.53 Y72.481 E17.39038
G1 X117.056 Y72.957 E17.41398
G1 X118.049 Y73.951 E17.46071
G1 X118.549 Y74.507 E17.48558
G1 X118.986 Y75.114 E17.51045
G1 X119.333 Y75.718 E17.53362
G1 X119.705 Y75.074 E17.55836
G1 X120.146 Y74.47 E17.58323
G1 X120.618 Y73.948 E17.60664
G1 X121.612 Y72.954 E17.65339
G1 X122.169 Y72.454 E17.67829
G1 X122.775 Y72.017 E17.70314
G1 X123.386 Y71.666 E17.72658
G1 X124.641 Y71.027 E17.77342
G1 X125.325 Y70.724 E17.7983
G1 X126.037 Y70.495 E17.82317
G1 X126.719 Y70.352 E17.84635
G1 X128.11 Y70.131 E17.8932
G1 X128.854 Y70.053 E17.91808
G1 X129.602 Y70.055 E17.94296
G1 X130.307 Y70.131 E17.96654
G1 X131.697 Y70.352 E18.01335
G1 X132.429 Y70.509 E18.03825
G1 X133.139 Y70.743 E18.06312
G1 X133.772 Y71.026 E18.08618
G1 X135.028 Y71.665 E18.13305
G1 X135.676 Y72.039 E18.15793
G1 X136.28 Y72.481 E18.18283
G1 X136.806 Y72.957 E18.20642
G1 X137.799 Y73.951 E18.25315
G1 X138.299 Y74.507 E18.27802
G1 X138.736 Y75.114 E18.3029
G1 X139.085 Y75.722 E18.32622
G1 X139.724 Y76.977 E18.37306
G1 X140.027 Y77.661 E18.39794
G1 X140.256 Y78.373 E18.42282
G1 X140.399 Y79.05 E18.44583
G1 X140.621 Y80.441 E18.49268
G1 X140.694 Y81.14 E18.51606
G1 X141.608 Y81.287 E18.54685
G1 X142.33 Y81.485 E18.57175
G1 X143.026 Y81.758 E18.59661
G1 X143.689 Y82.105 E18.6215
G1 X144.312 Y82.52 E18.6464
G1 X145.073 Y83.178 E18.67986
G1 X147.073 Y85.178 E18.77393
G1 X147.573 Y85.735 E18.79883
G1 X148.01 Y86.341 E18.82368
G1 X148.381 Y86.991 E18.84857
G1 X148.68 Y87.677 E18.87346
G1 X148.904 Y88.391 E18.89835
G1 X149.051 Y89.124 E18.92321
G1 X149.103 Y89.847 E18.94732
G1 X150.697 Y90.1 E19.001
G1 X151.429 Y90.256 E19.0259
G1 X152.139 Y90.49 E19.05076
G1 X152.775 Y90.775 E19.07394
G1 X154.03 Y91.414 E19.12078
G1 X154.678 Y91.789 E19.14568
G1 X155.282 Y92.23 E19.17056
G1 X155.804 Y92.702 E19.19396
G1 X156.798 Y93.696 E19.24072
G1 X157.298 Y94.253 E19.26561
G1 X157.735 Y94.859 E19.29046
G1 X158.086 Y95.47 E19.3139
G1 X158.725 Y96.725 E19.36074
G1 X159.028 Y97.409 E19.38562
G1 X159.257 Y98.121 E19.4105
G1 X159.4 Y98.803 E19.43368
G1 X159.621 Y100.194 E19.48052
G1 X159.699 Y100.938 E19.5054
G1 X159.697 Y101.686 E19.53028
G1 X159.621 Y102.39 E19.55383
G1 X159.4 Y103.781 E19.60068
G1 X159.244 Y104.513 E19.62557
G1 X159.01 Y105.223 E19.65043
G1 X158.725 Y105.859 E19.67362
G1 X158.086 Y107.114 E19.72046
G1 X157.711 Y107.762 E19.74536
G1 X157.27 Y108.366 E19.77023
G1 X156.798 Y108.888 E19.79364
G1 X155.804 Y109.882 E19.84039
G1 X155.247 Y110.382 E19.86529
G1 X154.641 Y110.819 E19.89014
G1 X154.035 Y111.167 E19.91338
G1 X154.678 Y111.539 E19.93809
G1 X155.282 Y111.98 E19.96296
G1 X155.804 Y112.452 E19.98637
G1 X156.798 Y113.446 E20.03312
G1 X157.298 Y114.003 E20.05802
G1 X157.735 Y114.609 E20.08287
G1 X158.086 Y115.22 E20.1063
G1 X158.725 Y116.475 E20.15315
G1 X159.028 Y117.159 E20.17803
G1 X159.257 Y117.871 E20.2029
G1 X159.4 Y118.553 E20.22608
G1 X159.621 Y119.944 E20.27293
G1 X159.699 Y120.688 E20.29781
G1 X159.697 Y121.436 E20.32268
G1 X159.621 Y122.14 E20.34624
G1 X159.4 Y123.531 E20.39308
G1 X159.244 Y124.263 E20.41797
G1 X159.01 Y124.973 E20.44284
G1 X158.725 Y125.609 E20.46602
G1 X158.086 Y126.864 E20.51286
G1 X157.711 Y127.512 E20.53776
G1 X157.27 Y128.116 E20.56263
G1 X156.798 Y128.638 E20.58604
G1 X155.804 Y129.632 E20.6328
G1 X155.247 Y130.132 E20.65769
G1 X154.641 Y130.569 E20.68254
G1 X154.03 Y130.92 E20.70598
G1 X152.775 Y131.559 E20.75282
G1 X152.091 Y131.862 E20.7777
G1 X151.379 Y132.091 E20.80258
G1 X150.697 Y132.234 E20.82575
G1 X148.944 Y132.512 E20.88479
G1 X148.766 Y133.163 E20.90723
G1 X148.493 Y133.859 E20.9321
G1 X148.146 Y134.522 E20.95699
G1 X147.731 Y135.145 E20.98189
G1 X147.073 Y135.906 E21.01535
G1 X145.073 Y137.906 E21.10942
G1 X144.516 Y138.406 E21.13432
G1 X143.91 Y138.843 E21.15917
