;FLAVOR:Marlin
;TIME:10147
;Filament used: 8.2461m
;Layer height: 0.2
;MINX:79.349
;MINY:52.2
;MINZ:0.2
;MAXX:160.3
;MAXY:157.8
;MAXZ:50
;Generated with Cura_SteamEngine 5.2.1
M82 ;absolute extrusion mode
G21 ; set units to millimeters
G90 ; use absolute positioning
M82 ; absolute extrusion mode
M104 S228 ; set extruder temp
M140 S0 ; set bed temp
M190 S0 ; wait for bed temp
M109 S228 ; wait for extruder temp
G28 W ; home all without mesh bed level
G80 ; mesh bed leveling
G92 E0.0 ; reset extruder distance position
G1 Y-3.0 F1000.0 ; go outside print area
G1 X60.0 E9.0 F1000.0 ; intro line
G1 X100.0 E21.5 F1000.0 ; intro line
G92 E0.0 ; reset extruder distance position
G92 E0
G92 E0
G1 F2100 E-0.8
;LAYER_COUNT:250
;LAYER:0
M107
G0 F3600 X101.522 Y60.622 Z0.2
;TYPE:SKIRT
G1 F2100 E0
G1 F1800 X102.144 Y59.685 E0.03741
G1 X102.669 Y58.959 E0.06721
G1 X103.308 Y58.222 E0.09965
G1 X104.257 Y57.228 E0.14536
G1 X105.002 Y56.543 E0.17902
G1 X105.907 Y55.813 E0.21769
G1 X106.606 Y55.31 E0.24633
G1 X107.58 Y54.688 E0.28477
G1 X108.461 Y54.203 E0.31822
G1 X109.808 Y53.57 E0.36772
G1 X110.783 Y53.189 E0.40254
G1 X111.574 Y52.94 E0.43012
G1 X112.305 Y52.748 E0.45526
G1 X113.627 Y52.469 E0.5002
G1 X114.678 Y52.321 E0.5355
G1 X116.08 Y52.22 E0.58225
G1 X116.64 Y52.2 E0.60089
G1 X126.832 Y52.2 E0.93987
G1 X127.946 Y52.254 E0.97697
G1 X128.82 Y52.346 E1.0062
G1 X130.191 Y52.569 E1.0524
G1 X131.249 Y52.818 E1.08855
G1 X132.565 Y53.226 E1.13437
G1 X133.434 Y53.545 E1.16516
G1 X135.368 Y54.509 E1.23704
G1 X136.24 Y55.017 E1.2706
G1 X136.829 Y55.413 E1.29421
G1 X137.369 Y55.811 E1.31652
G1 X138.273 Y56.539 E1.35512
G1 X138.972 Y57.175 E1.38656
G1 X139.755 Y57.98 E1.42391
G1 X140.266 Y58.56 E1.44962
G1 X140.856 Y59.301 E1.48112
G1 X141.29 Y59.904 E1.50583
G1 X141.781 Y60.658 E1.53576
G1 X142.174 Y61.333 E1.56174
G1 X142.666 Y62.285 E1.59738
G1 X143.017 Y63.066 E1.62586
G1 X143.47 Y64.244 E1.66784
G1 X143.76 Y65.163 E1.69989
G1 X144.011 Y66.173 E1.7345
G1 X144.169 Y66.993 E1.76228
G1 X144.341 Y68.246 E1.80434
G1 X144.409 Y69.047 E1.83108
G1 X144.433 Y69.766 E1.85501
G1 X144.473 Y70.269 E1.87179
G1 X144.648 Y70.892 E1.89331
G1 X144.939 Y71.338 E1.91102
G1 X145.221 Y71.634 E1.92462
G1 X145.741 Y71.978 E1.94536
G1 X146.337 Y72.163 E1.96612
G1 X146.668 Y72.194 E1.97717
G1 X150.512 Y72.2 E2.10503
G1 X151.587 Y72.276 E2.14087
G1 X152.106 Y72.349 E2.1583
G1 X152.882 Y72.498 E2.18458
G1 X153.98 Y72.841 E2.22284
G1 X154.911 Y73.252 E2.25669
G1 X155.856 Y73.796 E2.29296
G1 X156.675 Y74.395 E2.32671
G1 X157.263 Y74.923 E2.35299
G1 X157.794 Y75.507 E2.37924
G1 X158.184 Y76.026 E2.40084
G1 X158.823 Y76.953 E2.43828
G1 X159.238 Y77.625 E2.46455
G1 X159.582 Y78.336 E2.49082
G1 X159.853 Y79.077 E2.51706
G1 X160.103 Y80.146 E2.55358
G1 X160.202 Y80.764 E2.5744
G1 X160.3 Y81.669 E2.60467
G1 X160.3 Y128.001 E4.14568
G1 X160.254 Y128.91 E4.17595
G1 X160.108 Y129.814 E4.20641
G1 X159.943 Y130.586 E4.23267
G1 X159.663 Y131.457 E4.2631
G1 X159.29 Y132.286 E4.29333
G1 X158.93 Y132.988 E4.31957
G1 X158.501 Y133.651 E4.34584
G1 X157.972 Y134.306 E4.37384
G1 X157.556 Y134.768 E4.39452
G1 X156.999 Y135.328 E4.42079
G1 X156.388 Y135.828 E4.44705
G1 X155.899 Y136.16 E4.4667
G1 X155.455 Y136.438 E4.48413
G1 X154.766 Y136.823 E4.51038
G1 X154.041 Y137.136 E4.53664
G1 X152.93 Y137.458 E4.57512
G1 X152.112 Y137.631 E4.60293
G1 X151.332 Y137.755 E4.62919
G1 X150.506 Y137.8 E4.65671
G1 X146.691 Y137.804 E4.7836
G1 X146.172 Y137.867 E4.80098
G1 X145.741 Y137.999 E4.81598
G1 X145.215 Y138.376 E4.8375
G1 X144.657 Y139.211 E4.8709
G1 X144.453 Y139.815 E4.89211
G1 X144.405 Y141.037 E4.93278
G1 X144.31 Y142.087 E4.96785
G1 X144.175 Y142.994 E4.99835
G1 X143.891 Y144.343 E5.0442
G1 X143.655 Y145.234 E5.07486
G1 X142.908 Y147.169 E5.14384
G1 X142.532 Y148.012 E5.17454
G1 X141.546 Y149.689 E5.23925
G1 X141.056 Y150.424 E5.26863
G1 X140.559 Y151.085 E5.29614
G1 X139.896 Y151.856 E5.32996
G1 X138.775 Y153 E5.38323
G1 X137.905 Y153.765 E5.42176
G1 X136.798 Y154.601 E5.4679
G1 X136.05 Y155.101 E5.49782
G1 X135.276 Y155.556 E5.52769
G1 X134.648 Y155.888 E5.55131
G1 X133.78 Y156.297 E5.58323
G1 X133.012 Y156.61 E5.61081
G1 X131.917 Y156.99 E5.64936
G1 X131.043 Y157.237 E5.67957
G1 X129.943 Y157.48 E5.71704
G1 X129.282 Y157.597 E5.73936
G1 X128.578 Y157.69 E5.76298
G1 X127.922 Y157.748 E5.78489
G1 X126.814 Y157.8 E5.82178
G1 X116.625 Y157.8 E6.16067
G1 X115.972 Y157.773 E6.1824
G1 X114.365 Y157.638 E6.23604
G1 X113.467 Y157.516 E6.26618
G1 X111.589 Y157.053 E6.33052
G1 X110.707 Y156.787 E6.36116
G1 X108.936 Y156.028 E6.42524
G1 X108.175 Y155.652 E6.45347
G1 X107.53 Y155.288 E6.47811
G1 X106.721 Y154.763 E6.51018
G1 X105.433 Y153.809 E6.56349
G1 X104.693 Y153.185 E6.59569
G1 X104.023 Y152.546 E6.62648
G1 X103.459 Y151.949 E6.6538
G1 X102.707 Y151.063 E6.69245
G1 X102.018 Y150.115 E6.73143
G1 X101.044 Y148.538 E6.79308
G1 X100.5 Y147.487 E6.83244
G1 X100.061 Y146.453 E6.8698
G1 X99.793 Y145.721 E6.89573
G1 X99.516 Y144.83 E6.92676
G1 X99.298 Y143.953 E6.95682
G1 X99.044 Y142.6 E7.00261
G1 X98.92 Y141.56 E7.03744
G1 X98.84 Y140.005 E7.08923
G1 X98.761 Y139.435 E7.10837
G1 X98.565 Y138.936 E7.1262
G1 X98.272 Y138.52 E7.14312
G1 X97.946 Y138.23 E7.15764
G1 X97.444 Y137.937 E7.17697
G1 X96.614 Y137.748 E7.20528
G1 X95.851 Y137.624 E7.23099
G1 X95.089 Y137.418 E7.25725
G1 X94.351 Y137.136 E7.28352
G1 X93.646 Y136.781 E7.30978
G1 X92.98 Y136.357 E7.33604
G1 X92.36 Y135.867 E7.36232
G1 X91.793 Y135.317 E7.38859
G1 X91.285 Y134.713 E7.41484
G1 X90.84 Y134.061 E7.4411
G1 X90.464 Y133.366 E7.46738
G1 X90.16 Y132.638 E7.49362
G1 X89.93 Y131.882 E7.5199
G1 X89.779 Y131.107 E7.54616
G1 X89.7 Y130 E7.58308
G1 X89.7 Y116.403 E8.03531
G1 X89.112 Y116.403 E8.05487
G1 X88.326 Y116.324 E8.08115
G1 X87.553 Y116.166 E8.10739
G1 X86.799 Y115.93 E8.13366
G1 X86.073 Y115.62 E8.15992
G1 X85.382 Y115.237 E8.1862
G1 X84.909 Y114.919 E8.20515
G1 X83.424 Y113.838 E8.26625
G1 X82.81 Y113.342 E8.2925
G1 X82.25 Y112.786 E8.31875
G1 X81.748 Y112.176 E8.34502
G1 X81.311 Y111.518 E8.37129
G1 X80.942 Y110.82 E8.39755
G1 X80.594 Y109.935 E8.42918
G1 X79.728 Y107.261 E8.52267
G1 X79.523 Y106.499 E8.54891
G1 X79.397 Y105.719 E8.57519
G1 X79.349 Y104.931 E8.60145
G1 X79.382 Y104.142 E8.62772
G1 X79.494 Y103.36 E8.65399
G1 X79.728 Y102.455 E8.68508
G1 X80.594 Y99.781 E8.77857
G1 X80.875 Y99.043 E8.80483
G1 X81.23 Y98.337 E8.83111
G1 X81.653 Y97.671 E8.85736
G1 X82.142 Y97.051 E8.88362
G1 X82.692 Y96.483 E8.90992
G1 X83.424 Y95.878 E8.9415
G1 X84.909 Y94.797 E9.00259
G1 X85.571 Y94.365 E9.02889
G1 X86.272 Y94.002 E9.05514
G1 X87.007 Y93.712 E9.08142
G1 X87.767 Y93.498 E9.10768
G1 X88.544 Y93.362 E9.13392
G1 X89.332 Y93.305 E9.1602
G1 X89.7 Y93.316 E9.17244
G1 X89.7 Y80 E9.61533
G1 X89.74 Y79.211 E9.64161
G1 X89.859 Y78.431 E9.66785
G1 X90.057 Y77.666 E9.69413
G1 X90.331 Y76.926 E9.72038
G1 X90.679 Y76.217 E9.74665
G1 X91.097 Y75.546 E9.77294
G1 X91.58 Y74.922 E9.79919
G1 X92.123 Y74.349 E9.82544
G1 X92.722 Y73.834 E9.85172
G1 X93.37 Y73.383 E9.87798
G1 X94.061 Y72.999 E9.90427
G1 X94.786 Y72.687 E9.93052
G1 X95.539 Y72.45 E9.95678
G1 X96.191 Y72.311 E9.97895
G1 X97.215 Y72.137 E10.0135
G1 X97.531 Y72.027 E10.02463
G1 X97.91 Y71.781 E10.03965
G1 X98.374 Y71.321 E10.06138
G1 X98.655 Y70.893 E10.07841
G1 X98.836 Y70.076 E10.10625
G1 X98.872 Y69.027 E10.14116
G1 X98.938 Y68.247 E10.16719
G1 X99.105 Y67.019 E10.20841
G1 X99.235 Y66.309 E10.23242
G1 X99.423 Y65.498 E10.26011
G1 X99.615 Y64.816 E10.28367
G1 X99.836 Y64.146 E10.30714
G1 X100.186 Y63.267 E10.33861
G1 X100.964 Y61.614 E10.39937
G1 X101.522 Y60.622 E10.43723
G0 F3600 X101.856 Y60.843
G1 F1800 X102.478 Y59.906 E10.47463
G1 X102.984 Y59.207 E10.50333
G1 X103.598 Y58.498 E10.53453
G1 X104.547 Y57.504 E10.58024
G1 X105.253 Y56.854 E10.61216
G1 X106.158 Y56.124 E10.65083
G1 X106.821 Y55.647 E10.67799
G1 X107.795 Y55.025 E10.71643
G1 X108.631 Y54.565 E10.74817
G1 X109.978 Y53.932 E10.79767
G1 X110.903 Y53.57 E10.83071
G1 X111.694 Y53.321 E10.85829
G1 X112.388 Y53.139 E10.88215
G1 X113.71 Y52.86 E10.92709
G1 X114.706 Y52.72 E10.96054
G1 X116.108 Y52.619 E11.00729
G1 X116.64 Y52.6 E11.025
G1 X126.812 Y52.6 E11.36332
G1 X127.926 Y52.654 E11.40042
G1 X128.756 Y52.741 E11.42817
G1 X130.127 Y52.964 E11.47437
G1 X131.13 Y53.2 E11.50864
G1 X132.446 Y53.608 E11.55447
G1 X133.279 Y53.915 E11.584
G1 X135.189 Y54.867 E11.65498
G1 X136.017 Y55.349 E11.68684
G1 X136.606 Y55.745 E11.71045
G1 X137.118 Y56.123 E11.73162
G1 X138.022 Y56.851 E11.77022
G1 X138.686 Y57.454 E11.80005
G1 X139.469 Y58.259 E11.83741
G1 X139.953 Y58.81 E11.8618
G1 X140.543 Y59.551 E11.8933
G1 X140.955 Y60.122 E11.91672
G1 X141.446 Y60.876 E11.94665
G1 X141.819 Y61.517 E11.97131
G1 X142.311 Y62.469 E12.00696
G1 X142.644 Y63.21 E12.03398
G1 X143.097 Y64.388 E12.07595
G1 X143.372 Y65.259 E12.10633
G1 X143.623 Y66.269 E12.14095
G1 X143.772 Y67.048 E12.16733
G1 X143.944 Y68.301 E12.20939
G1 X144.009 Y69.06 E12.23473
G1 X144.033 Y69.79 E12.25902
G1 X144.075 Y70.32 E12.27671
G1 X144.164 Y70.742 E12.29105
G1 X144.299 Y71.089 E12.30343
G1 X144.62 Y71.581 E12.32297
G1 X144.959 Y71.937 E12.33932
G1 X145.491 Y72.32 E12.36113
G1 X146.248 Y72.554 E12.38748
G1 X146.655 Y72.594 E12.40108
G1 X150.512 Y72.6 E12.52937
G1 X151.532 Y72.672 E12.56338
G1 X152.051 Y72.745 E12.58081
G1 X152.806 Y72.892 E12.60639
G1 X153.84 Y73.216 E12.64243
G1 X154.749 Y73.618 E12.67549
G1 X155.64 Y74.134 E12.70973
G1 X156.439 Y74.718 E12.74265
G1 X157.009 Y75.235 E12.76825
G1 X157.522 Y75.807 E12.7938
G1 X157.855 Y76.253 E12.81231
G1 X158.494 Y77.18 E12.84976
G1 X158.897 Y77.835 E12.87534
G1 X159.23 Y78.529 E12.90094
G1 X159.489 Y79.253 E12.92652
G1 X159.708 Y80.209 E12.95914
G1 X159.807 Y80.827 E12.97995
G1 X159.9 Y81.695 E13.00899
G1 X159.9 Y128.001 E14.54913
G1 X159.855 Y128.873 E14.57817
G1 X159.713 Y129.75 E14.60772
G1 X159.552 Y130.502 E14.6333
G1 X159.282 Y131.328 E14.66221
G1 X158.925 Y132.122 E14.69116
G1 X158.574 Y132.806 E14.71673
G1 X158.153 Y133.45 E14.74232
G1 X157.675 Y134.039 E14.76755
G1 X157.259 Y134.501 E14.78823
G1 X156.716 Y135.045 E14.81379
G1 X156.118 Y135.529 E14.83938
G1 X155.687 Y135.821 E14.8567
G1 X155.243 Y136.099 E14.87412
G1 X154.571 Y136.473 E14.8997
G1 X153.863 Y136.775 E14.9253
G1 X152.847 Y137.067 E14.96046
G1 X152.029 Y137.24 E14.98827
G1 X151.269 Y137.36 E15.01386
G1 X150.505 Y137.4 E15.03931
G1 X146.676 Y137.404 E15.16666
G1 X146.075 Y137.477 E15.18679
G1 X145.469 Y137.666 E15.20791
G1 X144.917 Y138.1 E15.23126
G1 X144.295 Y139.033 E15.26856
G1 X144.094 Y139.628 E15.28945
G1 X144.046 Y139.969 E15.3009
G1 X144.005 Y141.022 E15.33595
G1 X143.912 Y142.051 E15.37031
G1 X143.783 Y142.911 E15.39924
G1 X143.499 Y144.26 E15.44509
G1 X143.275 Y145.105 E15.47416
G1 X142.534 Y147.025 E15.54261
G1 X142.17 Y147.839 E15.57227
G1 X141.201 Y149.487 E15.63586
G1 X140.737 Y150.183 E15.66368
G1 X140.24 Y150.844 E15.69119
G1 X139.61 Y151.576 E15.72331
G1 X138.489 Y152.72 E15.77658
G1 X137.664 Y153.446 E15.81313
G1 X136.557 Y154.282 E15.85927
G1 X135.847 Y154.756 E15.88766
G1 X135.073 Y155.211 E15.91753
G1 X134.477 Y155.526 E15.93995
G1 X133.609 Y155.935 E15.97186
G1 X132.881 Y156.232 E15.99801
G1 X131.786 Y156.612 E16.03656
G1 X130.956 Y156.847 E16.06525
G1 X129.856 Y157.09 E16.10272
G1 X129.229 Y157.2 E16.12389
G1 X128.525 Y157.293 E16.14751
G1 X127.903 Y157.349 E16.16828
G1 X126.817 Y157.4 E16.20444
G1 X116.625 Y157.4 E16.54343
G1 X116.006 Y157.374 E16.56404
G1 X114.399 Y157.239 E16.61768
G1 X113.541 Y157.122 E16.64648
G1 X111.685 Y156.664 E16.71006
G1 X110.839 Y156.409 E16.73945
G1 X109.094 Y155.661 E16.80259
G1 X108.372 Y155.304 E16.82938
G1 X107.727 Y154.94 E16.85402
G1 X106.96 Y154.441 E16.88445
G1 X105.672 Y153.487 E16.93776
G1 X104.969 Y152.896 E16.96831
G1 X104.299 Y152.257 E16.9991
G1 X103.764 Y151.691 E17.02501
G1 X103.012 Y150.805 E17.06366
G1 X102.358 Y149.905 E17.10066
G1 X101.384 Y148.328 E17.16231
G1 X100.868 Y147.331 E17.19965
G1 X100.429 Y146.297 E17.23701
G1 X100.175 Y145.602 E17.26162
G1 X99.898 Y144.711 E17.29265
G1 X99.691 Y143.879 E17.32117
G1 X99.437 Y142.526 E17.36696
G1 X99.32 Y141.539 E17.40002
G1 X99.24 Y139.974 E17.45214
G1 X99.153 Y139.353 E17.47299
G1 X98.941 Y138.775 E17.49347
G1 X98.582 Y138.265 E17.51421
G1 X98.176 Y137.901 E17.53235
G1 X97.577 Y137.557 E17.55532
G1 X96.694 Y137.356 E17.58544
G1 X95.916 Y137.229 E17.61166
G1 X95.175 Y137.025 E17.63722
G1 X94.458 Y136.746 E17.66281
G1 X93.774 Y136.394 E17.6884
G1 X93.131 Y135.972 E17.71398
G1 X92.534 Y135.487 E17.73956
G1 X91.992 Y134.941 E17.76515
G1 X91.508 Y134.343 E17.79074
G1 X91.09 Y133.698 E17.8163
G1 X90.741 Y133.012 E17.8419
G1 X90.465 Y132.294 E17.86749
G1 X90.265 Y131.552 E17.89305
G1 X90.143 Y130.792 E17.91865
G1 X90.1 Y130 E17.94503
G1 X90.1 Y115.98 E18.41134
G1 X89.581 Y116.013 E18.42863
G1 X88.813 Y115.981 E18.4542
G1 X88.052 Y115.87 E18.47978
G1 X87.306 Y115.68 E18.50538
G1 X86.585 Y115.414 E18.53094
G1 X85.894 Y115.075 E18.55654
G1 X85.145 Y114.596 E18.58611
G1 X83.66 Y113.515 E18.6472
G1 X83.062 Y113.03 E18.67281
G1 X82.518 Y112.487 E18.69838
G1 X82.034 Y111.889 E18.72397
G1 X81.614 Y111.245 E18.74954
G1 X81.263 Y110.56 E18.77514
G1 X80.975 Y109.812 E18.8018
G1 X80.109 Y107.138 E18.89528
G1 X79.91 Y106.395 E18.92087
G1 X79.79 Y105.635 E18.94646
G1 X79.749 Y104.867 E18.97204
G1 X79.788 Y104.099 E18.99761
G1 X79.907 Y103.339 E19.0232
G1 X80.109 Y102.578 E19.04939
G1 X80.975 Y99.904 E19.14287
G1 X81.25 Y99.186 E19.16844
G1 X81.597 Y98.5 E19.19401
G1 X82.015 Y97.853 E19.21963
G1 X82.497 Y97.254 E19.24521
G1 X83.038 Y96.708 E19.27077
G1 X83.66 Y96.201 E19.29746
G1 X85.145 Y95.12 E19.35855
G1 X85.789 Y94.701 E19.38411
G1 X86.474 Y94.35 E19.40971
G1 X87.191 Y94.072 E19.43528
G1 X87.934 Y93.871 E19.46088
G1 X88.693 Y93.747 E19.48646
G1 X89.461 Y93.703 E19.51205
G1 X90.1 Y93.733 E19.53332
G1 X90.1 Y80 E19.99009
G1 X90.14 Y79.232 E20.01566
G1 X90.259 Y78.472 E20.04125
G1 X90.457 Y77.729 E20.06683
G1 X90.731 Y77.01 E20.09242
G1 X91.078 Y76.324 E20.11799
G1 X91.494 Y75.677 E20.14357
G1 X91.975 Y75.077 E20.16915
G1 X92.516 Y74.53 E20.19474
G1 X93.111 Y74.042 E20.22033
G1 X93.753 Y73.619 E20.2459
G1 X94.436 Y73.264 E20.2715
G1 X95.151 Y72.983 E20.29705
G1 X96.258 Y72.705 E20.33502
G1 X97.312 Y72.526 E20.37057
G1 X97.72 Y72.381 E20.38498
G1 X98.159 Y72.097 E20.40237
G1 X98.69 Y71.57 E20.42725
G1 X99.029 Y71.05 E20.4479
G1 X99.234 Y70.12 E20.47957
G1 X99.271 Y69.041 E20.51548
G1 X99.334 Y68.301 E20.54018
G1 X99.501 Y67.073 E20.5814
G1 X99.625 Y66.399 E20.60419
G1 X99.813 Y65.588 E20.63188
G1 X99.994 Y64.941 E20.65423
G1 X100.215 Y64.271 E20.67769
G1 X100.548 Y63.438 E20.70753
G1 X101.326 Y61.785 E20.76829
G1 X101.856 Y60.843 E20.80424
G0 F3600 X102.189 Y61.065
G1 F1800 X102.811 Y60.128 E20.84165
G1 X103.295 Y59.457 E20.86917
G1 X103.887 Y58.774 E20.89923
G1 X104.836 Y57.78 E20.94494
G1 X105.504 Y57.166 E20.97512
G1 X106.409 Y56.436 E21.01379
G1 X107.036 Y55.984 E21.0395
G1 X108.01 Y55.362 E21.07793
G1 X108.801 Y54.927 E21.10796
G1 X110.148 Y54.294 E21.15746
G1 X111.023 Y53.952 E21.18871
G1 X111.814 Y53.703 E21.21629
G1 X112.471 Y53.531 E21.23888
G1 X113.793 Y53.252 E21.28382
G1 X114.735 Y53.119 E21.31546
G1 X116.137 Y53.018 E21.36221
G1 X116.64 Y53 E21.37895
G1 X126.814 Y53 E21.71734
G1 X127.907 Y53.053 E21.75373
G1 X128.692 Y53.136 E21.77999
G1 X130.063 Y53.359 E21.82619
G1 X131.012 Y53.582 E21.85861
G1 X132.328 Y53.99 E21.90444
G1 X133.119 Y54.282 E21.93248
G1 X135.011 Y55.225 E22.00279
G1 X135.794 Y55.681 E22.03293
G1 X136.383 Y56.077 E22.05654
G1 X136.867 Y56.434 E22.07654
G1 X137.771 Y57.162 E22.11514
G1 X138.399 Y57.733 E22.14337
G1 X139.182 Y58.538 E22.18073
G1 X139.64 Y59.059 E22.2038
G1 X140.23 Y59.8 E22.2353
G1 X140.62 Y60.34 E22.25746
G1 X141.111 Y61.094 E22.28738
G1 X141.464 Y61.7 E22.31071
G1 X141.956 Y62.652 E22.34635
G1 X142.271 Y63.354 E22.37194
G1 X142.724 Y64.532 E22.41392
G1 X142.983 Y65.356 E22.44265
G1 X143.234 Y66.366 E22.47726
G1 X143.376 Y67.102 E22.50219
G1 X143.548 Y68.355 E22.54426
G1 X143.609 Y69.074 E22.56826
G1 X143.633 Y69.806 E22.59262
G1 X143.678 Y70.373 E22.61154
G1 X143.779 Y70.852 E22.62782
